;FLAVOR:Marlin
;TIME:123
;Filament used: 1.93825m
;Layer height: 1
;MINX:-54.925
;MINY:-54.893
;MINZ:0.5
;MAXX:54.885
;MAXY:54.892
;MAXZ:11.5
;TARGET_MACHINE.NAME:Unknown
;Generated with Cura_SteamEngine 5.11.0
M140 S60
M105
M190 S60
M104 S200
M105
M109 S200
G28 ;Home
M302 S0 ;Set cold extrusion
M92 E400 ;E Steps at 400 steps/mm M92 E-400 reverse
G1 Z15.0 F6000 ;Move the platform down 15mm
;Prime the extruder
G92 E0
G1 F200 E3
G92 E0
M82 ;absolute extrusion mode
G92 E0
G92 E0
G1 F1500 E-6.5
;LAYER_COUNT:11
;LAYER:0
M107
G1 F600 Z1.5
;MESH:AeroPressWrench.stl
G0 F960 X0.00 Y0.000 Z1.5
G0 X-49.915 Y0.915
;TYPE:WALL-OUTER
G1 F600 Z0.5
G1 F1500 E0
G1 F1200 X-49.915 Y-.915 E0.43029
G1 X-50.069 Y-2.738 E0.86046
G1 X-50.375 Y-4.545 E1.2914
G1 X-50.833 Y-6.331 E1.72493
G1 X-51.433 Y-8.047 E2.15237
G1 X-52.18 Y-9.723 E2.58382
G1 X-53.06 Y-11.323 E3.01318
G1 X-54.068 Y-12.841 E3.44164
G1 X-54.307 Y-13.142 E3.53201
G1 X-54.143 Y-13.906 E3.71574
G1 X-52.793 Y-18.38 E4.81457
G1 X-51.068 Y-22.736 E5.91619
G1 X-48.982 Y-26.938 E7.01926
G1 X-47.665 Y-29.114 E7.61732
G1 X-47.31 Y-29.155 E7.70135
G1 X-45.516 Y-29.517 E8.13168
G1 X-43.759 Y-30.027 E8.56186
G1 X-42.051 Y-30.683 E8.99207
G1 X-40.395 Y-31.484 E9.4246
G1 X-38.829 Y-32.411 E9.8525
G1 X-37.338 Y-33.471 E10.28265
G1 X-35.941 Y-34.651 E10.71262
G1 X-34.647 Y-35.945 E11.14291
G1 X-33.464 Y-37.346 E11.57406
G1 X-32.407 Y-38.833 E12.00304
G1 X-31.475 Y-40.409 E12.43355
G1 X-30.676 Y-42.064 E12.86567
G1 X-30.023 Y-43.764 E13.29387
G1 X-29.512 Y-45.525 E13.72502
G1 X-29.151 Y-47.318 E14.15507
G1 X-29.108 Y-47.69 E14.24312
G1 X-25.896 Y-49.543 E15.11503
G1 X-21.661 Y-51.536 E16.21557
G1 X-17.274 Y-53.167 E17.31608
G1 X-13.148 Y-54.32 E18.3234
G1 X-12.835 Y-54.072 E18.4173
G1 X-11.312 Y-53.06 E18.84726
G1 X-9.709 Y-52.178 E19.27746
G1 X-8.038 Y-51.434 E19.70755
G1 X-6.309 Y-50.833 E20.13795
G1 X-4.537 Y-50.378 E20.56812
G1 X-2.734 Y-50.073 E20.99809
G1 X-.911 Y-49.919 E21.42826
G1 X0.924 Y-49.919 E21.85973
G1 X2.742 Y-50.073 E22.28873
G1 X4.546 Y-50.377 E22.71889
G1 X6.318 Y-50.833 E23.14912
G1 X8.063 Y-51.441 E23.58362
G1 X9.722 Y-52.18 E24.01065
G1 X11.326 Y-53.063 E24.44117
G1 X12.845 Y-54.073 E24.87009
G1 X13.125 Y-54.295 E24.9541
G1 X15.032 Y-53.847 E25.41471
G1 X19.493 Y-52.398 E26.51758
G1 X23.811 Y-50.583 E27.61892
G1 X27.954 Y-48.417 E28.71818
G1 X29.117 Y-47.679 E29.04204
G1 X29.159 Y-47.314 E29.12843
G1 X29.521 Y-45.521 E29.55853
G1 X30.031 Y-43.764 E29.98871
G1 X30.687 Y-42.055 E30.41914
G1 X31.484 Y-40.408 E30.84936
G1 X32.42 Y-38.826 E31.28157
G1 X33.481 Y-37.335 E31.71186
G1 X34.661 Y-35.94 E32.14147
G1 X35.949 Y-34.651 E32.56993
G1 X37.347 Y-33.47 E33.00024
G1 X38.838 Y-32.411 E33.43026
G1 X40.413 Y-31.479 E33.86057
G1 X42.065 Y-30.681 E34.29195
G1 X43.782 Y-30.023 E34.7243
G1 X45.525 Y-29.517 E35.15106
G1 X47.333 Y-29.153 E35.58471
G1 X47.744 Y-29.105 E35.682
G1 X50.082 Y-24.852 E36.82316
G1 X51.98 Y-20.588 E37.92061
G1 X53.523 Y-16.156 E39.02406
G1 X54.302 Y-13.124 E39.76013
G1 X54.077 Y-12.841 E39.84514
G1 X53.064 Y-11.316 E40.27562
G1 X52.182 Y-9.713 E40.70583
G1 X51.438 Y-8.041 E41.13613
G1 X50.835 Y-6.307 E41.5678
G1 X50.381 Y-4.542 E41.99632
G1 X50.076 Y-2.729 E42.4286
G1 X49.923 Y-.915 E42.85665
G1 X49.923 Y0.915 E43.28694
G1 X50.074 Y2.728 E43.71471
G1 X50.383 Y4.545 E44.14808
G1 X50.837 Y6.314 E44.5775
G1 X51.442 Y8.052 E45.01022
G1 X52.187 Y9.721 E45.43997
G1 X53.066 Y11.32 E45.86901
G1 X54.081 Y12.846 E46.29995
G1 X54.302 Y13.125 E46.38363
G1 X53.522 Y16.158 E47.12
G1 X51.98 Y20.588 E48.22293
G1 X50.08 Y24.856 E49.32142
G1 X47.743 Y29.106 E50.46185
G1 X47.319 Y29.155 E50.56221
G1 X45.525 Y29.517 E50.99254
G1 X43.768 Y30.027 E51.42272
G1 X42.06 Y30.683 E51.85292
G1 X40.412 Y31.479 E52.28326
G1 X38.838 Y32.411 E52.71337
G1 X37.347 Y33.47 E53.14338
G1 X35.949 Y34.651 E53.57369
G1 X34.656 Y35.945 E54.00381
G1 X33.475 Y37.343 E54.43412
G1 X32.415 Y38.833 E54.86408
G1 X31.484 Y40.409 E55.29447
G1 X30.686 Y42.06 E55.72564
G1 X30.029 Y43.772 E56.15682
G1 X29.521 Y45.521 E56.58506
G1 X29.159 Y47.313 E57.01492
G1 X29.117 Y47.678 E57.10131
G1 X27.948 Y48.42 E57.42688
G1 X23.811 Y50.583 E58.52455
G1 X19.493 Y52.398 E59.6259
G1 X15.032 Y53.847 E60.72877
G1 X13.126 Y54.295 E61.18914
G1 X12.844 Y54.072 E61.27368
G1 X11.321 Y53.06 E61.70363
G1 X9.718 Y52.178 E62.13384
G1 X8.045 Y51.434 E62.56436
G1 X6.318 Y50.833 E62.99432
G1 X4.541 Y50.376 E63.42574
G1 X2.739 Y50.073 E63.8554
G1 X0.919 Y49.919 E64.28487
G1 X-.911 Y49.919 E64.71516
G1 X-2.734 Y50.073 E65.14533
G1 X-4.52 Y50.373 E65.57116
G1 X-6.327 Y50.839 E66.00994
G1 X-8.038 Y51.434 E66.43589
G1 X-9.709 Y52.178 E66.86598
G1 X-11.312 Y53.06 E67.29618
G1 X-12.836 Y54.072 E67.72633
G1 X-13.149 Y54.32 E67.82023
G1 X-17.274 Y53.167 E68.82733
G1 X-21.661 Y51.536 E69.92783
G1 X-25.896 Y49.543 E71.02837
G1 X-29.108 Y47.689 E71.9004
G1 X-29.151 Y47.314 E71.98915
G1 X-29.513 Y45.521 E72.41925
G1 X-30.023 Y43.764 E72.84943
G1 X-30.679 Y42.056 E73.27964
G1 X-31.477 Y40.404 E73.71102
G1 X-32.407 Y38.833 E74.14028
G1 X-33.466 Y37.343 E74.57011
G1 X-34.647 Y35.945 E75.00041
G1 X-35.941 Y34.651 E75.4307
G1 X-37.338 Y33.471 E75.86068
G1 X-38.829 Y32.411 E76.29083
G1 X-40.409 Y31.477 E76.7224
G1 X-42.052 Y30.683 E77.15146
G1 X-43.768 Y30.025 E77.5836
G1 X-45.516 Y29.517 E78.01161
G1 X-47.318 Y29.154 E78.44383
G1 X-47.665 Y29.114 E78.52596
G1 X-48.983 Y26.938 E79.12415
G1 X-51.068 Y22.736 E80.22711
G1 X-52.793 Y18.38 E81.32873
G1 X-54.144 Y13.904 E82.42808
G1 X-54.306 Y13.142 E82.61126
G1 X-54.068 Y12.841 E82.70148
G1 X-53.055 Y11.315 E83.13216
G1 X-52.174 Y9.712 E83.56225
G1 X-51.43 Y8.042 E83.99212
G1 X-50.828 Y6.314 E84.42238
G1 X-50.373 Y4.542 E84.85255
G1 X-50.069 Y2.738 E85.28271
G1 X-49.915 Y0.915 E85.71288
G1 X-49.915 Y-.915 Z0.503 E86.14317
G1 X-50.069 Y-2.738 Z0.505 E86.57335
G1 X-50.375 Y-4.545 Z0.508 E87.00428
G1 X-50.833 Y-6.331 Z0.51 E87.43781
G1 X-51.433 Y-8.047 Z0.513 E87.86525
G1 X-52.18 Y-9.723 Z0.515 E88.2967
G1 X-53.06 Y-11.323 Z0.518 E88.72606
G1 X-54.068 Y-12.841 Z0.52 E89.15452
G1 X-54.307 Y-13.142 Z0.521 E89.24489
G1 X-54.143 Y-13.906 Z0.522 E89.42863
G1 X-52.793 Y-18.38 Z0.528 E90.52746
G1 X-51.068 Y-22.736 Z0.535 E91.62908
G1 X-48.982 Y-26.938 Z0.541 E92.73215
G1 X-47.665 Y-29.114 Z0.544 E93.33021
G1 X-47.31 Y-29.155 Z0.545 E93.41424
G1 X-45.516 Y-29.517 Z0.547 E93.84457
G1 X-43.759 Y-30.027 Z0.55 E94.27475
G1 X-42.051 Y-30.683 Z0.552 E94.70496
G1 X-40.395 Y-31.484 Z0.555 E95.13749
G1 X-38.829 Y-32.411 Z0.557 E95.56539
G1 X-37.338 Y-33.471 Z0.56 E95.99554
G1 X-35.941 Y-34.651 Z0.562 E96.42552
G1 X-34.647 Y-35.945 Z0.565 E96.85581
G1 X-33.464 Y-37.346 Z0.568 E97.28696
G1 X-32.407 Y-38.833 Z0.57 E97.71593
G1 X-31.475 Y-40.409 Z0.573 E98.14645
G1 X-30.676 Y-42.064 Z0.575 E98.57857
G1 X-30.023 Y-43.764 Z0.578 E99.00677
G1 X-29.512 Y-45.525 Z0.58 E99.43792
G1 X-29.151 Y-47.318 Z0.583 E99.86797
G1 X-29.108 Y-47.69 E99.95602
G1 X-25.896 Y-49.543 Z0.588 E100.82793
G1 X-21.661 Y-51.536 Z0.595 E101.92847
G1 X-17.274 Y-53.167 Z0.601 E103.02898
G1 X-13.148 Y-54.32 Z0.607 E104.0363
G1 X-12.835 Y-54.072 E104.1302
G1 X-11.312 Y-53.06 Z0.61 E104.56016
G1 X-9.709 Y-52.178 Z0.612 E104.99036
G1 X-8.038 Y-51.434 Z0.615 E105.42045
G1 X-6.309 Y-50.833 Z0.617 E105.85086
G1 X-4.537 Y-50.378 Z0.62 E106.28103
G1 X-2.734 Y-50.073 Z0.622 E106.71099
G1 X-.911 Y-49.919 Z0.625 E107.14116
G1 X0.924 Y-49.919 Z0.628 E107.57263
G1 X2.742 Y-50.073 Z0.63 E108.00163
G1 X4.546 Y-50.377 Z0.633 E108.43179
G1 X6.318 Y-50.833 Z0.635 E108.86202
G1 X8.063 Y-51.441 Z0.638 E109.29652
G1 X9.722 Y-52.18 Z0.64 E109.72355
G1 X11.326 Y-53.063 Z0.643 E110.15408
G1 X12.845 Y-54.073 Z0.645 E110.58299
G1 X13.125 Y-54.295 Z0.646 E110.66701
G1 X15.032 Y-53.847 Z0.648 E111.12761
G1 X19.493 Y-52.398 Z0.655 E112.23049
G1 X23.811 Y-50.583 Z0.661 E113.33183
G1 X27.954 Y-48.417 Z0.668 E114.43108
G1 X29.117 Y-47.679 Z0.669 E114.75495
G1 X29.159 Y-47.314 Z0.67 E114.84134
G1 X29.521 Y-45.521 Z0.672 E115.27144
G1 X30.031 Y-43.764 Z0.675 E115.70162
G1 X30.687 Y-42.055 Z0.677 E116.13205
G1 X31.484 Y-40.408 Z0.68 E116.56227
G1 X32.42 Y-38.826 Z0.682 E116.99448
G1 X33.481 Y-37.335 Z0.685 E117.42477
G1 X34.661 Y-35.94 Z0.687 E117.85439
G1 X35.949 Y-34.651 Z0.69 E118.28285
G1 X37.347 Y-33.47 Z0.693 E118.71316
G1 X38.838 Y-32.411 Z0.695 E119.14317
G1 X40.413 Y-31.479 Z0.698 E119.57348
G1 X42.065 Y-30.681 Z0.7 E120.00487
G1 X43.782 Y-30.023 Z0.703 E120.43722
G1 X45.525 Y-29.517 Z0.705 E120.86397
G1 X47.333 Y-29.153 Z0.708 E121.29762
G1 X47.744 Y-29.105 E121.39492
G1 X50.082 Y-24.852 Z0.715 E122.53608
G1 X51.98 Y-20.588 Z0.721 E123.63352
G1 X53.523 Y-16.156 Z0.728 E124.73698
G1 X54.302 Y-13.124 Z0.732 E125.47305
G1 X54.077 Y-12.841 E125.55806
G1 X53.064 Y-11.316 Z0.735 E125.98854
G1 X52.182 Y-9.713 Z0.737 E126.41875
G1 X51.438 Y-8.041 Z0.74 E126.84905
G1 X50.835 Y-6.307 Z0.742 E127.28072
G1 X50.381 Y-4.542 Z0.745 E127.70924
G1 X50.076 Y-2.729 Z0.748 E128.14152
G1 X49.923 Y-.915 Z0.75 E128.56957
G1 X49.923 Y0.915 Z0.753 E128.99986
G1 X50.074 Y2.728 Z0.755 E129.42763
G1 X50.383 Y4.545 Z0.758 E129.861
G1 X50.837 Y6.314 Z0.76 E130.29043
G1 X51.442 Y8.052 Z0.763 E130.72314
G1 X52.187 Y9.721 Z0.765 E131.1529
G1 X53.066 Y11.32 Z0.768 E131.58194
G1 X54.081 Y12.846 Z0.77 E132.01287
G1 X54.302 Y13.125 Z0.771 E132.09656
G1 X53.522 Y16.158 Z0.775 E132.83292
G1 X51.98 Y20.588 Z0.781 E133.93586
G1 X50.08 Y24.856 Z0.788 E135.03435
G1 X47.743 Y29.106 Z0.794 E136.17478
G1 X47.319 Y29.155 Z0.795 E136.27514
G1 X45.525 Y29.517 Z0.797 E136.70547
G1 X43.768 Y30.027 Z0.8 E137.13565
G1 X42.06 Y30.683 Z0.802 E137.56586
G1 X40.412 Y31.479 Z0.805 E137.99619
G1 X38.838 Y32.411 Z0.807 E138.4263
G1 X37.347 Y33.47 Z0.81 E138.85631
G1 X35.949 Y34.651 Z0.813 E139.28662
G1 X34.656 Y35.945 Z0.815 E139.71675
G1 X33.475 Y37.343 Z0.818 E140.14705
G1 X32.415 Y38.833 Z0.82 E140.57701
G1 X31.484 Y40.409 Z0.823 E141.00741
G1 X30.686 Y42.06 Z0.825 E141.43858
G1 X30.029 Y43.772 Z0.828 E141.86975
G1 X29.521 Y45.521 Z0.83 E142.29799
G1 X29.159 Y47.313 Z0.833 E142.72786
G1 X29.117 Y47.678 E142.81425
G1 X27.948 Y48.42 Z0.835 E143.13982
G1 X23.811 Y50.583 Z0.841 E144.23749
G1 X19.493 Y52.398 Z0.848 E145.33884
G1 X15.032 Y53.847 Z0.854 E146.44171
G1 X13.126 Y54.295 Z0.857 E146.90208
G1 X12.844 Y54.072 E146.98662
G1 X11.321 Y53.06 Z0.86 E147.41657
G1 X9.718 Y52.178 Z0.862 E147.84678
G1 X8.045 Y51.434 Z0.865 E148.2773
G1 X6.318 Y50.833 Z0.867 E148.70726
G1 X4.541 Y50.376 Z0.87 E149.13868
G1 X2.739 Y50.073 Z0.872 E149.56834
G1 X0.919 Y49.919 Z0.875 E149.99781
G1 X-.911 Y49.919 Z0.878 E150.4281
G1 X-2.734 Y50.073 Z0.88 E150.85827
G1 X-4.52 Y50.373 Z0.883 E151.2841
G1 X-6.327 Y50.839 Z0.885 E151.72289
G1 X-8.038 Y51.434 Z0.888 E152.14883
G1 X-9.709 Y52.178 Z0.89 E152.57892
G1 X-11.312 Y53.06 Z0.893 E153.00913
G1 X-12.836 Y54.072 Z0.895 E153.43928
G1 X-13.149 Y54.32 Z0.896 E153.53318
G1 X-17.274 Y53.167 Z0.901 E154.54027
G1 X-21.661 Y51.536 Z0.908 E155.64078
G1 X-25.896 Y49.543 Z0.914 E156.74132
G1 X-29.108 Y47.689 Z0.919 E157.61335
G1 X-29.151 Y47.314 Z0.92 E157.7021
G1 X-29.513 Y45.521 Z0.922 E158.1322
G1 X-30.023 Y43.764 Z0.925 E158.56238
G1 X-30.679 Y42.056 Z0.927 E158.99259
G1 X-31.477 Y40.404 Z0.93 E159.42397
G1 X-32.407 Y38.833 Z0.932 E159.85324
G1 X-33.466 Y37.343 Z0.935 E160.28306
G1 X-34.647 Y35.945 Z0.938 E160.71337
G1 X-35.941 Y34.651 Z0.94 E161.14366
G1 X-37.338 Y33.471 Z0.943 E161.57364
G1 X-38.829 Y32.411 Z0.945 E162.00379
G1 X-40.409 Y31.477 Z0.948 E162.43535
G1 X-42.052 Y30.683 Z0.95 E162.86442
G1 X-43.768 Y30.025 Z0.953 E163.29655
G1 X-45.516 Y29.517 Z0.955 E163.72457
G1 X-47.318 Y29.154 Z0.958 E164.15679
G1 X-47.665 Y29.114 E164.23892
G1 X-48.983 Y26.938 Z0.962 E164.8371
G1 X-51.068 Y22.736 Z0.968 E165.94007
G1 X-52.793 Y18.38 Z0.974 E167.04169
G1 X-54.144 Y13.904 Z0.981 E168.14104
G1 X-54.306 Y13.142 Z0.982 E168.32422
G1 X-54.068 Y12.841 E168.41444
G1 X-53.055 Y11.315 Z0.985 E168.84512
G1 X-52.174 Y9.712 Z0.987 E169.27521
G1 X-51.43 Y8.042 Z0.99 E169.70508
G1 X-50.828 Y6.314 Z0.992 E170.13534
G1 X-50.373 Y4.542 Z0.995 E170.56551
G1 X-50.069 Y2.738 Z0.997 E170.99567
G1 X-49.915 Y0.915 Z1 E171.42585
;TIME_ELAPSED:42.132270
;LAYER:1
M106 S255
;MESH:AeroPressWrench.stl
G0 F1680 X-49.915 Y0.915 Z1.5
;TYPE:WALL-OUTER
G1 F2100 X-49.915 Y-.915 Z1.505 E172.28643
G1 X-50.069 Y-2.738 Z1.51 E173.14678
G1 X-50.377 Y-4.553 Z1.515 E174.01251
G1 X-50.828 Y-6.313 Z1.52 E174.86692
G1 X-51.431 Y-8.041 Z1.525 E175.7276
G1 X-52.175 Y-9.713 Z1.53 E176.58821
G1 X-53.055 Y-11.314 Z1.535 E177.44735
G1 X-54.067 Y-12.84 Z1.54 E178.30844
G1 X-54.263 Y-13.415 Z1.542 E178.59412
G1 X-54.157 Y-13.91 Z1.543 E178.83218
G1 X-52.811 Y-18.386 Z1.556 E181.0302
G1 X-51.089 Y-22.746 Z1.569 E183.23468
G1 X-49.007 Y-26.95 Z1.582 E185.44084
G1 X-47.825 Y-28.907 Z1.588 E186.51599
G1 X-47.311 Y-29.154 Z1.589 E186.78417
G1 X-45.516 Y-29.517 Z1.594 E187.64538
G1 X-43.759 Y-30.027 Z1.599 E188.50574
G1 X-42.052 Y-30.682 Z1.604 E189.36555
G1 X-40.406 Y-31.479 Z1.609 E190.22558
G1 X-38.828 Y-32.412 Z1.614 E191.08766
G1 X-37.338 Y-33.471 Z1.619 E191.94731
G1 X-35.941 Y-34.651 Z1.624 E192.80726
G1 X-34.647 Y-35.945 Z1.629 E193.66785
G1 X-33.458 Y-37.355 Z1.634 E194.53521
G1 X-32.407 Y-38.833 Z1.639 E195.38807
G1 X-31.475 Y-40.409 Z1.644 E196.24911
G1 X-30.68 Y-42.056 Z1.649 E197.10915
G1 X-30.023 Y-43.764 Z1.654 E197.96973
G1 X-29.514 Y-45.521 Z1.659 E198.82996
G1 X-29.152 Y-47.314 Z1.664 E199.69016
G1 X-28.921 Y-47.862 Z1.666 E199.96983
G1 X-25.923 Y-49.596 Z1.675 E201.59852
G1 X-21.686 Y-51.594 Z1.688 E203.80146
G1 X-17.295 Y-53.232 Z1.701 E206.0054
G1 X-13.401 Y-54.323 Z1.712 E207.90713
G1 X-12.835 Y-54.072 Z1.714 E208.19829
G1 X-11.312 Y-53.06 Z1.719 E209.05821
G1 X-9.709 Y-52.178 Z1.724 E209.91862
G1 X-8.038 Y-51.434 Z1.729 E210.7788
G1 X-6.306 Y-50.832 Z1.734 E211.6411
G1 X-4.537 Y-50.378 Z1.739 E212.49996
G1 X-2.734 Y-50.073 Z1.744 E213.3599
G1 X-.911 Y-49.919 Z1.749 E214.22024
G1 X0.919 Y-49.919 Z1.754 E215.08083
G1 X2.742 Y-50.073 Z1.759 E215.94118
G1 X4.546 Y-50.377 Z1.764 E216.8015
G1 X6.318 Y-50.833 Z1.769 E217.66196
G1 X8.044 Y-51.434 Z1.774 E218.52144
G1 X9.717 Y-52.178 Z1.779 E219.38248
G1 X11.32 Y-53.06 Z1.784 E220.24289
G1 X12.845 Y-54.073 Z1.789 E221.10385
G1 X13.405 Y-54.33 Z1.791 E221.39361
G1 X15.058 Y-53.943 Z1.795 E222.19197
G1 X19.53 Y-52.495 Z1.808 E224.4025
G1 X23.857 Y-50.681 Z1.821 E226.60892
G1 X28.008 Y-48.515 Z1.834 E228.81076
G1 X28.949 Y-47.919 Z1.837 E229.33458
G1 X29.159 Y-47.314 Z1.839 E229.63574
G1 X29.521 Y-45.521 Z1.844 E230.49594
G1 X30.031 Y-43.764 Z1.849 E231.3563
G1 X30.687 Y-42.055 Z1.854 E232.21716
G1 X31.483 Y-40.409 Z1.859 E233.07698
G1 X32.415 Y-38.834 Z1.864 E233.93761
G1 X33.475 Y-37.344 Z1.869 E234.79753
G1 X34.656 Y-35.946 Z1.874 E235.65815
G1 X35.949 Y-34.651 Z1.879 E236.51873
G1 X37.349 Y-33.469 Z1.884 E237.38037
G1 X38.838 Y-32.411 Z1.889 E238.23936
G1 X40.412 Y-31.48 Z1.894 E239.09935
G1 X42.061 Y-30.683 Z1.899 E239.96064
G1 X43.768 Y-30.028 Z1.904 E240.82045
G1 X45.525 Y-29.517 Z1.909 E241.68095
G1 X47.318 Y-29.156 Z1.914 E242.54105
G1 X47.981 Y-28.964 Z1.915 E242.86565
G1 X50.211 Y-24.916 Z1.928 E245.03903
G1 X52.118 Y-20.642 Z1.941 E247.23994
G1 X53.669 Y-16.2 Z1.954 E249.45254
G1 X54.388 Y-13.409 Z1.962 E250.8079
G1 X54.077 Y-12.84 Z1.963 E251.11284
G1 X53.064 Y-11.316 Z1.968 E251.97341
G1 X52.182 Y-9.713 Z1.973 E252.83382
G1 X51.439 Y-8.042 Z1.978 E253.69381
G1 X50.838 Y-6.314 Z1.983 E254.55418
G1 X50.381 Y-4.542 Z1.988 E255.41476
G1 X50.078 Y-2.738 Z1.993 E256.275
G1 X49.923 Y-.915 Z1.998 E257.13539
G1 X49.923 Y0.915 Z2.003 E257.99597
G1 X50.076 Y2.739 Z2.008 E258.85675
G1 X50.385 Y4.556 Z2.014 E259.72349
G1 X50.837 Y6.314 Z2.018 E260.57711
G1 X51.438 Y8.042 Z2.023 E261.43747
G1 X52.182 Y9.713 Z2.028 E262.29766
G1 X53.065 Y11.318 Z2.034 E263.15912
G1 X54.076 Y12.841 Z2.039 E264.01877
G1 X54.415 Y13.417 Z2.04 E264.33308
G1 X53.698 Y16.211 Z2.048 E265.68957
G1 X52.156 Y20.657 Z2.061 E267.90256
G1 X50.254 Y24.939 Z2.074 E270.10595
G1 X48.031 Y28.993 Z2.087 E272.28021
G1 X47.319 Y29.155 Z2.089 E272.6236
G1 X45.525 Y29.517 Z2.094 E273.48426
G1 X43.768 Y30.027 Z2.099 E274.34462
