;FLAVOR:Marlin
;TIME:599
;Filament used: 13.028m
;Layer height: 1
;MINX:-56.591
;MINY:-54.922
;MINZ:0.5
;MAXX:56.553
;MAXY:54.921
;MAXZ:75.5
;TARGET_MACHINE.NAME:Unknown
;Generated with Cura_SteamEngine 5.11.0
M140 S60
M105
M190 S60
M104 S200
M105
M109 S200
G28 ;Home
M302 S0 ;Set cold extrusion
M92 E400 ;E Steps at 400 steps/mm M92 E-400 reverse
G1 Z15.0 F6000 ;Move the platform down 15mm
;Prime the extruder
G92 E0
G1 F200 E3
G92 E0
M82 ;absolute extrusion mode
G92 E0
G92 E0
G1 F1500 E-6.5
;LAYER_COUNT:75
;LAYER:0
M107
G1 F600 Z1.5
;MESH:AeroPressWrench.stl
G0 F960 X0.00 Y0.000 Z1.5
G0 X-.928 Y-49.919
;TYPE:WALL-OUTER
G1 F600 Z0.5
G1 F1500 E0
G1 F1200 X0.943 Y-49.919 E0.43993
G1 X2.814 Y-50.072 E0.88133
G1 X4.666 Y-50.377 E1.32266
G1 X6.485 Y-50.832 E1.76354
G1 X8.258 Y-51.431 E2.20358
G1 X9.974 Y-52.174 E2.64327
G1 X11.62 Y-53.054 E3.08213
G1 X13.187 Y-54.067 E3.52087
G1 X13.372 Y-54.209 E3.57571
G1 X15.469 Y-53.731 E4.08143
G1 X20.039 Y-52.289 E5.2082
G1 X24.497 Y-50.469 E6.34041
G1 X28.752 Y-48.307 E7.46264
G1 X30.033 Y-47.517 E7.81652
G1 X30.058 Y-47.306 E7.86648
G1 X30.431 Y-45.511 E8.29756
G1 X30.954 Y-43.759 E8.72747
G1 X31.633 Y-42.041 E9.16183
G1 X32.454 Y-40.392 E9.59496
G1 X33.411 Y-38.82 E10.0277
G1 X34.504 Y-37.324 E10.46334
G1 X35.719 Y-35.929 E10.89832
G1 X37.052 Y-34.633 E11.33546
G1 X38.488 Y-33.456 E11.77204
G1 X40.021 Y-32.397 E12.21014
G1 X41.639 Y-31.468 E12.64884
G1 X43.324 Y-30.677 E13.08652
G1 X45.083 Y-30.021 E13.52794
G1 X46.886 Y-29.514 E13.96832
G1 X48.728 Y-29.153 E14.40968
G1 X49.037 Y-29.119 E14.48277
G1 X51.487 Y-24.789 E15.65257
G1 X53.443 Y-20.519 E16.75691
G1 X55.023 Y-16.111 E17.85794
G1 X55.835 Y-13.041 E18.60462
G1 X54.666 Y-11.332 E19.09148
G1 X53.758 Y-9.728 E19.52487
G1 X52.992 Y-8.055 E19.95751
G1 X52.371 Y-6.324 E20.38993
G1 X51.902 Y-4.548 E20.82184
G1 X51.588 Y-2.743 E21.25262
G1 X51.43 Y-.917 E21.68358
G1 X51.43 Y0.911 E22.1134
G1 X51.588 Y2.746 E22.54646
G1 X51.903 Y4.554 E22.97799
G1 X52.373 Y6.331 E23.41018
G1 X52.994 Y8.061 E23.84238
G1 X53.761 Y9.735 E24.27534
G1 X54.67 Y11.339 E24.70884
G1 X55.835 Y13.04 E25.19361
G1 X55.023 Y16.111 E25.94052
G1 X53.443 Y20.519 E27.04155
G1 X51.487 Y24.789 E28.14589
G1 X49.036 Y29.119 E29.31581
G1 X48.718 Y29.154 E29.39103
G1 X46.879 Y29.515 E29.83169
G1 X45.076 Y30.023 E30.27214
G1 X43.324 Y30.677 E30.71185
G1 X41.634 Y31.47 E31.1508
G1 X40.022 Y32.396 E31.58792
G1 X38.482 Y33.46 E32.02804
G1 X37.045 Y34.639 E32.4651
G1 X35.717 Y35.929 E32.90042
G1 X34.502 Y37.327 E33.33593
G1 X33.409 Y38.82 E33.771
G1 X32.451 Y40.398 E34.20506
G1 X31.63 Y42.046 E34.63798
G1 X30.955 Y43.759 E35.07091
G1 X30.43 Y45.519 E35.50276
G1 X30.013 Y47.529 E35.98544
G1 X28.752 Y48.307 E36.33383
G1 X24.497 Y50.469 E37.45606
G1 X20.043 Y52.287 E38.58722
G1 X15.478 Y53.729 E39.71287
G1 X13.372 Y54.208 E40.22071
G1 X13.178 Y54.059 E40.27823
G1 X11.613 Y53.05 E40.71606
G1 X9.967 Y52.171 E41.15481
G1 X8.252 Y51.429 E41.59419
G1 X6.484 Y50.83 E42.03311
G1 X4.658 Y50.376 E42.47554
G1 X2.812 Y50.072 E42.91544
G1 X0.938 Y49.919 E43.35754
G1 X-.94 Y49.919 E43.79912
G1 X-2.807 Y50.072 E44.23958
G1 X-4.656 Y50.377 E44.68022
G1 X-6.476 Y50.832 E45.12133
G1 X-8.247 Y51.431 E45.56092
G1 X-9.965 Y52.174 E46.00103
G1 X-11.611 Y53.054 E46.4399
G1 X-13.18 Y54.067 E46.87903
G1 X-13.401 Y54.238 E46.94474
G1 X-17.767 Y53.054 E48.0084
G1 X-22.284 Y51.422 E49.13769
G1 X-26.637 Y49.432 E50.2631
G1 X-30.022 Y47.532 E51.17583
G1 X-30.049 Y47.307 E51.22912
G1 X-30.422 Y45.511 E51.66043
G1 X-30.945 Y43.759 E52.09034
G1 X-31.621 Y42.047 E52.52313
G1 X-32.446 Y40.39 E52.95837
G1 X-33.406 Y38.815 E53.39207
G1 X-34.498 Y37.321 E53.82719
G1 X-35.71 Y35.929 E54.26117
G1 X-37.042 Y34.635 E54.69783
G1 X-38.477 Y33.457 E55.13437
G1 X-40.011 Y32.398 E55.57266
G1 X-41.63 Y31.468 E56.01168
G1 X-43.321 Y30.675 E56.45084
G1 X-45.074 Y30.021 E56.89077
G1 X-46.877 Y29.514 E57.33116
G1 X-48.719 Y29.153 E57.77251
G1 X-48.949 Y29.127 E57.82694
G1 X-50.365 Y26.857 E58.45602
G1 X-52.502 Y22.675 E59.56028
G1 X-54.272 Y18.331 E60.66323
G1 X-55.659 Y13.869 E61.76191
G1 X-55.842 Y13.032 E61.96336
G1 X-55.7 Y12.857 E62.01635
G1 X-54.657 Y11.332 E62.45077
G1 X-53.75 Y9.728 E62.88405
G1 X-52.983 Y8.056 E63.31658
G1 X-52.364 Y6.33 E63.74773
G1 X-51.893 Y4.553 E64.17998
G1 X-51.579 Y2.741 E64.61239
G1 X-51.421 Y0.914 E65.04358
G1 X-51.421 Y-.917 E65.47411
G1 X-51.579 Y-2.746 E65.90577
G1 X-51.894 Y-4.556 E66.33775
G1 X-52.364 Y-6.331 E66.7695
G1 X-52.985 Y-8.061 E67.20169
G1 X-53.753 Y-9.735 E67.63475
G1 X-54.661 Y-11.338 E68.06793
G1 X-55.837 Y-13.056 E68.55746
G1 X-55.659 Y-13.859 E68.75086
G1 X-54.268 Y-18.341 E69.8543
G1 X-52.502 Y-22.675 E70.95472
G1 X-50.365 Y-26.857 E72.05899
G1 X-48.95 Y-29.127 E72.68794
G1 X-48.708 Y-29.154 E72.7452
G1 X-46.87 Y-29.515 E73.18563
G1 X-45.075 Y-30.02 E73.62407
G1 X-43.315 Y-30.677 E74.0658
G1 X-41.623 Y-31.472 E74.50537
G1 X-40.004 Y-32.403 E74.9445
G1 X-38.473 Y-33.46 E75.38195
G1 X-37.038 Y-34.638 E75.81849
G1 X-35.71 Y-35.929 E76.25398
G1 X-34.491 Y-37.33 E76.69064
G1 X-33.4 Y-38.822 E77.12524
G1 X-32.442 Y-40.398 E77.5589
G1 X-31.622 Y-42.046 E77.99172
G1 X-30.946 Y-43.758 E78.42451
G1 X-30.421 Y-45.519 E78.85658
G1 X-30.001 Y-47.544 E79.34286
G1 X-26.637 Y-49.432 E80.2499
G1 X-22.284 Y-51.422 E81.37532
G1 X-17.766 Y-53.054 E82.50483
G1 X-13.403 Y-54.238 E83.56781
G1 X-13.17 Y-54.059 E83.6369
G1 X-11.604 Y-53.05 E84.07493
G1 X-9.958 Y-52.171 E84.51368
G1 X-8.243 Y-51.429 E84.95306
G1 X-6.468 Y-50.829 E85.39362
G1 X-4.657 Y-50.378 E85.83245
G1 X-2.799 Y-50.072 E86.27521
G1 X-.928 Y-49.919 E86.71661
G1 X0.943 Y-49.919 Z0.503 E87.15654
G1 X2.814 Y-50.072 Z0.505 E87.59794
G1 X4.666 Y-50.377 Z0.508 E88.03927
G1 X6.485 Y-50.832 Z0.51 E88.48015
G1 X8.258 Y-51.431 Z0.513 E88.92019
G1 X9.974 Y-52.174 Z0.515 E89.35988
G1 X11.62 Y-53.054 Z0.518 E89.79874
G1 X13.187 Y-54.067 Z0.52 E90.23748
G1 X13.372 Y-54.209 Z0.521 E90.29232
G1 X15.469 Y-53.731 Z0.524 E90.79804
G1 X20.039 Y-52.289 Z0.53 E91.92482
G1 X24.497 Y-50.469 Z0.537 E93.05703
G1 X28.752 Y-48.307 Z0.543 E94.17926
G1 X30.033 Y-47.517 Z0.545 E94.53313
G1 X30.058 Y-47.306 E94.58309
G1 X30.431 Y-45.511 Z0.548 E95.01417
G1 X30.954 Y-43.759 Z0.55 E95.44409
G1 X31.633 Y-42.041 Z0.553 E95.87845
G1 X32.454 Y-40.392 Z0.555 E96.31158
G1 X33.411 Y-38.82 Z0.558 E96.74431
G1 X34.504 Y-37.324 Z0.56 E97.17995
G1 X35.719 Y-35.929 Z0.563 E97.61493
G1 X37.052 Y-34.633 Z0.565 E98.05208
G1 X38.488 Y-33.456 Z0.568 E98.48866
G1 X40.021 Y-32.397 Z0.57 E98.92676
G1 X41.639 Y-31.468 Z0.573 E99.36545
G1 X43.324 Y-30.677 Z0.575 E99.80314
G1 X45.083 Y-30.021 Z0.578 E100.24456
G1 X46.886 Y-29.514 Z0.581 E100.68494
G1 X48.728 Y-29.153 Z0.583 E101.1263
G1 X49.037 Y-29.119 Z0.584 E101.19939
G1 X51.487 Y-24.789 Z0.59 E102.36919
G1 X53.443 Y-20.519 Z0.597 E103.47353
G1 X55.023 Y-16.111 Z0.603 E104.57457
G1 X55.835 Y-13.041 Z0.607 E105.32125
G1 X54.666 Y-11.332 Z0.61 E105.8081
G1 X53.758 Y-9.728 Z0.613 E106.24149
G1 X52.992 Y-8.055 Z0.615 E106.67414
G1 X52.371 Y-6.324 Z0.618 E107.10655
G1 X51.902 Y-4.548 Z0.62 E107.53846
G1 X51.588 Y-2.743 Z0.623 E107.96925
G1 X51.43 Y-.917 Z0.625 E108.40021
G1 X51.43 Y0.911 Z0.628 E108.83003
G1 X51.588 Y2.746 Z0.63 E109.26309
G1 X51.903 Y4.554 Z0.632 E109.69462
G1 X52.373 Y6.331 Z0.635 E110.12681
G1 X52.994 Y8.061 Z0.637 E110.559
G1 X53.761 Y9.735 Z0.64 E110.99197
G1 X54.67 Y11.339 Z0.642 E111.42547
G1 X55.835 Y13.04 Z0.645 E111.91024
G1 X55.023 Y16.111 Z0.65 E112.65715
G1 X53.443 Y20.519 Z0.656 E113.75818
G1 X51.487 Y24.789 Z0.662 E114.86252
G1 X49.036 Y29.119 Z0.669 E116.03244
G1 X48.718 Y29.154 E116.10766
G1 X46.879 Y29.515 Z0.672 E116.54832
G1 X45.076 Y30.023 Z0.675 E116.98877
G1 X43.324 Y30.677 Z0.677 E117.42849
G1 X41.634 Y31.47 Z0.68 E117.86744
G1 X40.022 Y32.396 Z0.682 E118.30456
G1 X38.482 Y33.46 Z0.685 E118.74468
G1 X37.045 Y34.639 Z0.687 E119.18174
G1 X35.717 Y35.929 Z0.69 E119.61706
G1 X34.502 Y37.327 Z0.692 E120.05257
G1 X33.409 Y38.82 Z0.695 E120.48764
G1 X32.451 Y40.398 Z0.697 E120.9217
G1 X31.63 Y42.046 Z0.7 E121.35462
G1 X30.955 Y43.759 Z0.702 E121.78755
G1 X30.43 Y45.519 Z0.705 E122.2194
G1 X30.013 Y47.529 Z0.707 E122.70208
G1 X28.752 Y48.307 Z0.709 E123.05047
G1 X24.497 Y50.469 Z0.716 E124.1727
G1 X20.043 Y52.287 Z0.722 E125.30386
G1 X15.478 Y53.729 Z0.729 E126.42952
G1 X13.372 Y54.208 Z0.732 E126.93735
G1 X13.178 Y54.059 E126.99487
G1 X11.613 Y53.05 Z0.735 E127.4327
G1 X9.967 Y52.171 Z0.737 E127.87146
G1 X8.252 Y51.429 Z0.74 E128.31084
G1 X6.484 Y50.83 Z0.742 E128.74976
G1 X4.658 Y50.376 Z0.745 E129.19218
G1 X2.812 Y50.072 Z0.747 E129.63208
G1 X0.938 Y49.919 Z0.75 E130.07419
G1 X-.94 Y49.919 Z0.753 E130.51577
G1 X-2.807 Y50.072 Z0.755 E130.95623
G1 X-4.656 Y50.377 Z0.758 E131.39687
G1 X-6.476 Y50.832 Z0.76 E131.83798
G1 X-8.247 Y51.431 Z0.763 E132.27757
G1 X-9.965 Y52.174 Z0.765 E132.71769
G1 X-11.611 Y53.054 Z0.768 E133.15655
G1 X-13.18 Y54.067 Z0.77 E133.59569
G1 X-13.401 Y54.238 Z0.771 E133.66139
G1 X-17.767 Y53.054 Z0.777 E134.72506
G1 X-22.284 Y51.422 Z0.783 E135.85434
G1 X-26.637 Y49.432 Z0.79 E136.97976
G1 X-30.022 Y47.532 Z0.795 E137.89249
G1 X-30.049 Y47.307 E137.94577
G1 X-30.422 Y45.511 Z0.798 E138.37708
G1 X-30.945 Y43.759 Z0.8 E138.807
G1 X-31.621 Y42.047 Z0.803 E139.23979
G1 X-32.446 Y40.39 Z0.805 E139.67502
G1 X-33.406 Y38.815 Z0.808 E140.10873
G1 X-34.498 Y37.321 Z0.81 E140.54385
G1 X-35.71 Y35.929 Z0.813 E140.97783
G1 X-37.042 Y34.635 Z0.815 E141.41449
G1 X-38.477 Y33.457 Z0.818 E141.85103
G1 X-40.011 Y32.398 Z0.82 E142.28932
G1 X-41.63 Y31.468 Z0.823 E142.72834
G1 X-43.321 Y30.675 Z0.825 E143.1675
G1 X-45.074 Y30.021 Z0.828 E143.60744
G1 X-46.877 Y29.514 Z0.831 E144.04782
G1 X-48.719 Y29.153 Z0.833 E144.48917
G1 X-48.949 Y29.127 E144.5436
G1 X-50.365 Y26.857 Z0.837 E145.17268
G1 X-52.502 Y22.675 Z0.843 E146.27695
G1 X-54.272 Y18.331 Z0.85 E147.3799
G1 X-55.659 Y13.869 Z0.856 E148.47858
G1 X-55.842 Y13.032 Z0.857 E148.68003
G1 X-55.7 Y12.857 Z0.858 E148.73302
G1 X-54.657 Y11.332 Z0.86 E149.16744
G1 X-53.75 Y9.728 Z0.863 E149.60071
G1 X-52.983 Y8.056 Z0.865 E150.03325
G1 X-52.364 Y6.33 Z0.868 E150.4644
G1 X-51.893 Y4.553 Z0.87 E150.89665
G1 X-51.579 Y2.741 Z0.873 E151.32906
G1 X-51.421 Y0.914 Z0.875 E151.76025
G1 X-51.421 Y-.917 Z0.878 E152.19078
G1 X-51.579 Y-2.746 Z0.88 E152.62244
G1 X-51.894 Y-4.556 Z0.882 E153.05442
G1 X-52.364 Y-6.331 Z0.885 E153.48617
G1 X-52.985 Y-8.061 Z0.887 E153.91836
G1 X-53.753 Y-9.735 Z0.89 E154.35142
G1 X-54.661 Y-11.338 Z0.892 E154.7846
G1 X-55.837 Y-13.056 Z0.895 E155.27413
G1 X-55.659 Y-13.859 Z0.896 E155.46753
G1 X-54.268 Y-18.341 Z0.903 E156.57098
G1 X-52.502 Y-22.675 Z0.909 E157.67139
G1 X-50.365 Y-26.857 Z0.915 E158.77566
G1 X-48.95 Y-29.127 Z0.919 E159.40462
G1 X-48.708 Y-29.154 E159.46187
G1 X-46.87 Y-29.515 Z0.922 E159.9023
G1 X-45.075 Y-30.02 Z0.925 E160.34075
G1 X-43.315 Y-30.677 Z0.927 E160.78248
G1 X-41.623 Y-31.472 Z0.93 E161.22205
G1 X-40.004 Y-32.403 Z0.932 E161.66118
G1 X-38.473 Y-33.46 Z0.935 E162.09863
G1 X-37.038 Y-34.638 Z0.937 E162.53517
G1 X-35.71 Y-35.929 Z0.94 E162.97066
G1 X-34.491 Y-37.33 Z0.942 E163.40732
G1 X-33.4 Y-38.822 Z0.945 E163.84192
G1 X-32.442 Y-40.398 Z0.947 E164.27558
G1 X-31.622 Y-42.046 Z0.95 E164.7084
G1 X-30.946 Y-43.758 Z0.952 E165.14119
G1 X-30.421 Y-45.519 Z0.955 E165.57327
G1 X-30.001 Y-47.544 Z0.957 E166.05954
G1 X-26.637 Y-49.432 Z0.963 E166.96659
G1 X-22.284 Y-51.422 Z0.969 E168.092
G1 X-17.766 Y-53.054 Z0.976 E169.22151
G1 X-13.403 Y-54.238 Z0.982 E170.2845
G1 X-13.17 Y-54.059 E170.35358
G1 X-11.604 Y-53.05 Z0.985 E170.79161
G1 X-9.958 Y-52.171 Z0.987 E171.23037
G1 X-8.243 Y-51.429 Z0.99 E171.66975
G1 X-6.468 Y-50.829 Z0.992 E172.1103
G1 X-4.657 Y-50.378 Z0.995 E172.54914
G1 X-2.799 Y-50.072 Z0.997 E172.9919
G1 X-.928 Y-49.919 Z1 E173.4333
;TIME_ELAPSED:42.559412
;LAYER:1
M106 S255
;MESH:AeroPressWrench.stl
G0 F1680 X-.928 Y-49.919 Z1.5
;TYPE:WALL-OUTER
G1 F2100 X0.944 Y-49.919 Z1.505 E174.31363
G1 X2.821 Y-50.073 Z1.51 E175.19929
G1 X4.679 Y-50.38 Z1.515 E176.08489
G1 X6.503 Y-50.838 Z1.52 E176.96928
G1 X8.267 Y-51.434 Z1.525 E177.8449
G1 X9.972 Y-52.173 Z1.53 E178.71878
G1 X11.616 Y-53.052 Z1.536 E179.59546
G1 X13.189 Y-54.068 Z1.541 E180.47608
G1 X13.422 Y-54.2 E180.60201
G1 X15.47 Y-53.734 Z1.547 E181.58973
G1 X20.041 Y-52.292 Z1.56 E183.84374
G1 X24.499 Y-50.473 Z1.573 E186.10799
G1 X28.754 Y-48.312 Z1.586 E188.35224
G1 X29.995 Y-47.547 Z1.59 E189.03782
G1 X30.057 Y-47.307 Z1.591 E189.15439
G1 X30.431 Y-45.511 Z1.596 E190.0171
G1 X30.956 Y-43.752 Z1.601 E190.88036
G1 X31.632 Y-42.042 Z1.606 E191.74507
G1 X32.453 Y-40.393 Z1.611 E192.61133
G1 X33.415 Y-38.814 Z1.616 E193.48084
G1 X34.506 Y-37.322 Z1.621 E194.35005
G1 X35.721 Y-35.927 Z1.626 E195.22001
G1 X37.048 Y-34.637 Z1.631 E196.09032
G1 X38.485 Y-33.459 Z1.636 E196.96413
G1 X40.016 Y-32.401 Z1.641 E197.8393
G1 X41.634 Y-31.471 Z1.646 E198.71692
G1 X43.327 Y-30.676 Z1.651 E199.59649
G1 X45.085 Y-30.021 Z1.656 E200.47874
G1 X46.911 Y-29.51 Z1.661 E201.37043
G1 X48.764 Y-29.15 Z1.666 E202.25813
G1 X49.068 Y-29.085 Z1.667 E202.40432
G1 X51.494 Y-24.799 Z1.68 E204.72036
G1 X53.454 Y-20.523 Z1.693 E206.9324
G1 X55.035 Y-16.115 Z1.706 E209.13463
G1 X55.842 Y-13.066 Z1.714 E210.61784
G1 X55.71 Y-12.857 Z1.715 E210.73409
G1 X54.666 Y-11.332 Z1.72 E211.6032
G1 X53.758 Y-9.728 Z1.725 E212.46998
G1 X52.992 Y-8.055 Z1.73 E213.33528
G1 X52.371 Y-6.321 Z1.735 E214.20144
G1 X51.903 Y-4.55 Z1.74 E215.06287
G1 X51.588 Y-2.739 Z1.745 E215.9273
G1 X51.43 Y-.917 Z1.75 E216.78734
G1 X51.432 Y0.934 Z1.755 E217.65781
G1 X51.589 Y2.753 Z1.76 E218.5164
G1 X51.902 Y4.552 Z1.765 E219.37512
G1 X52.374 Y6.335 Z1.77 E220.24248
G1 X52.994 Y8.061 Z1.775 E221.10494
G1 X53.766 Y9.743 Z1.78 E221.97526
G1 X54.668 Y11.335 Z1.785 E222.83574
G1 X55.736 Y12.895 Z1.79 E223.72481
G1 X55.847 Y13.067 E223.82107
G1 X55.04 Y16.117 Z1.799 E225.30474
G1 X53.461 Y20.526 Z1.812 E227.5071
G1 X51.502 Y24.803 Z1.824 E229.71937
G1 X49.077 Y29.089 Z1.838 E232.03518
G1 X48.718 Y29.154 Z1.839 E232.20675
G1 X46.879 Y29.515 Z1.844 E233.08807
G1 X45.091 Y30.019 Z1.849 E233.96167
G1 X43.324 Y30.677 Z1.854 E234.84838
G1 X41.633 Y31.47 Z1.859 E235.7267
G1 X40.008 Y32.406 Z1.864 E236.60858
G1 X38.475 Y33.466 Z1.869 E237.48505
G1 X37.049 Y34.636 Z1.874 E238.35248
G1 X35.717 Y35.929 Z1.879 E239.22547
G1 X34.497 Y37.334 Z1.884 E240.10052
G1 X33.402 Y38.831 Z1.889 E240.97273
G1 X32.446 Y40.408 Z1.894 E241.83997
G1 X31.631 Y42.043 Z1.899 E242.69909
G1 X30.955 Y43.762 Z1.904 E243.56773
G1 X30.431 Y45.515 Z1.909 E244.42815
G1 X30.059 Y47.307 Z1.914 E245.28883
G1 X30.006 Y47.563 Z1.915 E245.41177
G1 X28.764 Y48.329 Z1.919 E246.09799
G1 X24.508 Y50.492 Z1.932 E248.34309
G1 X20.052 Y52.312 Z1.945 E250.60665
G1 X15.481 Y53.756 Z1.958 E252.86094
G1 X13.427 Y54.225 Z1.963 E253.85173
G1 X13.179 Y54.06 Z1.964 E253.99181
G1 X11.613 Y53.05 Z1.969 E254.86812
G1 X9.967 Y52.171 Z1.974 E255.74564
G1 X8.252 Y51.429 Z1.979 E256.62439
G1 X6.475 Y50.828 Z1.984 E257.50656
G1 X4.648 Y50.375 Z1.99 E258.39175
G1 X2.812 Y50.072 Z1.995 E259.26683
G1 X0.942 Y49.92 Z2 E260.14913
G1 X-.935 Y49.919 Z2.005 E261.03182
G1 X-2.818 Y50.074 Z2.01 E261.92033
G1 X-4.667 Y50.379 Z2.015 E262.8016
G1 X-6.48 Y50.833 Z2.02 E263.68051
G1 X-8.249 Y51.431 Z2.025 E264.55866
G1 X-9.982 Y52.183 Z2.03 E265.44705
G1 X-11.612 Y53.054 Z2.035 E266.31616
G1 X-13.178 Y54.066 Z2.04 E267.19298
G1 X-13.454 Y54.257 Z2.041 E267.35083
G1 X-17.777 Y53.086 Z2.053 E269.45705
G1 X-22.297 Y51.453 Z2.066 E271.71712
G1 X-26.653 Y49.463 Z2.079 E273.96924
G1 X-30.002 Y47.585 Z2.09 E275.77488
G1 X-30.049 Y47.307 Z2.091 E275.90747
G1 X-30.422 Y45.511 Z2.095 E276.77009
G1 X-30.948 Y43.752 Z2.1 E277.63348
G1 X-31.625 Y42.041 Z2.105 E278.4988
G1 X-32.45 Y40.384 Z2.11 E279.36927
G1 X-33.411 Y38.806 Z2.115 E280.23813
G1 X-34.495 Y37.325 Z2.12 E281.10122
G1 X-35.71 Y35.929 Z2.125 E281.97153
G1 X-37.04 Y34.636 Z2.13 E282.84384
G1 X-38.476 Y33.458 Z2.136 E283.71729
G1 X-40.021 Y32.393 Z2.141 E284.59975
G1 X-41.648 Y31.46 Z2.146 E285.48174
G1 X-43.339 Y30.668 Z2.151 E286.35986
G1 X-45.085 Y30.018 Z2.156 E287.236
G1 X-46.881 Y29.513 Z2.161 E288.11335
