;FLAVOR:Marlin
;TIME:1303
;Filament used: 25.6076m
;Layer height: 1
;MINX:-51.146
;MINY:-55.028
;MINZ:0.7
;MAXX:52.508
;MAXY:48.665
;MAXZ:117.7
;TARGET_MACHINE.NAME:Unknown
;Generated with Cura_SteamEngine 5.11.0
M140 S60
M105
M190 S60
M104 S200
M105
M109 S200
G28 ;Home
M302 S0 ;Set cold extrusion
M92 E400 ;E Steps at 400 steps/mm M92 E-400 reverse
G1 Z15.0 F6000 ;Move the platform down 15mm
;Prime the extruder
G92 E0
G1 F200 E3
G92 E0
M82 ;absolute extrusion mode
G92 E0
G92 E0
G1 F1500 E-6.5
;LAYER_COUNT:118
;LAYER:0
M107
G1 F600 Z1.7
;MESH:berryvessel.stl
G0 F960 X0.00 Y0.000 Z1.7
G0 X3.71 Y22.003
;TYPE:WALL-INNER
G1 F600 Z0.7
G1 F1500 E0
G1 F1200 X5.096 Y21.807 E0.46079
G1 X6.134 Y21.582 E0.81042
G1 X6.142 Y21.59 E0.81414
G1 X7.273 Y21.313 E1.19745
G1 X9.004 Y20.785 E1.79319
G1 X10.471 Y20.213 E2.31152
G1 X11.772 Y19.637 E2.77988
G1 X13.011 Y18.979 E3.24169
G1 X14.249 Y18.255 E3.71379
G1 X15.575 Y17.344 E4.24338
G1 X16.982 Y16.245 E4.83109
G1 X17.891 Y15.458 E5.22689
G1 X19 Y14.355 E5.74177
G1 X20.054 Y13.189 E6.25918
G1 X21.002 Y11.998 E6.76027
G1 X21.915 Y10.697 E7.28348
G1 X23.021 Y8.862 E7.98877
G1 X23.994 Y6.796 E8.74051
G1 X24.631 Y5.166 E9.3166
G1 X25.12 Y3.587 E9.86074
G1 X25.546 Y1.876 E10.44117
G1 X25.739 Y0.684 E10.83867
G1 X25.873 Y-.321 E11.17242
G1 X26.002 Y-1.715 E11.63327
G1 X26.044 Y-3.116 E12.09466
G1 X25.989 Y-5.011 E12.71873
G1 X25.796 Y-6.785 E13.30615
G1 X25.641 Y-7.757 E13.63016
G1 X25.322 Y-9.246 E14.13144
G1 X24.815 Y-10.998 E14.73183
G1 X24.185 Y-12.718 E15.33482
G1 X23.464 Y-14.362 E15.92576
G1 X22.616 Y-15.936 E16.5143
G1 X21.709 Y-17.387 E17.07759
G1 X20.759 Y-18.702 E17.61161
G1 X19.98 Y-19.665 E18.01935
G1 X19.249 Y-20.489 E18.38195
G1 X18.368 Y-21.38 E18.79443
G1 X17.503 Y-22.195 E19.18565
G1 X16.439 Y-23.089 E19.64313
G1 X15.588 Y-23.732 E19.99424
G1 X14.136 Y-24.713 E20.57108
G1 X12.964 Y-25.39 E21.01662
G1 X11.5 Y-26.151 E21.55977
G1 X10.615 Y-26.549 E21.8792
G1 X9.38 Y-27.02 E22.31431
G1 X8.372 Y-27.381 E22.66676
G1 X6.506 Y-27.898 E23.30416
G1 X5.395 Y-28.132 E23.67791
G1 X3.046 Y-28.487 E24.45995
G1 X1.184 Y-28.584 E25.07372
G1 X-.47 Y-28.556 E25.61827
G1 X-1.463 Y-28.493 E25.94581
G1 X-3.35 Y-28.258 E26.57178
G1 X-5.546 Y-27.826 E27.30852
G1 X-7.837 Y-27.115 E28.09817
G1 X-9.41 Y-26.494 E28.65487
G1 X-11.419 Y-25.537 E29.3874
G1 X-12.919 Y-24.63 E29.96443
G1 X-14.028 Y-23.892 E30.40294
G1 X-15.096 Y-23.101 E30.84043
G1 X-16.378 Y-22.004 E31.39586
G1 X-17.63 Y-20.787 E31.97063
G1 X-18.66 Y-19.654 E32.47467
G1 X-19.541 Y-18.569 E32.93476
G1 X-20.412 Y-17.34 E33.43062
G1 X-21.074 Y-16.289 E33.83951
G1 X-21.857 Y-14.903 E34.36353
G1 X-22.428 Y-13.737 E34.79091
G1 X-23.135 Y-12.017 E35.40308
G1 X-23.607 Y-10.607 E35.89254
G1 X-23.992 Y-9.245 E36.35846
G1 X-24.309 Y-7.765 E36.8567
G1 X-24.582 Y-5.875 E37.48532
G1 X-24.688 Y-4.247 E38.02237
G1 X-24.717 Y-2.621 E38.55771
G1 X-24.657 Y-1.402 E38.95947
G1 X-24.537 Y-.164 E39.36891
G1 X-24.353 Y1.089 E39.7858
G1 X-24.135 Y2.243 E40.1724
G1 X-23.774 Y3.675 E40.65854
G1 X-23.282 Y5.227 E41.19449
G1 X-22.749 Y6.614 E41.68362
G1 X-22.131 Y7.968 E42.17357
G1 X-21.677 Y8.855 E42.50158
G1 X-20.959 Y10.1 E42.97469
G1 X-20.244 Y11.215 E43.41071
G1 X-19.535 Y12.19 E43.80755
G1 X-18.826 Y13.06 E44.177
G1 X-17.54 Y14.498 E44.81205
G1 X-16.061 Y15.908 E45.48471
G1 X-14.4 Y17.247 E46.18703
G1 X-12.493 Y18.522 E46.94217
G1 X-11.549 Y19.062 E47.30017
G1 X-10.287 Y19.708 E47.76686
G1 X-8.75 Y20.368 E48.31749
G1 X-7.576 Y20.821 E48.73173
G1 X-6.171 Y21.259 E49.21619
G1 X-4.582 Y21.649 E49.75478
G1 X-3.109 Y21.915 E50.24752
G1 X-2.245 Y22.024 E50.53419
G1 X-.354 Y22.172 E51.15858
G1 X0.937 Y22.193 E51.58361
G1 X2.403 Y22.131 E52.06663
G1 X3.71 Y22.003 E52.49893
G0 F960 X2.481 Y23.523
G0 X2.613 Y25.125
G1 F1200 X4.066 Y24.982 E52.97955
G1 X5.624 Y24.763 E53.49746
G1 X6.764 Y24.516 E53.88144
G1 X6.773 Y24.524 E53.8854
G1 X8.067 Y24.207 E54.32396
G1 X9.988 Y23.621 E54.98509
G1 X11.623 Y22.983 E55.56284
G1 X13.084 Y22.337 E56.08869
G1 X14.472 Y21.6 E56.60602
G1 X15.858 Y20.79 E57.13447
G1 X17.349 Y19.765 E57.73007
G1 X18.888 Y18.563 E58.3729
G1 X19.933 Y17.659 E58.82775
G1 X21.173 Y16.426 E59.40339
G1 X22.342 Y15.131 E59.97768
G1 X23.406 Y13.796 E60.53964
G1 X24.43 Y12.335 E61.12695
G1 X25.661 Y10.296 E61.911
G1 X26.752 Y7.983 E62.75285
G1 X27.465 Y6.157 E63.39814
G1 X28.011 Y4.394 E64.00569
G1 X28.487 Y2.479 E64.65526
G1 X28.707 Y1.122 E65.10779
G1 X28.855 Y0.015 E65.47544
G1 X28.998 Y-1.532 E65.98686
G1 X29.046 Y-3.115 E66.5082
G1 X28.984 Y-5.233 E67.20571
G1 X28.77 Y-7.184 E67.85181
G1 X28.591 Y-8.308 E68.22647
G1 X28.233 Y-9.978 E68.7887
G1 X27.668 Y-11.931 E69.45796
G1 X26.97 Y-13.837 E70.12614
G1 X26.163 Y-15.678 E70.78783
G1 X25.211 Y-17.445 E71.44855
G1 X24.199 Y-19.063 E72.07677
G1 X23.143 Y-20.525 E72.67046
G1 X22.27 Y-21.605 E73.1276
G1 X21.439 Y-22.541 E73.53963
G1 X20.464 Y-23.527 E73.99609
G1 X19.499 Y-24.437 E74.43272
G1 X18.309 Y-25.436 E74.94419
G1 X17.333 Y-26.174 E75.34698
G1 X15.728 Y-27.258 E75.98454
G1 X14.407 Y-28.021 E76.48672
G1 X12.808 Y-28.852 E77.07992
G1 X11.766 Y-29.321 E77.45608
G1 X10.42 Y-29.834 E77.93025
G1 X9.279 Y-30.243 E78.32925
G1 X7.217 Y-30.814 E79.03357
G1 X5.929 Y-31.086 E79.46692
G1 X4.116 Y-31.359 E80.07046
G1 X2.995 Y-31.493 E80.4421
G1 X1.237 Y-31.585 E81.0216
G1 X-.591 Y-31.554 E81.62343
G1 X-1.743 Y-31.481 E82.00341
G1 X-3.826 Y-31.222 E82.69439
G1 X-5.617 Y-30.869 E83.2953
G1 X-6.649 Y-30.624 E83.64446
G1 X-8.833 Y-29.947 E84.39715
G1 X-10.608 Y-29.246 E85.02537
G1 X-12.834 Y-28.187 E85.83683
G1 X-14.527 Y-27.163 E86.48815
G1 X-15.752 Y-26.348 E86.9725
G1 X-16.966 Y-25.449 E87.46977
G1 X-18.401 Y-24.221 E88.0915
G1 X-19.788 Y-22.873 E88.72819
G1 X-20.937 Y-21.61 E89.29026
G1 X-21.932 Y-20.383 E89.81028
G1 X-22.906 Y-19.009 E90.3647
G1 X-23.651 Y-17.828 E90.82435
G1 X-24.512 Y-16.302 E91.40113
G1 X-25.166 Y-14.968 E91.8902
G1 X-25.948 Y-13.064 E92.56777
G1 X-26.474 Y-11.492 E93.11345
G1 X-26.905 Y-9.967 E93.63512
G1 X-27.263 Y-8.294 E94.19831
G1 X-27.568 Y-6.187 E94.89913
G1 X-27.686 Y-4.371 E95.49819
G1 X-27.718 Y-2.574 E96.08983
G1 X-27.65 Y-1.184 E96.54795
G1 X-27.515 Y0.199 E97.00537
G1 X-27.312 Y1.584 E97.46616
G1 X-27.067 Y2.888 E97.90293
G1 X-26.661 Y4.496 E98.44887
G1 X-26.115 Y6.219 E99.04385
G1 X-25.517 Y7.776 E99.5929
G1 X-24.832 Y9.275 E100.13543
G1 X-24.313 Y10.289 E100.5104
G1 X-23.522 Y11.66 E101.03144
G1 X-22.722 Y12.908 E101.51943
G1 X-21.913 Y14.021 E101.97237
G1 X-21.108 Y15.009 E102.39189
G1 X-19.696 Y16.586 E103.0887
G1 X-18.041 Y18.166 E103.84191
G1 X-16.185 Y19.661 E104.62643
G1 X-14.073 Y21.075 E105.4631
G1 X-12.977 Y21.701 E105.87859
G1 X-11.564 Y22.425 E106.40123
G1 X-9.882 Y23.147 E107.00377
G1 X-8.563 Y23.655 E107.46906
G1 X-6.976 Y24.15 E108.01629
G1 X-5.796 Y24.44 E108.41629
G1 X-4.805 Y24.658 E108.75031
G1 X-3.563 Y24.882 E109.16576
G1 X-2.55 Y25.01 E109.50187
G1 X-.496 Y25.17 E110.18007
G1 X0.976 Y25.194 E110.66469
G1 X2.613 Y25.125 E111.20404
G0 F960 X2.482 Y23.522
G0 X2.823 Y28.119
;TYPE:WALL-OUTER
G1 F1200 X4.422 Y27.962 E111.73294
G1 X6.152 Y27.718 E112.30807
G1 X7.393 Y27.449 E112.72607
G1 X7.403 Y27.458 E112.7305
G1 X8.862 Y27.101 E113.22495
G1 X10.972 Y26.457 E113.95116
G1 X12.775 Y25.754 E114.5882
G1 X14.396 Y25.037 E115.17168
G1 X15.933 Y24.221 E115.74452
G1 X17.467 Y23.324 E116.32949
G1 X19.124 Y22.185 E116.99138
G1 X20.794 Y20.881 E117.68886
G1 X21.975 Y19.859 E118.20298
G1 X23.345 Y18.496 E118.83914
G1 X24.631 Y17.073 E119.47052
G1 X25.81 Y15.593 E120.0934
G1 X26.946 Y13.973 E120.74473
G1 X27.933 Y12.336 E121.37398
G1 X28.488 Y11.335 E121.75075
G1 X29.509 Y9.17 E122.53871
G1 X30.299 Y7.148 E123.25332
G1 X30.902 Y5.2 E123.92459
G1 X31.429 Y3.082 E124.64306
G1 X31.675 Y1.56 E125.15058
G1 X31.837 Y0.351 E125.55213
G1 X31.994 Y-1.348 E126.11379
G1 X32.047 Y-3.113 E126.69507
G1 X31.997 Y-4.821 E127.25755
G1 X31.925 Y-5.929 E127.62306
G1 X31.744 Y-7.584 E128.17111
G1 X31.541 Y-8.86 E128.59643
G1 X31.144 Y-10.71 E129.21929
G1 X30.521 Y-12.865 E129.95773
G1 X29.755 Y-14.956 E130.69079
G1 X28.862 Y-16.994 E131.42324
G1 X27.806 Y-18.953 E132.15584
G1 X26.69 Y-20.738 E132.84883
G1 X25.527 Y-22.348 E133.50263
G1 X24.559 Y-23.545 E134.00938
G1 X23.629 Y-24.593 E134.47062
G1 X22.56 Y-25.674 E134.97108
G1 X21.494 Y-26.679 E135.45335
G1 X20.18 Y-27.782 E136.01809
G1 X19.079 Y-28.615 E136.47257
G1 X17.32 Y-29.803 E137.1713
G1 X15.85 Y-30.652 E137.73011
G1 X14.117 Y-31.553 E138.37308
G1 X12.916 Y-32.093 E138.80656
G1 X11.46 Y-32.648 E139.31949
G1 X10.186 Y-33.105 E139.76504
G1 X7.928 Y-33.73 E140.53628
G1 X6.464 Y-34.039 E141.02883
G1 X4.518 Y-34.333 E141.67669
G1 X3.251 Y-34.484 E142.09672
G1 X1.289 Y-34.587 E142.74347
G1 X-.711 Y-34.552 E143.40194
G1 X-2.023 Y-34.469 E143.83469
G1 X-4.302 Y-34.186 E144.59067
G1 X-6.253 Y-33.801 E145.24529
G1 X-7.44 Y-33.52 E145.64683
G1 X-9.829 Y-32.779 E146.47022
G1 X-11.805 Y-31.999 E147.16953
G1 X-13.813 Y-31.043 E147.90162
G1 X-14.796 Y-30.507 E148.27019
G1 X-16.135 Y-29.697 E148.78534
G1 X-17.477 Y-28.804 E149.31597
G1 X-18.836 Y-27.797 E149.87277
G1 X-20.424 Y-26.439 E150.56059
G1 X-21.945 Y-24.96 E151.25897
G1 X-23.213 Y-23.566 E151.87929
G1 X-24.324 Y-22.197 E152.45967
G1 X-25.4 Y-20.677 E153.07271
G1 X-26.227 Y-19.366 E153.58297
G1 X-27.168 Y-17.7 E154.21282
G1 X-27.903 Y-16.2 E154.76269
G1 X-28.761 Y-14.112 E155.5058
G1 X-29.342 Y-12.377 E156.1081
G1 X-29.819 Y-10.69 E156.68521
G1 X-30.218 Y-8.823 E157.31368
G1 X-30.554 Y-6.499 E158.08666
G1 X-30.684 Y-4.494 E158.74806
G1 X-30.719 Y-2.528 E159.39534
G1 X-30.643 Y-.966 E159.91013
G1 X-30.494 Y0.562 E160.41551
G1 X-30.272 Y2.08 E160.92053
G1 X-29.998 Y3.533 E161.40727
G1 X-29.548 Y5.317 E162.01293
G1 X-28.947 Y7.211 E162.66704
G1 X-28.284 Y8.938 E163.276
G1 X-27.533 Y10.582 E163.87097
G1 X-26.949 Y11.723 E164.29291
G1 X-26.086 Y13.22 E164.86172
G1 X-25.2 Y14.601 E165.40184
G1 X-24.291 Y15.852 E165.91088
G1 X-23.39 Y16.957 E166.38022
G1 X-21.853 Y18.675 E167.13906
G1 X-20.021 Y20.423 E167.9726
G1 X-17.962 Y22.082 E168.84303
G1 X-15.653 Y23.627 E169.75757
G1 X-14.405 Y24.34 E170.23072
G1 X-12.841 Y25.141 E170.80915
G1 X-11.014 Y25.926 E171.46374
G1 X-9.55 Y26.49 E171.98019
G1 X-7.781 Y27.042 E172.59021
G1 X-6.476 Y27.362 E173.03253
G1 X-5.393 Y27.6 E173.39754
G1 X-4.017 Y27.848 E173.8578
G1 X-2.855 Y27.995 E174.24336
G1 X-.637 Y28.168 E174.97571
G1 X1.016 Y28.195 E175.51992
G1 X2.823 Y28.119 E176.11528
G0 F960 X4.315 Y27.973
G0 X3.866 Y23.387
G0 X3.373 Y19.17
;TYPE:SKIN
G1 F1200 X2.223 Y19.283 E176.49567
G1 X0.888 Y19.339 E176.93552
G1 X-.216 Y19.321 E177.29899
G1 X-2.343 Y19.154 E178.00132
G1 X-3.999 Y18.856 E178.5552
G1 X-5.401 Y18.51 E179.03057
G1 X-6.634 Y18.126 E179.45568
G1 X-7.662 Y17.73 E179.81832
G1 X-9.072 Y17.126 E180.32326
G1 X-10.713 Y16.28 E180.93102
G1 X-12.718 Y14.938 E181.72523
G1 X-14.162 Y13.774 E182.33578
G1 X-15.493 Y12.507 E182.9407
G1 X-16.667 Y11.193 E183.52074
G1 X-17.283 Y10.439 E183.84125
G1 X-17.888 Y9.606 E184.18015
G1 X-18.521 Y8.617 E184.56669
G1 X-19.377 Y7.128 E185.13207
G1 X-20.117 Y5.513 E185.71686
G1 X-20.583 Y4.303 E186.14369
G1 X-21.032 Y2.881 E186.63457
G1 X-21.35 Y1.63 E187.05948
G1 X-21.54 Y0.605 E187.40264
G1 X-21.706 Y-.527 E187.77926
G1 X-21.811 Y-1.59 E188.13089
G1 X-21.863 Y-2.686 E188.49208
G1 X-21.836 Y-4.145 E188.97244
G1 X-21.742 Y-5.576 E189.44452
G1 X-21.502 Y-7.251 E190.00154
G1 X-21.219 Y-8.57 E190.44561
G1 X-20.886 Y-9.75 E190.84922
G1 X-20.461 Y-11.021 E191.29039
G1 X-19.827 Y-12.567 E191.84044
G1 X-19.332 Y-13.571 E192.20892
G1 X-18.615 Y-14.843 E192.68959
G1 X-18.052 Y-15.737 E193.03737
G1 X-17.253 Y-16.863 E193.49187
G1 X-16.509 Y-17.778 E193.88008
G1 X-15.565 Y-18.82 E194.34292
G1 X-14.449 Y-19.902 E194.85461
G1 X-13.328 Y-20.862 E195.34045
G1 X-12.393 Y-21.556 E195.72376
G1 X-11.405 Y-22.212 E196.11415
G1 X-10.051 Y-23.029 E196.63472
G1 X-8.269 Y-23.879 E197.28465
G1 X-6.885 Y-24.424 E197.77429
G1 X-4.843 Y-25.059 E198.47824
G1 X-2.894 Y-25.441 E199.13202
G1 X-.852 Y-25.695 E199.8094
G1 X1.148 Y-25.731 E200.46788
G1 X2.745 Y-25.645 E200.99435
G1 X4.889 Y-25.327 E201.70784
G1 X5.815 Y-25.13 E202.01949
G1 X7.535 Y-24.652 E202.60714
G1 X8.532 Y-24.298 E202.95541
G1 X9.926 Y-23.755 E203.44788
G1 X11.59 Y-22.892 E204.06493
G1 X12.606 Y-22.304 E204.45135
G1 X13.943 Y-21.399 E204.98282
G1 X14.661 Y-20.858 E205.27876
G1 X15.602 Y-20.067 E205.68342
G1 X16.384 Y-19.33 E206.03715
G1 X17.152 Y-18.554 E206.39655
G1 X17.814 Y-17.807 E206.72512
G1 X18.503 Y-16.953 E207.08633
G1 X19.334 Y-15.802 E207.55365
G1 X20.139 Y-14.512 E208.0542
G1 X20.907 Y-13.096 E208.58447
G1 X21.539 Y-11.652 E209.10335
G1 X22.101 Y-10.122 E209.63991
G1 X22.552 Y-8.55 E210.17826
G1 X22.841 Y-7.209 E210.62983
G1 X22.968 Y-6.424 E210.8916
G1 X23.138 Y-4.833 E211.41831
G1 X23.191 Y-3.115 E211.98412
G1 X23.154 Y-1.869 E212.39447
G1 X23.003 Y-.265 E212.92482
G1 X22.753 Y1.298 E213.44587
G1 X22.37 Y2.824 E213.96379
G1 X21.946 Y4.198 E214.43713
G1 X21.373 Y5.67 E214.95711
G1 X20.496 Y7.526 E215.63285
G1 X19.522 Y9.141 E216.25369
G1 X18.714 Y10.293 E216.71689
G1 X17.891 Y11.325 E217.1514
G1 X16.937 Y12.384 E217.6206
G1 X15.947 Y13.367 E218.07986
G1 X15.182 Y14.029 E218.41288
G1 X13.877 Y15.049 E218.95812
G1 X12.711 Y15.849 E219.42361
G1 X11.632 Y16.481 E219.83524
G1 X10.509 Y17.077 E220.25375
G1 X9.391 Y17.571 E220.65611
G1 X8.068 Y18.089 E221.12381
G1 X6.5 Y18.564 E221.66314
G1 X4.908 Y18.953 E222.20262
G1 X3.373 Y19.17 E222.71294
G0 F960 X-16.488 Y8.968
G1 F1200 X-11.524 Y13.931 E225.02364
G1 X-10.994 Y14.461
G0 F960 X-3.871 Y17.343
G1 F1200 X-19.877 Y1.336 E232.47526
G0 F960 X-20.35 Y-3.379
G1 F1200 X0.869 Y17.84 E242.3535
G0 F960 X4.725 Y17.453
G1 F1200 X-19.97 Y-7.242 E253.84995
G0 F960 X-19.033 Y-10.548
G1 F1200 X8.014 Y16.499 E266.44135
G0 F960 X10.918 Y15.16
G1 F1200 X-17.684 Y-13.441 E279.75642
G0 F960 X-16.012 Y-16.012
G1 F1200 X13.465 Y13.465 E293.47907
G0 F960 X15.72 Y11.478
G1 F1200 X-14.002 Y-18.245 E307.31601
G0 F960 X-11.71 Y-20.195
G1 F1200 X17.664 Y9.178 E320.99047
G0 F960 X19.291 Y6.563
G1 F1200 X-9.095 Y-21.823 E334.20522
G0 F960 X-6.12 Y-23.091
G1 F1200 X20.563 Y3.593 E346.62739
G0 F960 X21.41 Y0.197
G1 F1200 X-2.731 Y-23.944 E357.86593
G0 F960 X1.232 Y-24.224
G1 F1200 X21.669 Y-3.787 E367.38012
G0 F960 X20.929 Y-8.77
G1 F1200 X6.245 Y-23.453 E374.21584
G1 X5.715 Y-23.983
;MESH:NONMESH
G0 F600 X5.715 Y-23.983 Z1.7
G0 F960 X2.602 Y8.003
;TIME_ELAPSED:68.905541
;LAYER:1
M106 S255
;TYPE:WALL-INNER
;MESH:berryvessel.stl
G1 F1500 X3.399 Y7.824 E374.59998
G1 X5.099 Y7.26 E375.44228
G1 X6.139 Y6.759 E375.98514
G1 X7.137 Y6.144 E376.53642
G1 X7.995 Y5.472 E377.04893
G1 X8.679 Y4.846 E377.48497
G1 X9.552 Y3.877 E378.09831
G1 X10.191 Y2.971 E378.61968
G1 X10.552 Y2.385 E378.94335
G1 X10.991 Y1.519 E379.39994
G1 X11.615 Y-.129 E380.22863
G1 X11.918 Y-1.621 E380.94459
G1 X12.025 Y-3.029 E381.60863
G1 X11.97 Y-4.129 E382.12656
G1 X11.817 Y-5.268 E382.667
G1 X11.482 Y-6.623 E383.3234
G1 X11.02 Y-7.836 E383.9338
G1 X10.549 Y-8.77 E384.42572
G1 X9.721 Y-10.074 E385.15212
G1 X8.627 Y-11.292 E385.92202
G1 X7.443 Y-12.313 E386.65725
G1 X6.238 Y-13.082 E387.32947
G1 X5.092 Y-13.643 E387.92951
G1 X3.943 Y-14.064 E388.50497
G1 X2.971 Y-14.299 E388.97523
G1 X2.131 Y-14.442 E389.37594
G1 X1.15 Y-14.526 E389.83896
G1 X-0.054 Y-14.517 E390.40517
G1 X-.764 Y-14.452 E390.74045
G1 X-1.747 Y-14.289 E391.20903
G1 X-2.535 Y-14.091 E391.59112
G1 X-3.874 Y-13.608 E392.26052
G1 X-5.225 Y-12.899 E392.97802
G1 X-6.411 Y-12.073 E393.65769
G1 X-7.108 Y-11.479 E394.08834
G1 X-7.758 Y-10.801 E394.53004
G1 X-8.503 Y-9.883 E395.08601
G1 X-9 Y-9.143 E395.50521
G1 X-9.413 Y-8.428 E395.89351
G1 X-9.733 Y-7.739 E396.25076
G1 X-10.107 Y-6.791 E396.73001
G1 X-10.408 Y-5.747 E397.24097
G1 X-10.512 Y-5.192 E397.50651
G1 X-10.685 Y-3.769 E398.18062
G1 X-10.684 Y-2.761 E398.65465
G1 X-10.644 Y-2.088 E398.97169
G1 X-10.406 Y-.597 E399.68173
G1 X-10.093 Y0.465 E400.20239
G1 X-9.547 Y1.77 E400.86764
G1 X-8.948 Y2.841 E401.44471
G1 X-8.408 Y3.651 E401.90251
G1 X-7.719 Y4.445 E402.39688
G1 X-7.002 Y5.162 E402.87373
G1 X-6.312 Y5.757 E403.30219
G1 X-5.478 Y6.347 E403.78261
