;FLAVOR:Marlin
;TIME:1164
;Filament used: 24.4255m
;Layer height: 1
;MINX:-51.147
;MINY:-55.014
;MINZ:0.5
;MAXX:52.498
;MAXY:48.645
;MAXZ:118.5
;TARGET_MACHINE.NAME:Unknown
;Generated with Cura_SteamEngine 5.11.0
M140 S60
M105
M190 S60
M104 S200
M105
M109 S200
G28 ;Home
M302 S0 ;Set cold extrusion
M92 E400 ;E Steps at 400 steps/mm M92 E-400 reverse
G1 Z15.0 F6000 ;Move the platform down 15mm
;Prime the extruder
G92 E0
G1 F200 E3
G92 E0
M82 ;absolute extrusion mode
G92 E0
G92 E0
G1 F1500 E-6.5
;LAYER_COUNT:118
;LAYER:0
M107
G1 F600 Z1.5
;MESH:berryvessel.stl
G0 F960 X0.00 Y0.000 Z1.5
G0 X-5.54 Y27.434
;TYPE:WALL-OUTER
G1 F600 Z0.5
G1 F1500 E0
G1 F1200 X-7.768 Y26.896 E0.53893
G1 X-9.019 Y26.526 E0.84568
G1 X-11.041 Y25.795 E1.35123
G1 X-12.792 Y25.011 E1.80233
G1 X-14.165 Y24.316 E2.16417
G1 X-15.543 Y23.523 E2.538
G1 X-16.904 Y22.664 E2.91643
G1 X-18.47 Y21.525 E3.37174
G1 X-20.003 Y20.264 E3.83847
G1 X-21.921 Y18.41 E4.46571
G1 X-23.546 Y16.587 E5.03993
G1 X-24.337 Y15.543 E5.34791
G1 X-24.942 Y14.714 E5.58922
G1 X-25.533 Y13.838 E5.83769
G1 X-26.122 Y12.915 E6.09514
G1 X-27.349 Y10.693 E6.69197
G1 X-28.444 Y8.206 E7.33092
G1 X-29.196 Y6.057 E7.86626
G1 X-29.716 Y4.087 E8.34533
G1 X-30.004 Y2.848 E8.64443
G1 X-30.355 Y0.609 E9.17732
G1 X-30.568 Y-1.73 E9.72957
G1 X-30.565 Y-4.378 E10.3522
G1 X-30.499 Y-5.414 E10.59629
G1 X-30.317 Y-7.409 E11.06733
G1 X-29.935 Y-9.516 E11.57082
G1 X-29.7 Y-10.621 E11.83646
G1 X-29.068 Y-12.833 E12.37738
G1 X-28.627 Y-14.084 E12.68927
G1 X-28.064 Y-15.498 E13.04713
G1 X-27.398 Y-16.971 E13.42724
G1 X-26.269 Y-19.059 E13.98537
G1 X-25.354 Y-20.512 E14.38912
G1 X-24.117 Y-22.233 E14.88746
G1 X-23.342 Y-23.187 E15.17647
G1 X-22.029 Y-24.696 E15.64679
G1 X-20.56 Y-26.138 E16.13081
G1 X-18.678 Y-27.744 E16.71255
G1 X-17.18 Y-28.845 E17.14968
G1 X-15.881 Y-29.719 E17.51781
G1 X-13.837 Y-30.898 E18.07264
G1 X-11.637 Y-31.927 E18.64372
G1 X-10.282 Y-32.462 E18.98626
G1 X-8.833 Y-32.972 E19.34745
G1 X-6.596 Y-33.601 E19.89384
G1 X-4.257 Y-34.058 E20.45421
G1 X-2.274 Y-34.309 E20.9242
G1 X-.486 Y-34.42 E21.34543
G1 X1.851 Y-34.435 E21.89494
G1 X3.535 Y-34.309 E22.29201
G1 X5.363 Y-34.088 E22.72496
G1 X7.238 Y-33.753 E23.17282
G1 X8.902 Y-33.342 E23.57583
G1 X10.841 Y-32.75 E24.05253
G1 X12.624 Y-32.058 E24.50224
G1 X14.243 Y-31.335 E24.91915
G1 X16.048 Y-30.398 E25.39734
G1 X17.482 Y-29.533 E25.79111
G1 X18.77 Y-28.668 E26.15592
G1 X20.055 Y-27.694 E26.53506
G1 X21.269 Y-26.675 E26.90773
G1 X22.347 Y-25.705 E27.24871
G1 X23.134 Y-24.912 E27.51141
G1 X24.3 Y-23.643 E27.91663
G1 X24.992 Y-22.797 E28.17362
G1 X25.665 Y-21.927 E28.43224
G1 X26.293 Y-21.056 E28.68473
G1 X27.169 Y-19.771 E29.0504
G1 X28.267 Y-17.868 E29.567
G1 X28.755 Y-16.873 E29.82758
G1 X29.218 Y-15.863 E30.08882
G1 X29.627 Y-14.929 E30.32857
G1 X30.447 Y-12.697 E30.88768
G1 X30.96 Y-10.812 E31.34703
G1 X31.361 Y-9.054 E31.77101
G1 X31.657 Y-7.23 E32.2055
G1 X31.875 Y-4.993 E32.73398
G1 X31.906 Y-2.85 E33.23792
G1 X31.845 Y-.955 E33.68372
G1 X31.673 Y0.658 E34.06514
G1 X31.472 Y1.983 E34.38026
G1 X31.233 Y3.308 E34.69683
G1 X30.673 Y5.545 E35.23906
G1 X30.061 Y7.431 E35.70528
G1 X29.429 Y9.036 E36.11087
G1 X28.557 Y10.881 E36.5907
G1 X27.91 Y12.103 E36.91582
G1 X26.937 Y13.744 E37.3644
G1 X25.905 Y15.209 E37.78575
G1 X24.869 Y16.59 E38.19169
G1 X23.366 Y18.291 E38.72541
G1 X21.825 Y19.797 E39.23205
G1 X20.616 Y20.862 E39.61089
G1 X18.97 Y22.146 E40.10174
G1 X17.448 Y23.172 E40.53333
G1 X15.406 Y24.378 E41.09096
G1 X12.848 Y25.596 E41.75713
G1 X10.882 Y26.349 E42.25215
G1 X8.398 Y27.097 E42.86212
G1 X5.959 Y27.6 E43.44768
G1 X4.169 Y27.871 E43.87336
G1 X1.876 Y28.038 E44.41394
G1 X-0.089 Y28.06 E44.87601
G1 X-2.79 Y27.882 E45.51248
G1 X-4.513 Y27.622 E45.9222
G1 X-5.54 Y27.434 E46.16769
G1 X-7.768 Y26.896 Z0.506 E46.70662
G1 X-9.019 Y26.526 Z0.509 E47.01337
G1 X-11.041 Y25.795 Z0.515 E47.51892
G1 X-12.792 Y25.011 Z0.52 E47.97003
G1 X-14.165 Y24.316 Z0.523 E48.33187
G1 X-15.543 Y23.523 Z0.527 E48.7057
G1 X-16.904 Y22.664 Z0.532 E49.08413
G1 X-18.47 Y21.525 Z0.537 E49.53944
G1 X-20.003 Y20.264 Z0.542 E50.00618
G1 X-21.921 Y18.41 Z0.548 E50.63341
G1 X-23.546 Y16.587 Z0.555 E51.20764
G1 X-24.337 Y15.543 Z0.558 E51.51562
G1 X-24.942 Y14.714 Z0.561 E51.75693
G1 X-25.533 Y13.838 Z0.563 E52.0054
G1 X-26.122 Y12.915 Z0.566 E52.26285
G1 X-27.349 Y10.693 Z0.572 E52.85968
G1 X-28.444 Y8.206 Z0.579 E53.49863
G1 X-29.196 Y6.057 Z0.585 E54.03397
G1 X-29.716 Y4.087 Z0.59 E54.51305
G1 X-30.004 Y2.848 Z0.594 E54.81215
G1 X-30.355 Y0.609 Z0.599 E55.34504
G1 X-30.568 Y-1.73 Z0.605 E55.89729
G1 X-30.565 Y-4.378 Z0.612 E56.51992
G1 X-30.499 Y-5.414 Z0.615 E56.76401
G1 X-30.317 Y-7.409 Z0.62 E57.23505
G1 X-29.935 Y-9.516 Z0.625 E57.73855
G1 X-29.7 Y-10.621 Z0.628 E58.00418
G1 X-29.068 Y-12.833 Z0.634 E58.54511
G1 X-28.627 Y-14.084 Z0.637 E58.857
G1 X-28.064 Y-15.498 Z0.641 E59.21487
G1 X-27.398 Y-16.971 Z0.645 E59.59497
G1 X-26.269 Y-19.059 Z0.651 E60.1531
G1 X-25.354 Y-20.512 Z0.656 E60.55685
G1 X-24.117 Y-22.233 Z0.661 E61.0552
G1 X-23.342 Y-23.187 Z0.664 E61.34421
G1 X-22.029 Y-24.696 Z0.669 E61.81453
G1 X-20.56 Y-26.138 Z0.675 E62.29855
G1 X-18.678 Y-27.744 Z0.681 E62.88029
G1 X-17.18 Y-28.845 Z0.686 E63.31742
G1 X-15.881 Y-29.719 Z0.69 E63.68556
G1 X-13.837 Y-30.898 Z0.696 E64.24039
G1 X-11.637 Y-31.927 Z0.702 E64.81147
G1 X-10.282 Y-32.462 Z0.706 E65.15401
G1 X-8.833 Y-32.972 Z0.71 E65.51521
G1 X-6.596 Y-33.601 Z0.715 E66.0616
G1 X-4.257 Y-34.058 Z0.722 E66.62197
G1 X-2.274 Y-34.309 Z0.727 E67.09196
G1 X-.486 Y-34.42 Z0.731 E67.51319
G1 X1.851 Y-34.435 Z0.737 E68.0627
G1 X3.535 Y-34.309 Z0.741 E68.45977
G1 X5.363 Y-34.088 Z0.746 E68.89272
G1 X7.238 Y-33.753 Z0.751 E69.34058
G1 X8.902 Y-33.342 Z0.755 E69.7436
G1 X10.841 Y-32.75 Z0.76 E70.2203
G1 X12.624 Y-32.058 Z0.765 E70.67001
G1 X14.243 Y-31.335 Z0.77 E71.08692
G1 X16.048 Y-30.398 Z0.775 E71.56511
G1 X17.482 Y-29.533 Z0.779 E71.95889
G1 X18.77 Y-28.668 Z0.783 E72.3237
G1 X20.055 Y-27.694 Z0.787 E72.70283
G1 X21.269 Y-26.675 Z0.791 E73.07551
G1 X22.347 Y-25.705 Z0.795 E73.41649
G1 X23.134 Y-24.912 Z0.798 E73.67919
G1 X24.3 Y-23.643 Z0.802 E74.08441
G1 X24.992 Y-22.797 Z0.805 E74.3414
G1 X25.665 Y-21.927 Z0.808 E74.60003
G1 X26.293 Y-21.056 Z0.811 E74.85251
G1 X27.169 Y-19.771 Z0.815 E75.21818
G1 X28.267 Y-17.868 Z0.82 E75.73478
G1 X28.755 Y-16.873 Z0.823 E75.99536
G1 X29.218 Y-15.863 Z0.826 E76.25661
G1 X29.627 Y-14.929 Z0.828 E76.49636
G1 X30.447 Y-12.697 Z0.835 E77.05547
G1 X30.96 Y-10.812 Z0.839 E77.51482
G1 X31.361 Y-9.054 Z0.844 E77.9388
G1 X31.657 Y-7.23 Z0.849 E78.37329
G1 X31.875 Y-4.993 Z0.855 E78.90177
G1 X31.906 Y-2.85 Z0.86 E79.40572
G1 X31.845 Y-.955 Z0.865 E79.85152
G1 X31.673 Y0.658 Z0.869 E80.23294
G1 X31.472 Y1.983 Z0.872 E80.54806
G1 X31.233 Y3.308 Z0.876 E80.86464
G1 X30.673 Y5.545 Z0.882 E81.40686
G1 X30.061 Y7.431 Z0.887 E81.87308
G1 X29.429 Y9.036 Z0.891 E82.27868
G1 X28.557 Y10.881 Z0.896 E82.75851
G1 X27.91 Y12.103 Z0.9 E83.08363
G1 X26.937 Y13.744 Z0.905 E83.53221
G1 X25.905 Y15.209 Z0.909 E83.95357
G1 X24.869 Y16.59 Z0.914 E84.3595
G1 X23.366 Y18.291 Z0.919 E84.89322
G1 X21.825 Y19.797 Z0.925 E85.39986
G1 X20.616 Y20.862 Z0.929 E85.77871
G1 X18.97 Y22.146 Z0.934 E86.26956
G1 X17.448 Y23.172 Z0.939 E86.70116
G1 X15.406 Y24.378 Z0.945 E87.25878
G1 X12.848 Y25.596 Z0.952 E87.92495
G1 X10.882 Y26.349 Z0.958 E88.41997
G1 X8.398 Y27.097 Z0.964 E89.02995
G1 X5.959 Y27.6 Z0.971 E89.61551
G1 X4.169 Y27.871 Z0.975 E90.04119
G1 X1.876 Y28.038 Z0.981 E90.58178
G1 X-0.089 Y28.06 Z0.986 E91.04384
G1 X-2.79 Y27.882 Z0.993 E91.68031
G1 X-4.513 Y27.622 Z0.997 E92.09003
G1 X-5.54 Y27.434 Z1 E92.33553
;TIME_ELAPSED:23.943011
;LAYER:1
M106 S255
;MESH:berryvessel.stl
G0 F1680 X-5.54 Y27.434 Z1.5
;TYPE:WALL-OUTER
G1 F2100 X-7.88 Y26.875 Z1.512 E93.46692
G1 X-8.266 Y26.762 Z1.514 E93.65607
G1 X-9.887 Y26.234 Z1.523 E94.45779
G1 X-11.17 Y25.767 Z1.529 E95.09987
G1 X-12.482 Y25.186 Z1.537 E95.77466
G1 X-13.631 Y24.629 Z1.543 E96.37514
G1 X-14.523 Y24.16 Z1.548 E96.84907
G1 X-16.069 Y23.251 Z1.557 E97.69247
G1 X-17.185 Y22.53 Z1.564 E98.31729
G1 X-18.28 Y21.738 Z1.571 E98.95282
G1 X-18.509 Y21.573 Z1.572 E99.08555
G1 X-19.561 Y20.717 Z1.579 E99.72336
G1 X-20.619 Y19.774 Z1.586 E100.38985
G1 X-21.752 Y18.688 Z1.594 E101.1279
G1 X-23.275 Y17.03 Z1.605 E102.18664
G1 X-24.658 Y15.276 Z1.616 E103.23705
G1 X-25.764 Y13.679 Z1.626 E104.1506
G1 X-26.511 Y12.45 Z1.633 E104.82694
G1 X-27.422 Y10.812 Z1.643 E105.70837
G1 X-28.154 Y9.196 Z1.651 E106.54265
G1 X-28.828 Y7.531 Z1.66 E107.38737
G1 X-29.37 Y5.966 Z1.669 E108.16623
G1 X-29.895 Y4.009 Z1.679 E109.11909
G1 X-30.167 Y2.838 Z1.685 E109.68444
G1 X-30.353 Y1.707 Z1.691 E110.22346
G1 X-30.56 Y0.258 Z1.698 E110.9118
G1 X-30.682 Y-1.016 Z1.704 E111.51366
G1 X-30.753 Y-2.546 Z1.712 E112.23395
G1 X-30.758 Y-4.272 Z1.721 E113.04564
G1 X-30.662 Y-5.864 Z1.729 E113.79567
G1 X-30.421 Y-8.006 Z1.74 E114.80934
G1 X-30.157 Y-9.497 Z1.747 E115.52142
G1 X-29.868 Y-10.831 Z1.754 E116.16331
G1 X-29.454 Y-12.313 Z1.762 E116.88693
G1 X-28.967 Y-13.827 Z1.77 E117.63485
G1 X-28.556 Y-14.912 Z1.776 E118.18048
G1 X-27.864 Y-16.542 Z1.784 E119.01323
G1 X-27.074 Y-18.11 Z1.793 E119.83892
G1 X-26.111 Y-19.803 Z1.803 E120.75487
G1 X-24.913 Y-21.6 Z1.814 E121.77053
G1 X-24.616 Y-22.004 Z1.816 E122.00633
G1 X-23.935 Y-22.901 Z1.822 E122.53596
G1 X-23.034 Y-23.98 Z1.829 E123.19702
G1 X-21.828 Y-25.304 Z1.838 E124.03924
G1 X-21.531 Y-25.593 Z1.84 E124.23412
G1 X-20.649 Y-26.455 Z1.846 E124.81409
G1 X-19.659 Y-27.316 Z1.853 E125.4311
G1 X-18.602 Y-28.187 Z1.86 E126.0752
G1 X-16.927 Y-29.403 Z1.87 E127.04859
G1 X-15.732 Y-30.178 Z1.877 E127.71839
G1 X-14.178 Y-31.078 Z1.886 E128.56291
G1 X-12.771 Y-31.776 Z1.894 E129.30152
G1 X-11.584 Y-32.319 Z1.901 E129.91537
G1 X-9.077 Y-33.262 Z1.914 E131.17498
G1 X-7.463 Y-33.738 Z1.923 E131.96632
G1 X-6.05 Y-34.089 Z1.93 E132.651
G1 X-5.044 Y-34.292 Z1.935 E133.13363
G1 X-3.425 Y-34.551 Z1.943 E133.90468
G1 X-1.777 Y-34.732 Z1.952 E134.68434
G1 X0.573 Y-34.834 Z1.963 E135.79052
G1 X2.971 Y-34.766 Z1.975 E136.91868
G1 X4.246 Y-34.648 Z1.982 E137.52084
G1 X6.082 Y-34.391 Z1.991 E138.39267
G1 X7.829 Y-34.053 Z2 E139.22947
G1 X9.873 Y-33.51 Z2.011 E140.22404
G1 X11.891 Y-32.828 Z2.021 E141.22577
G1 X13.464 Y-32.192 Z2.03 E142.02368
G1 X14.896 Y-31.522 Z2.038 E142.76718
G1 X16.244 Y-30.82 Z2.045 E143.48191
G1 X17.735 Y-29.936 Z2.054 E144.29706
G1 X19.167 Y-28.974 Z2.063 E145.10833
G1 X20.421 Y-28.028 Z2.071 E145.84704
G1 X21.489 Y-27.144 Z2.077 E146.49901
G1 X22.277 Y-26.454 Z2.083 E146.99157
G1 X23.356 Y-25.408 Z2.09 E147.69829
G1 X24.77 Y-23.882 Z2.101 E148.67664
G1 X26.197 Y-22.097 Z2.112 E149.75134
G1 X27.199 Y-20.678 Z2.121 E150.56825
G1 X27.427 Y-20.314 Z2.123 E150.77024
G1 X28.587 Y-18.429 Z2.134 E151.8111
G1 X29.631 Y-16.3 Z2.146 E152.9262
G1 X30.211 Y-14.974 Z2.153 E153.60682
G1 X30.987 Y-12.861 Z2.165 E154.6654
G1 X31.422 Y-11.333 Z2.173 E155.41252
G1 X31.803 Y-9.796 Z2.18 E156.1572
G1 X32.15 Y-7.907 Z2.19 E157.0604
G1 X32.363 Y-6.21 Z2.199 E157.86471
G1 X32.487 Y-4.579 Z2.207 E158.63394
G1 X32.523 Y-3.252 Z2.214 E159.25822
G1 X32.45 Y-.863 Z2.225 E160.38221
G1 X32.287 Y0.799 Z2.234 E161.16755
G1 X32.018 Y2.595 Z2.243 E162.02158
G1 X31.496 Y5.012 Z2.255 E163.18443
G1 X30.93 Y6.893 Z2.265 E164.10818
G1 X30.555 Y7.965 Z2.271 E164.64227
G1 X29.948 Y9.506 Z2.279 E165.42115
G1 X29.434 Y10.623 Z2.285 E165.99938
G1 X28.791 Y11.899 Z2.293 E166.67133
G1 X28.043 Y13.232 Z2.3 E167.39015
G1 X27.235 Y14.522 Z2.308 E168.10598
G1 X26.434 Y15.683 Z2.315 E168.76929
G1 X25.664 Y16.7 Z2.321 E169.36918
G1 X24.564 Y18.017 Z2.33 E170.17614
G1 X23.364 Y19.309 Z2.339 E171.00537
G1 X21.875 Y20.731 Z2.349 E171.97362
G1 X20.133 Y22.184 Z2.36 E173.04039
G1 X18.376 Y23.449 Z2.371 E174.05853
G1 X17.115 Y24.25 Z2.379 E174.76107
G1 X15.917 Y24.945 Z2.386 E175.41239
G1 X14.397 Y25.722 Z2.394 E176.21518
G1 X13.033 Y26.342 Z2.402 E176.91979
G1 X11.31 Y27.016 Z2.411 E177.78985
G1 X9.06 Y27.725 Z2.423 E178.89925
G1 X7.455 Y28.12 Z2.431 E179.67655
G1 X6.419 Y28.341 Z2.437 E180.17471
G1 X3.905 Y28.708 Z2.449 E181.3695
G1 X1.739 Y28.858 Z2.46 E182.39055
G1 X-.177 Y28.876 Z2.47 E183.29162
G1 X-1.403 Y28.82 Z2.476 E183.86878
G1 X-2.646 Y28.717 Z2.482 E184.45532
G1 X-4.144 Y28.539 Z2.49 E185.16474
G1 X-6.162 Y28.178 Z2.5 E186.12881
;TIME_ELAPSED:29.784741
;LAYER:2
;note -- min layer time used
;TYPE:WALL-OUTER
;MESH:berryvessel.stl
G1 F2519.8 X-6.639 Y28.088 Z2.502 E186.35709
G1 X-7.048 Y27.99 Z2.504 E186.55487
G1 X-7.499 Y27.881 Z2.507 E186.77307
G1 X-8.169 Y27.721 Z2.51 E187.09701
G1 X-8.733 Y27.541 Z2.513 E187.37543
G1 X-8.976 Y27.468 Z2.514 E187.49475
G1 X-9.157 Y27.413 Z2.515 E187.58371
G1 X-9.824 Y27.211 Z2.518 E187.91145
G1 X-10.868 Y26.848 Z2.523 E188.43124
G1 X-11.446 Y26.63 Z2.526 E188.72174
G1 X-11.541 Y26.596 Z2.527 E188.7692
G1 X-11.737 Y26.513 Z2.528 E188.86929
G1 X-12.636 Y26.137 Z2.532 E189.32755
G1 X-12.659 Y26.125 Z2.533 E189.33976
G1 X-14.618 Y25.184 Z2.543 E190.36179
G1 X-15.224 Y24.856 Z2.546 E190.68584
G1 X-15.477 Y24.715 Z2.548 E190.82205
G1 X-15.747 Y24.556 Z2.549 E190.9694
G1 X-16.147 Y24.326 Z2.551 E191.18639
G1 X-17.108 Y23.74 Z2.557 E191.71571
G1 X-17.319 Y23.607 Z2.558 E191.833
G1 X-17.811 Y23.288 Z2.561 E192.10875
G1 X-18.39 Y22.865 Z2.564 E192.44596
G1 X-19.001 Y22.417 Z2.568 E192.80226
G1 X-19.116 Y22.332 E192.86951
G1 X-19.645 Y21.923 Z2.571 E193.18397
G1 X-20.614 Y21.125 Z2.577 E193.77429
G1 X-20.988 Y20.796 Z2.58 E194.00854
G1 X-21.206 Y20.613 Z2.581 E194.14239
G1 X-21.348 Y20.483 Z2.582 E194.23293
G1 X-21.68 Y20.17 Z2.584 E194.4475
G1 X-21.902 Y19.955 Z2.586 E194.59284
G1 X-22.081 Y19.788 Z2.587 E194.70796
G1 X-22.689 Y19.188 Z2.591 E195.10967
G1 X-23.106 Y18.736 Z2.594 E195.39887
G1 X-23.625 Y18.187 Z2.597 E195.75415
G1 X-24.026 Y17.748 Z2.6 E196.03377
G1 X-24.129 Y17.641 Z2.601 E196.10361
G1 X-24.296 Y17.425 Z2.602 E196.23201
G1 X-25.001 Y16.547 Z2.608 E196.76154
G1 X-25.327 Y16.144 Z2.61 E197.0053
G1 X-26.251 Y14.857 Z2.618 E197.75037
G1 X-26.59 Y14.361 Z2.621 E198.0329
G1 X-27.153 Y13.489 Z2.625 E198.52102
G1 X-27.703 Y12.56 Z2.631 E199.02872
G1 X-28.007 Y11.99 Z2.634 E199.33252
G1 X-28.134 Y11.774 Z2.635 E199.45035
G1 X-28.416 Y11.254 Z2.638 E199.72854
G1 X-28.639 Y10.777 Z2.64 E199.97616
G1 X-29.097 Y9.833 Z2.645 E200.46958
G1 X-29.322 Y9.303 Z2.648 E200.74035
G1 X-29.796 Y8.144 Z2.654 E201.32922
G1 X-29.896 Y7.915 Z2.655 E201.44673
G1 X-29.968 Y7.685 Z2.656 E201.56007
G1 X-30.174 Y7.124 Z2.659 E201.84111
G1 X-30.47 Y6.268 Z2.663 E202.26705
G1 X-30.793 Y5.102 Z2.669 E202.83603
G1 X-31.089 Y4.011 Z2.675 E203.36765
G1 X-31.122 Y3.823 E203.45741
G1 X-31.319 Y3.03 Z2.679 E203.84167
G1 X-31.526 Y1.903 Z2.685 E204.38053
G1 X-31.588 Y1.414 Z2.687 E204.61233
G1 X-31.646 Y1.087 Z2.689 E204.76851
G1 X-31.667 Y0.856 Z2.69 E204.87759
G1 X-31.745 Y0.385 Z2.692 E205.1021
G1 X-31.89 Y-1.024 Z2.699 E205.76821
G1 X-31.965 Y-2.432 Z2.706 E206.43129
G1 X-31.969 Y-2.921 Z2.708 E206.66126
G1 X-31.977 Y-3.068 Z2.709 E206.73049
G1 X-31.977 Y-3.528 Z2.711 E206.94681
G1 X-31.99 Y-4.136 Z2.714 E207.2328
G1 X-31.953 Y-5.186 Z2.719 E207.72689
G1 X-31.918 Y-5.684 Z2.721 E207.96166
G1 X-31.907 Y-6.02 Z2.723 E208.11976
G1 X-31.881 Y-6.159 E208.18626
G1 X-31.826 Y-6.769 Z2.726 E208.47429
G1 X-31.604 Y-8.538 Z2.735 E209.31272
G1 X-31.435 Y-9.56 Z2.74 E209.79986
G1 X-31.221 Y-10.537 Z2.744 E210.27021
G1 X-31.088 Y-11.231 Z2.748 E210.60251
G1 X-30.652 Y-12.804 Z2.756 E211.37014
G1 X-30.603 Y-12.994 Z2.757 E211.46241
G1 X-30.519 Y-13.22 Z2.758 E211.5758
G1 X-30.358 Y-13.763 Z2.76 E211.84214
G1 X-29.469 Y-16.167 Z2.773 E213.04749
G1 X-29.159 Y-16.854 Z2.776 E213.40194
G1 X-29.074 Y-17.102 Z2.777 E213.52522
G1 X-28.956 Y-17.324 Z2.779 E213.64346
G1 X-28.363 Y-18.551 Z2.785 E214.28433
G1 X-27.756 Y-19.644 Z2.791 E214.87228
G1 X-27.461 Y-20.177 Z2.794 E215.15876
G1 X-27.081 Y-20.771 Z2.797 E215.49037
G1 X-26.997 Y-20.94 Z2.798 E215.57912
G1 X-26.828 Y-21.184 Z2.8 E215.71871
G1 X-26.615 Y-21.539 Z2.802 E215.9134
G1 X-26.026 Y-22.427 Z2.807 E216.41451
G1 X-25.512 Y-23.089 Z2.811 E216.80865
G1 X-25.019 Y-23.773 Z2.815 E217.20516
