;FLAVOR:Marlin
;TIME:332
;Filament used: 2.83912m
;Layer height: 1
;MINX:-30.266
;MINY:-27.144
;MINZ:0.5
;MAXX:30.266
;MAXY:27.144
;MAXZ:44.5
;TARGET_MACHINE.NAME:Unknown
;Generated with Cura_SteamEngine 5.11.0
M140 S60
M105
M190 S60
M104 S200
M105
M109 S200
G28 ;Home
M302 S0 ;Set cold extrusion
M92 E400 ;E Steps at 400 steps/mm M92 E-400 reverse
G1 Z15.0 F6000 ;Move the platform down 15mm
;Prime the extruder
G92 E0
G1 F200 E3
G92 E0
M82 ;absolute extrusion mode
G92 E0
G92 E0
G1 F1500 E-6.5
;LAYER_COUNT:44
;LAYER:0
M107
G1 F600 Z1.5
;MESH:funnelaero.stl
G0 F720 X0.00 Y0.000 Z1.5
G0 X11.65 Y21.143
;TYPE:WALL-INNER
G1 F600 Z0.5
G1 F1500 E0
G1 F900 X12.128 Y21.002 E0.11718
G1 X12.315 Y20.858 E0.17268
G1 X12.614 Y20.439 E0.29371
G1 X24.176 Y0.413 E5.73091
G1 X24.255 Y0.024 E5.82424
G1 X24.224 Y-.215 E5.88091
G1 X24.003 Y-.711 E6.00859
G1 X12.476 Y-20.671 E11.42823
G1 X12.132 Y-21 E11.54015
G1 X11.903 Y-21.095 E11.59845
G1 X11.648 Y-21.143 E11.65946
G1 X-11.65 Y-21.143 E17.13756
G1 X-12.022 Y-21.054 E17.2275
G1 X-12.227 Y-20.935 E17.28323
G1 X-12.467 Y-20.694 E17.36321
G1 X-24.176 Y-.413 E22.86961
G1 X-24.255 Y-0.024 E22.96295
G1 X-24.223 Y0.222 E23.02128
G1 X-24.006 Y0.707 E23.14621
G1 X-12.48 Y20.669 E28.56614
G1 X-12.219 Y20.941 E28.65478
G1 X-12.016 Y21.056 E28.70964
G1 X-11.648 Y21.144 E28.79861
G1 X11.65 Y21.143 E34.27671
G0 F720 X12.277 Y22.44
G0 X12.676 Y23.998
G1 F900 X13.166 Y23.834 E34.39821
G1 X13.627 Y23.607 E34.51903
G1 X14.055 Y23.322 E34.63994
G1 X14.443 Y22.982 E34.76124
G1 X14.79 Y22.584 E34.8854
G1 X15.165 Y22.02 E35.04465
G1 X26.653 Y2.122 E40.44708
G1 X26.978 Y1.469 E40.61859
G1 X27.182 Y0.771 E40.78958
G1 X27.263 Y0.057 E40.95854
G1 X27.228 Y-.498 E41.08929
G1 X27.128 Y-.994 E41.20827
G1 X26.95 Y-1.52 E41.33884
G1 X26.65 Y-2.127 E41.49804
G1 X15.005 Y-22.291 E46.9731
G1 X14.441 Y-22.982 E47.18282
G1 X14.055 Y-23.323 E47.30393
G1 X13.636 Y-23.603 E47.42242
G1 X13.168 Y-23.834 E47.54514
G1 X12.681 Y-23.999 E47.66604
G1 X11.798 Y-24.143 E47.87641
G1 X-11.788 Y-24.144 E53.42223
G1 X-12.675 Y-23.999 E53.63356
G1 X-13.166 Y-23.834 E53.75535
G1 X-13.627 Y-23.607 E53.87618
G1 X-14.055 Y-23.322 E53.99708
G1 X-14.443 Y-22.982 E54.11839
G1 X-14.791 Y-22.584 E54.2427
G1 X-15.165 Y-22.02 E54.40182
G1 X-26.653 Y-2.122 E59.80425
G1 X-27.028 Y-1.339 E60.00839
G1 X-27.182 Y-.771 E60.14676
G1 X-27.263 Y-0.057 E60.31572
G1 X-27.228 Y0.498 E60.44648
G1 X-27.127 Y0.999 E60.56665
G1 X-26.951 Y1.521 E60.69618
G1 X-26.653 Y2.123 E60.85412
G1 X-15.017 Y22.278 E66.32629
G1 X-14.443 Y22.978 E66.53914
G1 X-14.054 Y23.323 E66.6614
G1 X-13.636 Y23.603 E66.7797
G1 X-13.168 Y23.833 E66.90231
G1 X-12.68 Y23.999 E67.02351
G1 X-11.798 Y24.144 E67.23368
G1 X11.788 Y24.144 E72.7795
G1 X12.676 Y23.998 E72.9911
G0 F720 X12.277 Y22.439
G0 X12.515 Y27.089
;TYPE:WALL-OUTER
G1 F900 X13.449 Y26.903 E73.21503
G1 X14.311 Y26.614 E73.4288
G1 X15.126 Y26.213 E73.64237
G1 X15.882 Y25.71 E73.85588
G1 X16.571 Y25.106 E74.07133
G1 X17.18 Y24.408 E74.28914
G1 X17.716 Y23.601 E74.51693
G1 X29.297 Y3.542 E79.96308
G1 X29.728 Y2.676 E80.19053
G1 X29.883 Y2.27 E80.29271
G1 X30.13 Y1.363 E80.51374
G1 X30.251 Y0.447 E80.73099
G1 X30.266 Y0.014 E80.83287
G1 X30.209 Y-.888 E81.04538
G1 X30.032 Y-1.774 E81.25782
G1 X29.727 Y-2.672 E81.48082
G1 X29.296 Y-3.543 E81.70932
G1 X17.535 Y-23.91 E87.23935
G1 X17.196 Y-24.39 E87.37752
G1 X16.571 Y-25.103 E87.60047
G1 X15.89 Y-25.705 E87.81418
G1 X15.14 Y-26.206 E88.02626
G1 X14.32 Y-26.611 E88.2413
G1 X13.459 Y-26.903 E88.45508
G1 X12.541 Y-27.085 E88.67513
G1 X11.943 Y-27.143 E88.8164
G1 X-11.926 Y-27.144 E94.42876
G1 X-12.515 Y-27.089 E94.56786
G1 X-13.449 Y-26.903 E94.79178
G1 X-14.311 Y-26.614 E95.00556
G1 X-15.126 Y-26.213 E95.21913
G1 X-15.882 Y-25.71 E95.43264
G1 X-16.571 Y-25.106 E95.64808
G1 X-17.181 Y-24.408 E95.86605
G1 X-17.716 Y-23.601 E96.09371
G1 X-29.297 Y-3.542 E101.53986
G1 X-29.728 Y-2.676 E101.76731
G1 X-29.884 Y-2.27 E101.86958
G1 X-30.13 Y-1.363 E102.09055
G1 X-30.251 Y-.447 E102.3078
G1 X-30.266 Y-0.014 E102.40967
G1 X-30.209 Y0.888 E102.62218
G1 X-30.031 Y1.775 E102.8349
G1 X-29.73 Y2.669 E103.05671
G1 X-29.3 Y3.539 E103.28489
G1 X-17.544 Y23.9 E108.81311
G1 X-17.197 Y24.388 E108.95391
G1 X-16.574 Y25.099 E109.17619
G1 X-15.89 Y25.705 E109.39106
G1 X-15.14 Y26.206 E109.60313
G1 X-14.32 Y26.611 E109.81818
G1 X-13.458 Y26.903 E110.03217
G1 X-12.541 Y27.086 E110.25204
G1 X-11.943 Y27.144 E110.39331
G1 X11.926 Y27.144 E116.00567
G1 X12.515 Y27.089 E116.14477
G0 F720 X13.449 Y26.903
G0 X13.968 Y26.729
G0 X12.544 Y22.349
G0 X10.561 Y18.292
;TYPE:SKIN
G1 F900 X-10.561 Y18.292 E121.11123
G1 X-21.119 Y0.001 E126.07709
G1 X-10.561 Y-18.291 E131.04316
G1 X10.558 Y-18.291 E136.00891
G1 X21.119 Y0.001 E140.97533
G1 X10.561 Y18.292 E145.94119
G0 F720 X-8.664 Y16.792
G1 F900 X-11.103 Y14.353 E146.75222
G0 F720 X-4.422 Y16.792
G1 F900 X-16.895 Y4.318 E150.89999
G1 X-17.425 Y3.788
G0 F720 X-18.503 Y-1.532
G1 F900 X-.179 Y16.792 E156.99322
G0 F720 X4.064 Y16.792
G1 F900 X-16.95 Y-4.222 E163.98093
G0 F720 X-15.397 Y-6.912
G1 F900 X8.306 Y16.792 E171.86298
G0 F720 X10.74 Y14.983
G1 F900 X-13.844 Y-9.602 E180.03799
G0 F720 X-12.292 Y-12.292
G1 F900 X12.292 Y12.292 E188.21283
G0 F720 X13.845 Y9.603
G1 F900 X-10.74 Y-14.982 E196.388
G0 F720 X-8.306 Y-16.791
G1 F900 X15.398 Y6.913 E204.27021
G0 F720 X16.951 Y4.223
G1 F900 X-4.063 Y-16.791 E211.25793
G0 F720 X0.18 Y-16.791
G1 F900 X18.503 Y1.532 E217.35082
G1 X19.033 Y2.062
G0 F720 X16.891 Y-4.323
G1 F900 X4.422 Y-16.791 E221.49693
G0 F720 X8.665 Y-16.791
G1 F900 X11.095 Y-14.361 E222.30497
;MESH:NONMESH
G0 F600 X11.095 Y-14.361 Z1.5
G0 F720 X3.422 Y5.928
;TIME_ELAPSED:77.526391
;LAYER:1
M106 S255
;TYPE:WALL-INNER
;MESH:funnelaero.stl
G1 F1350 X6.845 Y0.00 E225.52407
G1 X3.422 Y-5.928 E228.74316
G1 X-3.422 Y-5.928 E231.96165
G1 X-6.847 Y0.003 E235.18244
G1 X-3.426 Y5.928 E238.39984
G1 X3.422 Y5.928 E241.62021
G0 F1560 X5.154 Y8.928
G1 F1350 X10.309 Y0.00 E246.46834
G1 X5.153 Y-8.928 E251.3167
G1 X-5.154 Y-8.928 E256.16371
G1 X-10.311 Y0.003 E261.01353
G1 X-5.158 Y8.928 E265.85997
G1 X5.154 Y8.928 E270.70933
G0 F1560 X6.886 Y11.928
G1 F1350 X13.773 Y0.00 E277.18648
G1 X6.885 Y-11.928 E283.66388
G1 X-6.886 Y-11.928 E290.13988
G1 X-13.775 Y0.003 E296.61873
G1 X-6.89 Y11.928 E303.09419
G1 X6.886 Y11.928 E309.57255
G0 F1560 X8.618 Y14.928
G1 F1350 X17.237 Y0.00 E317.67874
G1 X8.617 Y-14.928 E325.78516
G1 X-8.618 Y-14.928 E333.89016
G1 X-17.239 Y0.003 E341.99804
G1 X-8.622 Y14.928 E350.10253
G1 X8.618 Y14.928 E358.20988
G0 F1560 X10.35 Y17.928
G1 F1350 X20.702 Y0.00 E367.94533
G1 X10.349 Y-17.928 E377.68102
G1 X-10.35 Y-17.928 E387.41501
G1 X-20.703 Y0.003 E397.15192
G1 X-10.353 Y17.928 E406.88568
G1 X10.35 Y17.928 E416.62156
G0 F1560 X11.436 Y20.928
G1 F1350 X11.919 Y20.829 E416.85342
G1 X12.163 Y20.673 E416.98961
G1 X12.461 Y20.271 E417.22493
G1 X23.849 Y0.548 E427.93501
G1 X24.008 Y0.043 E428.18399
G1 X23.935 Y-.4 E428.39513
G1 X12.359 Y-20.446 E439.28096
G1 X12.151 Y-20.685 E439.42995
G1 X11.881 Y-20.851 E439.579
G1 X11.414 Y-20.928 E439.80158
G1 X-11.433 Y-20.928 E450.5457
G1 X-11.752 Y-20.889 E450.69683
G1 X-12.16 Y-20.677 E450.91306
G1 X-12.461 Y-20.271 E451.15073
G1 X-23.848 Y-.548 E461.86058
G1 X-24.008 Y-0.044 E462.10925
G1 X-23.932 Y0.409 E462.32525
G1 X-12.372 Y20.431 E473.19755
G1 X-12.151 Y20.685 E473.35588
G1 X-11.881 Y20.851 E473.50493
G1 X-11.414 Y20.928 E473.72751
G1 X11.436 Y20.928 E484.47304
G0 F1560 X11.963 Y22.267
G0 X12.253 Y23.851
G1 F1350 X12.804 Y23.707 E484.74086
G1 X13.228 Y23.535 E484.95603
G1 X13.721 Y23.255 E485.22265
G1 X14.276 Y22.814 E485.55601
G1 X14.686 Y22.345 E485.84896
G1 X15.012 Y21.852 E486.1269
G1 X26.538 Y1.89 E496.96677
G1 X26.78 Y1.319 E497.25841
G1 X26.94 Y0.743 E497.53954
G1 X27.014 Y0.051 E497.86682
G1 X26.978 Y-.534 E498.14244
G1 X26.793 Y-1.298 E498.5121
G1 X26.435 Y-2.069 E498.91186
G1 X14.88 Y-22.079 E509.77809
G1 X14.19 Y-22.9 E510.28242
G1 X13.552 Y-23.371 E510.65535
G1 X13.042 Y-23.624 E510.92308
G1 X12.344 Y-23.834 E511.26586
G1 X11.602 Y-23.928 E511.61758
G1 X-11.611 Y-23.928 E522.53382
G1 X-12.321 Y-23.843 E522.87009
G1 X-13.009 Y-23.631 E523.20864
G1 X-13.659 Y-23.305 E523.5506
G1 X-14.276 Y-22.815 E523.92112
G1 X-14.686 Y-22.345 E524.21443
G1 X-15.012 Y-21.852 E524.49237
G1 X-26.538 Y-1.89 E535.33224
G1 X-26.781 Y-1.317 E535.62493
G1 X-26.939 Y-.746 E535.90354
G1 X-27.015 Y-0.051 E536.23232
G1 X-26.947 Y0.728 E536.60005
G1 X-26.718 Y1.502 E536.97963
G1 X-26.435 Y2.076 E537.28059
G1 X-14.898 Y22.056 E548.13037
G1 X-14.19 Y22.9 E548.64843
G1 X-13.552 Y23.371 E549.02136
G1 X-13.042 Y23.624 E549.28908
G1 X-12.344 Y23.834 E549.63186
G1 X-11.602 Y23.928 E549.98358
G1 X11.613 Y23.928 E560.90076
G1 X12.253 Y23.851 E561.2039
G0 F1560 X11.964 Y22.266
G0 X12.812 Y26.806
;TYPE:WALL-OUTER
G1 F1950 X13.75 Y26.561 E561.65981
G1 X14.537 Y26.242 E562.05915
G1 X15.373 Y25.767 E562.51132
G1 X16.072 Y25.239 E562.92327
G1 X16.43 Y24.908 E563.15256
G1 X17.076 Y24.168 E563.6145
G1 X17.564 Y23.433 E564.02939
G1 X29.227 Y3.232 E574.99881
G1 X29.62 Y2.309 E575.47057
G1 X29.884 Y1.351 E575.93787
G1 X29.999 Y0.524 E576.33052
G1 X30.018 Y0.012 E576.57146
G1 X29.963 Y-.868 E576.9861
G1 X29.883 Y-1.36 E577.22051
G1 X29.653 Y-2.214 E577.63643
G1 X29.477 Y-2.687 E577.87376
G1 X29.081 Y-3.487 E578.29354
G1 X17.408 Y-23.701 E589.2706
G1 X17.091 Y-24.147 E589.52792
G1 X16.419 Y-24.921 E590.00995
G1 X16.146 Y-25.18 E590.18691
G1 X15.441 Y-25.726 E590.60625
G1 X15.024 Y-25.99 E590.83835
G1 X14.235 Y-26.381 E591.25245
G1 X13.76 Y-26.558 E591.49082
G1 X12.928 Y-26.784 E591.89626
G1 X11.79 Y-26.928 E592.43569
G1 X-11.79 Y-26.928 E603.52451
G1 X-12.829 Y-26.803 E604.01664
G1 X-13.318 Y-26.693 E604.25235
G1 X-14.149 Y-26.413 E604.66472
G1 X-15.025 Y-25.987 E605.1228
G1 X-15.355 Y-25.784 E605.305
G1 X-16.071 Y-25.241 E605.72759
G1 X-16.43 Y-24.909 E605.95754
G1 X-17.076 Y-24.168 E606.41983
G1 X-17.564 Y-23.433 E606.83472
G1 X-29.227 Y-3.232 E617.80414
G1 X-29.62 Y-2.308 E618.27633
G1 X-29.883 Y-1.355 E618.74125
G1 X-29.999 Y-.524 E619.13582
G1 X-30.018 Y-0.012 E619.37676
G1 X-29.963 Y0.868 E619.7914
G1 X-29.883 Y1.36 E620.02581
G1 X-29.653 Y2.214 E620.44173
G1 X-29.476 Y2.69 E620.68055
G1 X-29.083 Y3.489 E621.09928
G1 X-17.424 Y23.68 E632.06368
G1 X-17.092 Y24.146 E632.33275
G1 X-16.419 Y24.921 E632.81545
G1 X-16.146 Y25.18 E632.99241
G1 X-15.441 Y25.726 E633.41175
G1 X-15.024 Y25.99 E633.64384
G1 X-14.235 Y26.381 E634.05794
G1 X-13.76 Y26.558 E634.29632
G1 X-12.928 Y26.784 E634.70176
G1 X-11.79 Y26.928 E635.24119
G1 X11.791 Y26.928 E646.33048
G1 X12.812 Y26.806 E646.81404
G0 F1560 X13.75 Y26.561
G0 X14.242 Y26.362
G0 X12.53 Y22.086
G0 X1.777 Y3.076
;TYPE:SKIN
G1 F1200 X-1.781 Y3.076 E648.48724
G1 X-3.555 Y0.001 E650.15669
G1 X-1.776 Y-3.076 E651.82813
G1 X1.777 Y-3.076 E653.49897
G1 X3.552 Y0.00 E655.16907
G1 X1.777 Y3.076 E656.83916
G0 F1560 X-1.156 Y1.156
G1 F1200 X1.154 Y-1.154 E658.37543
;MESH:NONMESH
G0 F600 X1.154 Y-1.154 Z2.5
G0 F1560 X13.529 Y-21.204
G0 X17.277 Y-23.368
;TIME_ELAPSED:119.916670
;LAYER:2
;TYPE:WALL-OUTER
;MESH:funnelaero.stl
G1 F3000 X28.899 Y-3.233 E669.30833
G1 X29.205 Y-2.548 E669.66114
G1 X29.452 Y-1.797 E670.03292
G1 X29.644 Y-.783 E670.51824
G1 X29.69 Y-0.012 E670.88146
G1 X29.616 Y1.011 E671.36379
G1 X29.456 Y1.791 E671.73824
G1 X29.28 Y2.348 E672.01294
G1 X28.895 Y3.243 E672.47111
G1 X17.266 Y23.387 E683.40932
G1 X16.558 Y24.317 E683.95898
G1 X15.968 Y24.903 E684.35003
G1 X15.519 Y25.27 E684.62274
G1 X14.858 Y25.705 E684.99486
G1 X13.933 Y26.153 E685.47818
G1 X13.181 Y26.404 E685.851
G1 X12.602 Y26.532 E686.12986
G1 X11.637 Y26.646 E686.58682
G1 X-11.437 Y26.644 E697.43769
G1 X-12.201 Y26.593 E697.79777
G1 X-12.783 Y26.497 E698.07516
G1 X-13.576 Y26.282 E698.46154
G1 X-14.126 Y26.073 E698.73823
G1 X-14.839 Y25.716 E699.11321
G1 X-15.678 Y25.147 E699.58994
G1 X-16.282 Y24.61 E699.97001
G1 X-16.671 Y24.186 E700.2406
G1 X-17.277 Y23.368 E700.71934
G1 X-28.899 Y3.233 E711.65223
G1 X-29.205 Y2.548 E712.00505
G1 X-29.452 Y1.797 E712.37682
G1 X-29.644 Y0.783 E712.86215
G1 X-29.69 Y0.012 E713.22536
G1 X-29.616 Y-1.011 E713.7077
G1 X-29.456 Y-1.791 E714.08214
G1 X-29.28 Y-2.348 E714.35685
G1 X-28.895 Y-3.243 E714.81502
G1 X-17.266 Y-23.387 E725.75323
G1 X-16.559 Y-24.315 E726.30185
G1 X-15.964 Y-24.906 E726.69623
G1 X-15.524 Y-25.265 E726.96328
G1 X-14.834 Y-25.72 E727.35196
G1 X-14.327 Y-25.984 E727.62077
G1 X-13.579 Y-26.282 E727.99942
G1 X-12.584 Y-26.534 E728.4821
G1 X-11.637 Y-26.646 E728.93055
G1 X11.437 Y-26.644 E739.78142
G1 X12.201 Y-26.593 E740.1415
G1 X12.783 Y-26.497 E740.41889
G1 X13.576 Y-26.282 E740.80527
G1 X14.126 Y-26.073 E741.08196
G1 X14.839 Y-25.716 E741.45694
G1 X15.678 Y-25.147 E741.93367
G1 X16.282 Y-24.61 E742.31374
G1 X16.671 Y-24.186 E742.58433
G1 X17.277 Y-23.368 E743.06307
G0 F2400 X17.403 Y-23.715
G1 F3000 X29.116 Y-3.341 Z2.63 E754.11488
G1 X29.452 Y-2.641 Z2.634 E754.48003
G1 X29.706 Y-1.865 Z2.639 E754.86401
G1 X29.922 Y-.801 Z2.645 E755.37459
G1 X29.968 Y-0.03 Z2.649 E755.73781
G1 X29.879 Y1.047 Z2.655 E756.24602
G1 X29.698 Y1.857 Z2.659 E756.63633
G1 X29.512 Y2.445 Z2.663 E756.92636
G1 X29.101 Y3.362 Z2.668 E757.39893
G1 X17.428 Y23.495 Z2.797 E768.34319
G1 X16.713 Y24.452 Z2.803 E768.90497
G1 X16.118 Y25.065 Z2.808 E769.30672
G1 X15.65 Y25.441 Z2.811 E769.58903
G1 X14.964 Y25.891 Z2.816 E769.97486
G1 X14.014 Y26.351 Z2.822 E770.47123
G1 X13.232 Y26.599 Z2.826 E770.85703
G1 X12.626 Y26.731 Z2.83 E771.1487
G1 X11.637 Y26.836 Z2.835 E771.61641
G1 X-11.437 Y26.798 Z2.963 E782.46746
G1 X-12.22 Y26.743 Z2.967 E782.83659
G1 X-12.803 Y26.658 Z2.97 E783.11366
G1 X-13.619 Y26.444 Z2.975 E783.51038
G1 X-14.202 Y26.226 Z2.978 E783.80309
G1 X-14.915 Y25.869 Z2.983 E784.17807
G1 X-15.775 Y25.265 Z2.988 E784.67228
G1 X-16.4 Y24.714 Z2.993 E785.06412
G1 X-16.783 Y24.284 Z2.996 E785.33492
G1 X-17.4 Y23.439 Z3.002 E785.82695
G1 X-28.991 Y3.279 Z3.13 E796.76292
G1 X-29.309 Y2.588 Z3.135 E797.12064
G1 X-29.559 Y1.826 Z3.139 E797.49778
G1 X-29.76 Y0.79 Z3.145 E797.99407
G1 X-29.805 Y0.019 Z3.149 E798.35726
G1 X-29.724 Y-1.026 Z3.155 E798.85017
G1 X-29.554 Y-1.818 Z3.159 E799.23111
G1 X-29.374 Y-2.387 Z3.163 E799.51176
G1 X-28.978 Y-3.291 Z3.168 E799.97589
G1 X-17.313 Y-23.418 Z3.296 E810.91582
G1 X-16.603 Y-24.353 Z3.303 E811.46793
G1 X-16.006 Y-24.951 Z3.308 E811.8653
G1 X-15.557 Y-25.311 Z3.311 E812.13594
G1 X-14.861 Y-25.774 Z3.315 E812.52906
G1 X-14.352 Y-26.035 Z3.319 E812.79806
G1 X-13.597 Y-26.334 Z3.323 E813.17994
G1 X-12.59 Y-26.585 Z3.329 E813.668
G1 X-11.637 Y-26.693 Z3.334 E814.11903
G1 X11.437 Y-26.655 Z3.461 E824.97008
G1 X12.202 Y-26.603 Z3.466 E825.33067
G1 X12.784 Y-26.506 Z3.469 E825.60814
G1 X13.578 Y-26.29 Z3.473 E825.99511
G1 X14.129 Y-26.08 Z3.477 E826.27241
G1 X14.842 Y-25.722 Z3.481 E826.64761
G1 X15.681 Y-25.15 Z3.487 E827.12514
G1 X16.284 Y-24.612 Z3.491 E827.50517
G1 X16.672 Y-24.187 Z3.494 E827.7758
G1 X17.277 Y-23.368 Z3.5 E828.25464
;TIME_ELAPSED:127.176596
;LAYER:3
;note -- min layer time used
;TYPE:WALL-OUTER
;MESH:funnelaero.stl
G1 F2149.3 X28.769 Y-3.384 Z3.629 E839.09566
G1 X29.144 Y-2.584 Z3.634 E839.51116
G1 X29.38 Y-1.876 Z3.638 E839.86212
G1 X29.599 Y-.746 Z3.644 E840.40341
G1 X29.639 Y-0.033 Z3.648 E840.73924
G1 X29.545 Y1.111 Z3.655 E841.27905
G1 X29.387 Y1.842 Z3.659 E841.63075
G1 X29 Y2.879 Z3.665 E842.15128
G1 X28.603 Y3.653 Z3.67 E842.56035
G1 X17.284 Y23.187 Z3.796 E853.17742
G1 X16.97 Y23.636 Z3.799 E853.43508
G1 X16.238 Y24.503 Z3.805 E853.96869
G1 X15.746 Y24.957 Z3.809 E854.28352
G1 X15.132 Y25.405 Z3.813 E854.64096
G1 X14.159 Y25.932 Z3.819 E855.16134
G1 X13.468 Y26.202 Z3.824 E855.51022
G1 X12.373 Y26.46 Z3.83 E856.03927
G1 X11.466 Y26.551 Z3.835 E856.46795
G1 X-11.358 Y26.512 Z3.962 E867.20143
G1 X-11.974 Y26.472 Z3.966 E867.49173
G1 X-13.088 Y26.264 Z3.972 E868.02466
G1 X-13.723 Y26.063 Z3.976 E868.33789
G1 X-14.409 Y25.76 Z3.98 E868.69056
G1 X-15.351 Y25.185 Z3.986 E869.20957
G1 X-15.921 Y24.728 Z3.99 E869.55314
G1 X-16.694 Y23.907 Z3.997 E870.08344
G1 X-17.219 Y23.181 Z4.002 E870.50477
G1 X-28.647 Y3.313 Z4.13 E881.28349
