;FLAVOR:Marlin
;TIME:477
;Filament used: 8.05122m
;Layer height: 1
;MINX:-57.799
;MINY:-51.965
;MINZ:0.5
;MAXX:57.799
;MAXY:51.965
;MAXZ:81.5
;TARGET_MACHINE.NAME:Unknown
;Generated with Cura_SteamEngine 5.11.0
M140 S60
M105
M190 S60
M104 S200
M105
M109 S200
G28 ;Home
M302 S0 ;Set cold extrusion
M92 E400 ;E Steps at 400 steps/mm M92 E-400 reverse
G1 Z15.0 F6000 ;Move the platform down 15mm
;Prime the extruder
G92 E0
G1 F200 E3
G92 E0
M82 ;absolute extrusion mode
G92 E0
G92 E0
G1 F1500 E-6.5
;LAYER_COUNT:81
;LAYER:0
M107
G1 F600 Z1.5
;MESH:funnel.stl
G0 F960 X0.00 Y0.000 Z1.5
G0 X34.142 Y-44.793
;TYPE:WALL-OUTER
G1 F600 Z0.5
G1 F1500 E0
G1 F1200 X55.86 Y-7.177 E10.21305
G1 X56.316 Y-6.324 E10.44048
G1 X56.699 Y-5.48 E10.65841
G1 X57.035 Y-4.592 E10.88165
G1 X57.309 Y-3.694 E11.10241
G1 X57.526 Y-2.763 E11.32719
G1 X57.678 Y-1.845 E11.54598
G1 X57.769 Y-.921 E11.76429
G1 X57.799 Y-0.001 E11.98073
G1 X57.767 Y0.945 E12.20329
G1 X57.674 Y1.874 E12.42282
G1 X57.521 Y2.79 E12.64118
G1 X57.308 Y3.701 E12.86117
G1 X57.026 Y4.618 E13.08675
G1 X56.694 Y5.493 E13.3068
G1 X56.306 Y6.344 E13.52671
G1 X55.858 Y7.181 E13.74994
G1 X34.147 Y44.787 E23.96013
G1 X33.63 Y45.617 E24.19005
G1 X33.104 Y46.352 E24.40257
G1 X32.493 Y47.099 E24.62949
G1 X31.846 Y47.792 E24.85241
G1 X31.155 Y48.439 E25.07499
G1 X30.443 Y49.024 E25.29167
G1 X29.685 Y49.567 E25.51091
G1 X28.897 Y50.058 E25.72922
G1 X28.067 Y50.499 E25.95022
G1 X27.204 Y50.889 E26.17289
G1 X26.344 Y51.212 E26.3889
G1 X25.462 Y51.477 E26.60544
G1 X24.517 Y51.694 E26.83343
G1 X23.603 Y51.843 E27.05117
G1 X22.644 Y51.936 E27.27772
G1 X21.709 Y51.965 E27.49768
G1 X-21.724 Y51.965 E37.71016
G1 X-22.674 Y51.934 E37.93366
G1 X-23.632 Y51.839 E38.16002
G1 X-24.544 Y51.689 E38.37734
G1 X-25.463 Y51.477 E38.5991
G1 X-26.367 Y51.202 E38.82128
G1 X-27.243 Y50.873 E39.0413
G1 X-28.072 Y50.497 E39.25534
G1 X-28.905 Y50.053 E39.47729
G1 X-29.715 Y49.547 E39.70185
G1 X-30.463 Y49.009 E39.9185
G1 X-31.166 Y48.43 E40.13265
G1 X-31.858 Y47.78 E40.35588
G1 X-32.507 Y47.082 E40.57999
G1 X-33.096 Y46.362 E40.79871
G1 X-33.647 Y45.592 E41.02134
G1 X-34.157 Y44.77 E41.2488
G1 X-55.86 Y7.177 E51.45541
G1 X-56.316 Y6.324 E51.68283
G1 X-56.699 Y5.48 E51.90076
G1 X-57.035 Y4.592 E52.12401
G1 X-57.309 Y3.694 E52.34477
G1 X-57.526 Y2.763 E52.56954
G1 X-57.678 Y1.845 E52.78833
G1 X-57.769 Y0.921 E53.00664
G1 X-57.799 Y0.00 E53.22332
G1 X-57.767 Y-.945 E53.44564
G1 X-57.674 Y-1.874 E53.66517
G1 X-57.521 Y-2.79 E53.88354
G1 X-57.308 Y-3.701 E54.10352
G1 X-57.026 Y-4.618 E54.3291
G1 X-56.694 Y-5.493 E54.54915
G1 X-56.306 Y-6.344 E54.76907
G1 X-55.858 Y-7.181 E54.99229
G1 X-34.147 Y-44.787 E65.20248
G1 X-33.63 Y-45.617 E65.43241
G1 X-33.104 Y-46.352 E65.64493
G1 X-32.493 Y-47.099 E65.87184
G1 X-31.846 Y-47.792 E66.09477
G1 X-31.155 Y-48.439 E66.31735
G1 X-30.443 Y-49.024 E66.53402
G1 X-29.681 Y-49.57 E66.75444
G1 X-28.897 Y-50.058 E66.97158
G1 X-28.067 Y-50.499 E67.19257
G1 X-27.204 Y-50.889 E67.41525
G1 X-26.344 Y-51.212 E67.63126
G1 X-25.462 Y-51.477 E67.8478
G1 X-24.517 Y-51.694 E68.07578
G1 X-23.603 Y-51.843 E68.29353
G1 X-22.644 Y-51.936 E68.52008
G1 X-21.709 Y-51.965 E68.74004
G1 X21.724 Y-51.965 E78.95252
G1 X22.674 Y-51.934 E79.17602
G1 X23.632 Y-51.839 E79.40238
G1 X24.544 Y-51.689 E79.6197
G1 X25.463 Y-51.477 E79.84146
G1 X26.367 Y-51.202 E80.06364
G1 X27.243 Y-50.873 E80.28366
G1 X28.072 Y-50.497 E80.4977
G1 X28.905 Y-50.053 E80.71965
G1 X29.713 Y-49.548 E80.94369
G1 X30.463 Y-49.009 E81.16085
G1 X31.166 Y-48.43 E81.375
G1 X31.858 Y-47.78 E81.59823
G1 X32.507 Y-47.082 E81.82234
G1 X33.096 Y-46.362 E82.04106
G1 X33.648 Y-45.59 E82.26422
G1 X34.142 Y-44.793 E82.48469
G1 X55.86 Y-7.177 Z0.562 E92.69776
G1 X56.316 Y-6.324 Z0.563 E92.92519
G1 X56.699 Y-5.48 Z0.565 E93.14312
G1 X57.035 Y-4.592 Z0.566 E93.36636
G1 X57.309 Y-3.694 Z0.567 E93.58712
G1 X57.526 Y-2.763 Z0.569 E93.81189
G1 X57.678 Y-1.845 Z0.57 E94.03068
G1 X57.769 Y-.921 Z0.571 E94.249
G1 X57.799 Y-0.001 Z0.573 E94.46543
G1 X57.767 Y0.945 Z0.574 E94.688
G1 X57.674 Y1.874 Z0.575 E94.90753
G1 X57.521 Y2.79 Z0.577 E95.12589
G1 X57.308 Y3.701 Z0.578 E95.34587
G1 X57.026 Y4.618 Z0.579 E95.57146
G1 X56.694 Y5.493 Z0.581 E95.79151
G1 X56.306 Y6.344 Z0.582 E96.01142
G1 X55.858 Y7.181 Z0.583 E96.23465
G1 X34.147 Y44.787 Z0.645 E106.44485
G1 X33.63 Y45.617 Z0.647 E106.67477
G1 X33.104 Y46.352 Z0.648 E106.88729
G1 X32.493 Y47.099 Z0.649 E107.11421
G1 X31.846 Y47.792 Z0.651 E107.33713
G1 X31.155 Y48.439 Z0.652 E107.55971
G1 X30.443 Y49.024 Z0.653 E107.77639
G1 X29.685 Y49.567 Z0.655 E107.99563
G1 X28.897 Y50.058 Z0.656 E108.21394
G1 X28.067 Y50.499 Z0.657 E108.43494
G1 X27.204 Y50.889 Z0.659 E108.65762
G1 X26.344 Y51.212 Z0.66 E108.87362
G1 X25.462 Y51.477 Z0.661 E109.09017
G1 X24.517 Y51.694 Z0.663 E109.31815
G1 X23.603 Y51.843 Z0.664 E109.5359
G1 X22.644 Y51.936 Z0.665 E109.76245
G1 X21.709 Y51.965 Z0.667 E109.9824
G1 X-21.724 Y51.965 Z0.729 E120.1949
G1 X-22.674 Y51.934 Z0.73 E120.41839
G1 X-23.632 Y51.839 Z0.731 E120.64475
G1 X-24.544 Y51.689 Z0.733 E120.86208
G1 X-25.463 Y51.477 Z0.734 E121.08384
G1 X-26.367 Y51.202 Z0.735 E121.30601
G1 X-27.243 Y50.873 Z0.737 E121.52604
G1 X-28.072 Y50.497 Z0.738 E121.74007
G1 X-28.905 Y50.053 Z0.739 E121.96203
G1 X-29.715 Y49.547 Z0.741 E122.18659
G1 X-30.463 Y49.009 Z0.742 E122.40324
G1 X-31.166 Y48.43 Z0.743 E122.61738
G1 X-31.858 Y47.78 Z0.745 E122.84062
G1 X-32.507 Y47.082 Z0.746 E123.06472
G1 X-33.096 Y46.362 Z0.747 E123.28345
G1 X-33.647 Y45.592 Z0.749 E123.50608
G1 X-34.157 Y44.77 Z0.75 E123.73354
G1 X-55.86 Y7.177 Z0.812 E133.94015
G1 X-56.316 Y6.324 Z0.813 E134.16758
G1 X-56.699 Y5.48 Z0.815 E134.38551
G1 X-57.035 Y4.592 Z0.816 E134.60876
G1 X-57.309 Y3.694 Z0.817 E134.82952
G1 X-57.526 Y2.763 Z0.819 E135.05429
G1 X-57.678 Y1.845 Z0.82 E135.27308
G1 X-57.769 Y0.921 Z0.821 E135.49139
G1 X-57.799 Y0.00 Z0.823 E135.70807
G1 X-57.767 Y-.945 Z0.824 E135.93039
G1 X-57.674 Y-1.874 Z0.825 E136.14992
G1 X-57.521 Y-2.79 Z0.827 E136.36829
G1 X-57.308 Y-3.701 Z0.828 E136.58827
G1 X-57.026 Y-4.618 Z0.829 E136.81385
G1 X-56.694 Y-5.493 Z0.831 E137.0339
G1 X-56.306 Y-6.344 Z0.832 E137.25382
G1 X-55.858 Y-7.181 Z0.833 E137.47704
G1 X-34.147 Y-44.787 Z0.895 E147.68725
G1 X-33.63 Y-45.617 Z0.897 E147.91717
G1 X-33.104 Y-46.352 Z0.898 E148.12969
G1 X-32.493 Y-47.099 Z0.899 E148.3566
G1 X-31.846 Y-47.792 Z0.901 E148.57953
G1 X-31.155 Y-48.439 Z0.902 E148.80211
G1 X-30.443 Y-49.024 Z0.903 E149.01879
G1 X-29.681 Y-49.57 Z0.905 E149.2392
G1 X-28.897 Y-50.058 Z0.906 E149.45634
G1 X-28.067 Y-50.499 Z0.907 E149.67734
G1 X-27.204 Y-50.889 Z0.909 E149.90002
G1 X-26.344 Y-51.212 Z0.91 E150.11602
G1 X-25.462 Y-51.477 Z0.911 E150.33257
G1 X-24.517 Y-51.694 Z0.913 E150.56055
G1 X-23.603 Y-51.843 Z0.914 E150.7783
G1 X-22.644 Y-51.936 Z0.915 E151.00485
G1 X-21.709 Y-51.965 Z0.917 E151.2248
G1 X21.724 Y-51.965 Z0.979 E161.4373
G1 X22.674 Y-51.934 Z0.98 E161.66079
G1 X23.632 Y-51.839 Z0.981 E161.88715
G1 X24.544 Y-51.689 Z0.983 E162.10448
G1 X25.463 Y-51.477 Z0.984 E162.32624
G1 X26.367 Y-51.202 Z0.985 E162.54841
G1 X27.243 Y-50.873 Z0.987 E162.76844
G1 X28.072 Y-50.497 Z0.988 E162.98248
G1 X28.905 Y-50.053 Z0.989 E163.20443
G1 X29.713 Y-49.548 Z0.991 E163.42847
G1 X30.463 Y-49.009 Z0.992 E163.64563
G1 X31.166 Y-48.43 Z0.993 E163.85978
G1 X31.858 Y-47.78 Z0.995 E164.08301
G1 X32.507 Y-47.082 Z0.996 E164.30712
G1 X33.096 Y-46.362 Z0.997 E164.52584
G1 X33.648 Y-45.59 Z0.999 E164.749
G1 X34.142 Y-44.793 Z1 E164.96947
;TIME_ELAPSED:41.159215
;LAYER:1
M106 S255
;MESH:funnel.stl
G0 F1680 X34.142 Y-44.793 Z1.5
;TYPE:WALL-OUTER
G1 F2100 X55.803 Y-7.223 Z1.624 E185.36353
G1 X56.218 Y-6.45 Z1.626 E185.77612
G1 X56.618 Y-5.588 Z1.629 E186.22301
G1 X56.989 Y-4.624 Z1.632 E186.70876
G1 X57.256 Y-3.758 Z1.635 E187.13493
G1 X57.471 Y-2.85 Z1.637 E187.57374
G1 X57.646 Y-1.818 Z1.64 E188.06598
G1 X57.734 Y-.908 Z1.643 E188.49592
G1 X57.762 Y-0.015 Z1.645 E188.91607
G1 X57.722 Y1.038 Z1.648 E189.41162
G1 X57.626 Y1.943 Z1.651 E189.8396
G1 X57.468 Y2.854 Z1.654 E190.2744
G1 X57.256 Y3.743 Z1.656 E190.70419
G1 X56.944 Y4.733 Z1.659 E191.19233
G1 X56.615 Y5.58 Z1.662 E191.61964
G1 X56.209 Y6.448 Z1.665 E192.07027
G1 X55.765 Y7.271 Z1.667 E192.51003
G1 X34.122 Y44.706 Z1.791 E212.84488
G1 X33.627 Y45.499 Z1.794 E213.28449
G1 X33.125 Y46.209 Z1.796 E213.6934
G1 X32.466 Y47.022 Z1.799 E214.18556
G1 X31.854 Y47.68 Z1.802 E214.60814
G1 X31.173 Y48.322 Z1.804 E215.04827
G1 X30.372 Y48.982 Z1.807 E215.53635
G1 X29.638 Y49.507 Z1.81 E215.96073
G1 X28.875 Y49.98 Z1.812 E216.3829
G1 X27.941 Y50.471 Z1.815 E216.87912
G1 X27.12 Y50.838 Z1.818 E217.30203
G1 X26.246 Y51.161 Z1.821 E217.74021
G1 X25.374 Y51.419 Z1.823 E218.16785
G1 X24.371 Y51.641 Z1.826 E218.65095
G1 X23.459 Y51.783 Z1.829 E219.085
G1 X22.528 Y51.867 Z1.831 E219.52459
G1 X21.585 Y51.894 Z1.834 E219.96824
G1 X-21.65 Y51.867 Z1.958 E240.30018
G1 X-22.594 Y51.836 Z1.96 E240.74435
G1 X-23.456 Y51.753 Z1.963 E241.1516
G1 X-24.476 Y51.59 Z1.966 E241.63736
G1 X-25.361 Y51.387 Z1.968 E242.06435
G1 X-26.245 Y51.12 Z1.971 E242.49861
G1 X-27.218 Y50.757 Z1.974 E242.98699
G1 X-28.039 Y50.382 Z1.977 E243.41144
G1 X-28.829 Y49.959 Z1.979 E243.83286
G1 X-29.602 Y49.477 Z1.982 E244.26125
G1 X-30.453 Y48.864 Z1.985 E244.75446
G1 X-31.152 Y48.283 Z1.987 E245.1819
G1 X-31.814 Y47.657 Z1.99 E245.61037
G1 X-32.508 Y46.902 Z1.993 E246.09263
G1 X-33.083 Y46.189 Z1.995 E246.52338
G1 X-33.619 Y45.43 Z1.998 E246.96034
G1 X-34.134 Y44.595 Z2.001 E247.42169
G1 X-55.71 Y7.169 Z2.124 E267.73712
G1 X-56.122 Y6.398 Z2.127 E268.14821
G1 X-56.516 Y5.541 Z2.13 E268.59178
G1 X-56.881 Y4.583 Z2.132 E269.07389
G1 X-57.143 Y3.723 Z2.135 E269.49667
G1 X-57.354 Y2.823 Z2.138 E269.93138
G1 X-57.524 Y1.806 Z2.141 E270.41628
G1 X-57.611 Y0.903 Z2.143 E270.84289
G1 X-57.639 Y0.003 Z2.146 E271.26634
G1 X-57.6 Y-1.026 Z2.149 E271.75059
G1 X-57.506 Y-1.924 Z2.151 E272.1752
G1 X-57.351 Y-2.827 Z2.154 E272.60606
G1 X-57.142 Y-3.709 Z2.157 E273.03232
G1 X-56.836 Y-4.693 Z2.159 E273.51692
G1 X-56.512 Y-5.533 Z2.162 E273.94031
G1 X-56.113 Y-6.397 Z2.165 E274.38785
G1 X-55.672 Y-7.218 Z2.167 E274.82611
G1 X-34.028 Y-44.652 Z2.291 E295.16079
G1 X-33.534 Y-45.442 Z2.294 E295.59895
G1 X-33.033 Y-46.144 Z2.296 E296.00453
G1 X-32.382 Y-46.941 Z2.299 E296.48847
G1 X-31.756 Y-47.61 Z2.302 E296.91933
G1 X-31.004 Y-48.31 Z2.305 E297.40247
G1 X-30.309 Y-48.877 Z2.307 E297.82427
G1 X-29.566 Y-49.406 Z2.31 E298.25319
G1 X-28.813 Y-49.873 Z2.312 E298.66988
G1 X-27.891 Y-50.36 Z2.315 E299.16023
G1 X-27.077 Y-50.724 Z2.318 E299.57956
G1 X-26.211 Y-51.046 Z2.32 E300.01405
G1 X-25.347 Y-51.304 Z2.323 E300.43809
G1 X-24.352 Y-51.528 Z2.326 E300.91771
G1 X-23.448 Y-51.672 Z2.329 E301.34819
G1 X-22.524 Y-51.759 Z2.331 E301.78464
G1 X-21.585 Y-51.787 Z2.334 E302.22641
G1 X21.65 Y-51.759 Z2.457 E322.55836
G1 X22.59 Y-51.726 Z2.46 E323.00068
G1 X23.445 Y-51.641 Z2.463 E323.40474
G1 X24.457 Y-51.475 Z2.466 E323.88701
G1 X25.335 Y-51.271 Z2.468 E324.3109
G1 X26.21 Y-51.005 Z2.471 E324.74098
G1 X27.168 Y-50.645 Z2.474 E325.22225
G1 X27.982 Y-50.273 Z2.476 E325.64313
G1 X28.771 Y-49.85 Z2.479 E326.06413
G1 X29.537 Y-49.373 Z2.481 E326.48849
G1 X30.376 Y-48.77 Z2.484 E326.97437
G1 X31.07 Y-48.195 Z2.487 E327.3982
G1 X31.728 Y-47.577 Z2.489 E327.82272
G1 X32.419 Y-46.829 Z2.492 E328.3016
G1 X32.993 Y-46.124 Z2.495 E328.72913
G1 X33.534 Y-45.361 Z2.498 E329.16898
G1 X33.979 Y-44.645 Z2.5 E329.56543
;TIME_ELAPSED:51.302655
;LAYER:2
;TYPE:WALL-OUTER
;MESH:funnel.stl
G1 F3000 X55.813 Y-6.731 Z2.626 E350.14027
G1 X56.321 Y-5.673 Z2.629 E350.69219
G1 X56.739 Y-4.599 Z2.632 E351.23416
G1 X56.996 Y-3.764 Z2.635 E351.64501
G1 X57.205 Y-2.885 Z2.637 E352.0699
G1 X57.392 Y-1.765 Z2.641 E352.60389
G1 X57.476 Y-.883 Z2.643 E353.02054
G1 X57.502 Y-0.022 Z2.646 E353.42562
G1 X57.454 Y1.135 Z2.649 E353.97019
G1 X57.359 Y1.994 Z2.651 E354.37661
G1 X57.2 Y2.893 Z2.654 E354.80594
G1 X56.993 Y3.75 Z2.657 E355.22055
G1 X56.646 Y4.833 Z2.66 E355.75535
G1 X56.318 Y5.657 Z2.662 E356.17242
G1 X55.934 Y6.477 Z2.665 E356.59823
G1 X55.479 Y7.314 Z2.668 E357.04624
G1 X33.708 Y44.929 Z2.792 E377.4845
G1 X33.023 Y45.928 Z2.796 E378.05413
G1 X32.317 Y46.799 Z2.799 E378.58138
G1 X31.715 Y47.448 Z2.802 E378.99767
G1 X31.074 Y48.052 Z2.804 E379.41185
G1 X30.188 Y48.781 Z2.807 E379.95142
G1 X29.484 Y49.282 Z2.81 E380.35776
G1 X28.707 Y49.761 Z2.813 E380.78701
G1 X27.959 Y50.157 Z2.815 E381.18502
G1 X26.913 Y50.628 Z2.818 E381.72449
G1 X26.08 Y50.932 Z2.821 E382.14149
G1 X25.242 Y51.18 Z2.823 E382.55247
G1 X24.138 Y51.421 Z2.827 E383.08387
G1 X23.248 Y51.553 Z2.829 E383.50698
G1 X22.346 Y51.631 Z2.832 E383.93275
G1 X21.423 Y51.656 Z2.834 E384.36696
G1 X-21.564 Y51.619 Z2.958 E404.58229
G1 X-23.246 Y51.514 Z2.963 E405.37481
G1 X-24.366 Y51.336 Z2.966 E405.90812
G1 X-25.211 Y51.14 Z2.968 E406.31605
G1 X-26.074 Y50.882 Z2.971 E406.73963
G1 X-27.122 Y50.488 Z2.974 E407.26615
G1 X-27.909 Y50.127 Z2.977 E407.67333
G1 X-28.7 Y49.702 Z2.979 E408.0956
G1 X-29.443 Y49.24 Z2.982 E408.50705
G1 X-30.36 Y48.575 Z2.985 E409.03974
G1 X-31.018 Y48.025 Z2.987 E409.44304
G1 X-31.666 Y47.411 Z2.99 E409.86284
G1 X-32.423 Y46.582 Z2.993 E410.39077
G1 X-32.979 Y45.884 Z2.996 E410.81043
G1 X-33.501 Y45.139 Z2.998 E411.23822
G1 X-33.999 Y44.328 Z3.001 E411.68577
G1 X-55.693 Y6.666 Z3.126 E432.12506
G1 X-56.186 Y5.611 Z3.129 E432.67269
G1 X-56.594 Y4.544 Z3.132 E433.20989
G1 X-56.845 Y3.718 Z3.135 E433.61587
G1 X-57.049 Y2.848 Z3.137 E434.0361
G1 X-57.23 Y1.749 Z3.141 E434.55988
G1 X-57.312 Y0.878 Z3.143 E434.9713
G1 X-57.338 Y0.017 Z3.146 E435.37638
G1 X-57.291 Y-1.119 Z3.149 E435.91106
G1 X-57.199 Y-1.967 Z3.151 E436.31218
G1 X-57.043 Y-2.856 Z3.154 E436.73664
G1 X-56.842 Y-3.704 Z3.156 E437.14647
G1 X-56.503 Y-4.778 Z3.16 E437.6761
G1 X-56.183 Y-5.596 Z3.162 E438.08917
G1 X-55.806 Y-6.409 Z3.165 E438.5106
G1 X-55.355 Y-7.243 Z3.168 E438.95647
G1 X-33.588 Y-44.865 Z3.292 E459.39664
G1 X-32.905 Y-45.833 Z3.296 E459.95376
G1 X-32.198 Y-46.7 Z3.299 E460.47986
G1 X-31.59 Y-47.347 Z3.301 E460.89738
G1 X-30.964 Y-47.934 Z3.304 E461.30095
G1 X-30.099 Y-48.643 Z3.307 E461.82691
G1 X-29.381 Y-49.152 Z3.31 E462.2408
G1 X-28.643 Y-49.608 Z3.312 E462.64876
G1 X-27.875 Y-50.017 Z3.315 E463.05795
G1 X-26.856 Y-50.476 Z3.318 E463.58352
G1 X-26.034 Y-50.778 Z3.32 E463.99534
G1 X-25.207 Y-51.026 Z3.323 E464.40136
G1 X-24.114 Y-51.27 Z3.326 E464.92802
G1 X-23.234 Y-51.405 Z3.329 E465.34669
G1 X-22.342 Y-51.486 Z3.331 E465.76789
G1 X-21.423 Y-51.513 Z3.334 E466.20026
G1 X21.564 Y-51.475 Z3.457 E486.41558
G1 X23.231 Y-51.365 Z3.462 E487.20122
G1 X24.341 Y-51.184 Z3.465 E487.73011
G1 X25.175 Y-50.986 Z3.468 E488.13321
G1 X26.028 Y-50.728 Z3.47 E488.5523
G1 X27.055 Y-50.339 Z3.473 E489.06874
G1 X27.841 Y-49.977 Z3.476 E489.47569
G1 X28.614 Y-49.562 Z3.478 E489.88828
G1 X29.347 Y-49.105 Z3.481 E490.29449
G1 X30.257 Y-48.45 Z3.484 E490.82176
G1 X30.909 Y-47.908 Z3.486 E491.22048
G1 X31.551 Y-47.303 Z3.489 E491.63533
G1 X32.304 Y-46.485 Z3.492 E492.15818
G1 X32.857 Y-45.797 Z3.495 E492.57328
G1 X33.379 Y-45.062 Z3.497 E492.99723
G1 X33.876 Y-44.257 Z3.5 E493.44213
;TIME_ELAPSED:58.284096
;LAYER:3
;TYPE:WALL-OUTER
;MESH:funnel.stl
G1 X55.27 Y-7.124 Z3.624 E513.59544
G1 X55.695 Y-6.327 Z3.627 E514.0202
G1 X56.128 Y-5.344 Z3.63 E514.52533
G1 X56.672 Y-3.742 Z3.635 E515.32095
G1 X56.868 Y-2.919 Z3.637 E515.7188
G1 X57.07 Y-1.699 Z3.641 E516.30034
G1 X57.172 Y0.01 Z3.646 E517.10545
G1 X57.14 Y0.848 Z3.648 E517.49982
G1 X57.018 Y2.062 Z3.652 E518.0736
G1 X56.666 Y3.74 Z3.656 E518.87988
G1 X56.294 Y4.891 Z3.66 E519.44872
G1 X55.972 Y5.698 Z3.663 E519.85732
G1 X55.585 Y6.514 Z3.665 E520.28203
G1 X55.157 Y7.3 Z3.668 E520.70291
G1 X33.776 Y44.26 Z3.791 E540.7827
G1 X32.877 Y45.615 Z3.796 E541.5474
G1 X32.128 Y46.541 Z3.799 E542.10749
G1 X30.929 Y47.748 Z3.804 E542.90756
G1 X29.971 Y48.534 Z3.808 E543.4903
G1 X28.558 Y49.468 Z3.813 E544.28683
G1 X27.825 Y49.858 Z3.815 E544.67729
G1 X26.7 Y50.361 Z3.819 E545.25681
G1 X25.902 Y50.65 Z3.821 E545.65594
G1 X24.263 Y51.079 Z3.826 E546.45267
G1 X22.719 Y51.309 Z3.831 E547.18677
G1 X21.24 Y51.369 Z3.835 E547.88287
