;FLAVOR:Marlin
;TIME:240
;Filament used: 2.23028m
;Layer height: 1
;MINX:-30.213
;MINY:-27.096
;MINZ:0.5
;MAXX:30.213
;MAXY:27.096
;MAXZ:43.5
;TARGET_MACHINE.NAME:Unknown
;Generated with Cura_SteamEngine 5.11.0
M140 S60
M105
M190 S60
M104 S200
M105
M109 S200
G28 ;Home
M302 S0 ;Set cold extrusion
M92 E400 ;E Steps at 400 steps/mm M92 E-400 reverse
G1 Z15.0 F6000 ;Move the platform down 15mm
;Prime the extruder
G92 E0
G1 F200 E3
G92 E0
M82 ;absolute extrusion mode
G92 E0
G92 E0
G1 F1500 E-6.5
;LAYER_COUNT:43
;LAYER:0
M107
G1 F600 Z1.5
;MESH:funnelaero.stl
G0 F720 X0.00 Y0.000 Z1.5
G0 X17.501 Y-23.874
;TYPE:WALL-OUTER
G1 F600 Z0.5
G1 F1500 E0
G1 F900 X29.427 Y-3.223 E5.60726
G1 X29.673 Y-2.677 E5.74807
G1 X29.973 Y-1.793 E5.96757
G1 X30.153 Y-.891 E6.18384
G1 X30.213 Y0.026 E6.39992
G1 X30.199 Y0.444 E6.49826
G1 X30.075 Y1.361 E6.71584
G1 X29.833 Y2.253 E6.93316
G1 X29.433 Y3.213 E7.17769
G1 X17.675 Y23.576 E12.70656
G1 X17.152 Y24.361 E12.92835
G1 X16.523 Y25.082 E13.15333
G1 X16.216 Y25.369 E13.25214
G1 X15.466 Y25.942 E13.47407
G1 X15.124 Y26.156 E13.56893
G1 X14.282 Y26.569 E13.78944
G1 X13.435 Y26.855 E13.99965
G1 X12.496 Y27.039 E14.22464
G1 X11.9 Y27.096 E14.36541
G1 X-11.916 Y27.096 E19.96532
G1 X-12.533 Y27.035 E20.1111
G1 X-13.447 Y26.853 E20.33023
G1 X-13.869 Y26.724 E20.43399
G1 X-14.707 Y26.376 E20.64734
G1 X-15.507 Y25.913 E20.86468
G1 X-16.237 Y25.35 E21.08145
G1 X-16.521 Y25.084 E21.17294
G1 X-17.152 Y24.361 E21.39858
G1 X-17.685 Y23.561 E21.62461
G1 X-29.426 Y3.223 E27.14638
G1 X-29.673 Y2.677 E27.28729
G1 X-29.973 Y1.793 E27.50679
G1 X-30.153 Y0.891 E27.72306
G1 X-30.213 Y-0.026 E27.93914
G1 X-30.199 Y-.444 E28.03748
G1 X-30.075 Y-1.361 E28.25506
G1 X-29.833 Y-2.253 E28.47238
G1 X-29.433 Y-3.213 E28.71692
G1 X-17.675 Y-23.576 E34.24578
G1 X-17.152 Y-24.361 E34.46757
G1 X-16.523 Y-25.082 E34.69255
G1 X-16.216 Y-25.369 E34.79136
G1 X-15.466 Y-25.942 E35.01329
G1 X-15.124 Y-26.156 E35.10815
G1 X-14.282 Y-26.569 E35.32867
G1 X-13.435 Y-26.855 E35.53887
G1 X-12.496 Y-27.039 E35.76386
G1 X-11.9 Y-27.096 E35.90464
G1 X11.916 Y-27.096 E41.50454
G1 X12.533 Y-27.035 E41.65032
G1 X13.447 Y-26.853 E41.86945
G1 X13.869 Y-26.724 E41.97321
G1 X14.707 Y-26.376 E42.18656
G1 X15.507 Y-25.913 E42.4039
G1 X16.237 Y-25.35 E42.62067
G1 X16.521 Y-25.084 E42.71216
G1 X17.167 Y-24.344 E42.94313
G1 X17.501 Y-23.874 E43.07871
G1 X29.427 Y-3.223 Z0.565 E48.68599
G1 X29.673 Y-2.677 Z0.567 E48.8268
G1 X29.973 Y-1.793 Z0.569 E49.0463
G1 X30.153 Y-.891 Z0.572 E49.26257
G1 X30.213 Y0.026 Z0.574 E49.47865
G1 X30.199 Y0.444 Z0.575 E49.57699
G1 X30.075 Y1.361 Z0.578 E49.79457
G1 X29.833 Y2.253 Z0.58 E50.01189
G1 X29.433 Y3.213 Z0.583 E50.25643
G1 X17.675 Y23.576 Z0.647 E55.78531
G1 X17.152 Y24.361 Z0.65 E56.0071
G1 X16.523 Y25.082 Z0.653 E56.23208
G1 X16.216 Y25.369 Z0.654 E56.3309
G1 X15.466 Y25.942 Z0.656 E56.55282
G1 X15.124 Y26.156 Z0.657 E56.64769
G1 X14.282 Y26.569 Z0.66 E56.8682
G1 X13.435 Y26.855 Z0.662 E57.07841
G1 X12.496 Y27.039 Z0.665 E57.30339
G1 X11.9 Y27.096 Z0.667 E57.44417
G1 X-11.916 Y27.096 Z0.732 E63.0441
G1 X-12.533 Y27.035 Z0.733 E63.18988
G1 X-13.447 Y26.853 Z0.736 E63.40901
G1 X-13.869 Y26.724 Z0.737 E63.51277
G1 X-14.707 Y26.376 Z0.74 E63.72613
G1 X-15.507 Y25.913 Z0.742 E63.94346
G1 X-16.237 Y25.35 Z0.745 E64.16023
G1 X-16.521 Y25.084 Z0.746 E64.25172
G1 X-17.152 Y24.361 Z0.748 E64.47736
G1 X-17.685 Y23.561 Z0.751 E64.7034
G1 X-29.426 Y3.223 Z0.815 E70.22519
G1 X-29.673 Y2.677 Z0.817 E70.3661
G1 X-29.973 Y1.793 Z0.819 E70.5856
G1 X-30.153 Y0.891 Z0.822 E70.80187
G1 X-30.213 Y-0.026 Z0.824 E71.01795
G1 X-30.199 Y-.444 Z0.825 E71.11629
G1 X-30.075 Y-1.361 Z0.828 E71.33387
G1 X-29.833 Y-2.253 Z0.83 E71.55119
G1 X-29.433 Y-3.213 Z0.833 E71.79573
G1 X-17.675 Y-23.576 Z0.897 E77.32461
G1 X-17.152 Y-24.361 Z0.9 E77.54641
G1 X-16.523 Y-25.082 Z0.903 E77.77138
G1 X-16.216 Y-25.369 Z0.904 E77.8702
G1 X-15.466 Y-25.942 Z0.906 E78.09213
G1 X-15.124 Y-26.156 Z0.907 E78.18699
G1 X-14.282 Y-26.569 Z0.91 E78.4075
G1 X-13.435 Y-26.855 Z0.912 E78.61771
G1 X-12.496 Y-27.039 Z0.915 E78.8427
G1 X-11.9 Y-27.096 Z0.917 E78.98348
G1 X11.916 Y-27.096 Z0.982 E84.5834
G1 X12.533 Y-27.035 Z0.983 E84.72918
G1 X13.447 Y-26.853 Z0.986 E84.94831
G1 X13.869 Y-26.724 Z0.987 E85.05207
G1 X14.707 Y-26.376 Z0.99 E85.26543
G1 X15.507 Y-25.913 Z0.992 E85.48277
G1 X16.237 Y-25.35 Z0.995 E85.69953
G1 X16.521 Y-25.084 Z0.996 E85.79103
G1 X17.167 Y-24.344 Z0.998 E86.022
G1 X17.501 Y-23.874 Z1 E86.15757
;TIME_ELAPSED:29.798416
;LAYER:1
M106 S255
;MESH:funnelaero.stl
G0 F1560 X17.501 Y-23.874 Z1.5
;TYPE:WALL-OUTER
G1 F1950 X29.198 Y-3.563 Z1.628 E97.17995
G1 X29.603 Y-2.76 Z1.633 E97.60289
G1 X29.776 Y-2.281 Z1.636 E97.84239
G1 X30.021 Y-1.391 Z1.641 E98.2765
G1 X30.113 Y-.911 Z1.644 E98.50634
G1 X30.174 Y0.002 Z1.649 E98.93666
G1 X30.15 Y0.534 Z1.652 E99.18709
G1 X30.022 Y1.415 Z1.657 E99.60575
G1 X29.742 Y2.376 Z1.662 E100.07647
G1 X29.317 Y3.342 Z1.668 E100.57278
G1 X17.514 Y23.71 Z1.797 E111.6433
G1 X16.815 Y24.647 Z1.803 E112.19305
G1 X16.208 Y25.275 Z1.808 E112.60379
G1 X15.803 Y25.594 Z1.811 E112.84623
G1 X15.038 Y26.112 Z1.816 E113.28071
G1 X14.605 Y26.328 Z1.819 E113.50827
G1 X13.777 Y26.662 Z1.824 E113.92814
G1 X12.825 Y26.901 Z1.829 E114.38973
G1 X11.775 Y27.024 Z1.835 E114.88689
G1 X-11.51 Y26.997 Z1.962 E125.83715
G1 X-12.403 Y26.942 Z1.967 E126.2579
G1 X-12.896 Y26.858 Z1.97 E126.49309
G1 X-13.786 Y26.63 Z1.975 E126.92514
G1 X-14.251 Y26.447 Z1.978 E127.16015
G1 X-15.039 Y26.055 Z1.983 E127.57404
G1 X-15.846 Y25.51 Z1.988 E128.03199
G1 X-16.499 Y24.934 Z1.993 E128.44147
G1 X-17.151 Y24.167 Z1.998 E128.91488
G1 X-17.47 Y23.703 Z2.001 E129.17968
G1 X-29.105 Y3.509 Z2.129 E140.13982
G1 X-29.5 Y2.713 Z2.134 E140.55772
G1 X-29.673 Y2.246 Z2.137 E140.79192
G1 X-29.91 Y1.368 Z2.142 E141.21959
G1 X-29.994 Y0.887 Z2.144 E141.44922
G1 X-30.051 Y-0.01 Z2.149 E141.8719
G1 X-30.03 Y-.518 Z2.152 E142.111
G1 X-29.906 Y-1.384 Z2.157 E142.52241
G1 X-29.637 Y-2.332 Z2.162 E142.98583
G1 X-29.223 Y-3.289 Z2.168 E143.47619
G1 X-17.429 Y-23.655 Z2.297 E154.54377
G1 X-16.739 Y-24.566 Z2.303 E155.08121
G1 X-16.043 Y-25.254 Z2.309 E155.54144
G1 X-15.381 Y-25.756 Z2.313 E155.93214
G1 X-14.532 Y-26.233 Z2.319 E156.39011
G1 X-13.739 Y-26.553 Z2.323 E156.79225
G1 X-12.8 Y-26.794 Z2.329 E157.24815
G1 X-11.775 Y-26.916 Z2.334 E157.73358
G1 X11.51 Y-26.889 Z2.462 E168.68384
G1 X12.392 Y-26.83 Z2.467 E169.09955
G1 X12.875 Y-26.75 Z2.469 E169.32978
G1 X13.751 Y-26.514 Z2.474 E169.75643
G1 X14.207 Y-26.341 Z2.477 E169.98579
G1 X14.981 Y-25.955 Z2.482 E170.39253
G1 X15.776 Y-25.418 Z2.487 E170.8437
G1 X16.41 Y-24.856 Z2.492 E171.24212
G1 X17.063 Y-24.106 Z2.497 E171.70978
G1 X17.373 Y-23.667 Z2.5 E171.96251
;TIME_ELAPSED:35.555190
;LAYER:2
;note -- min layer time used
;TYPE:WALL-OUTER
;MESH:funnelaero.stl
G1 F2169.6 X28.88 Y-3.666 Z2.628 E182.81397
G1 X29.404 Y-2.616 Z2.634 E183.36583
G1 X29.649 Y-1.862 Z2.639 E183.73866
G1 X29.867 Y-.799 Z2.645 E184.24897
G1 X29.912 Y-0.03 Z2.649 E184.61122
G1 X29.823 Y1.043 Z2.655 E185.11756
G1 X29.641 Y1.854 Z2.659 E185.50843
G1 X29.454 Y2.442 Z2.663 E185.7986
G1 X29.044 Y3.361 Z2.668 E186.27184
G1 X17.498 Y23.284 Z2.796 E197.1007
G1 X16.925 Y24.107 Z2.801 E197.5723
G1 X16.405 Y24.709 Z2.806 E197.9464
G1 X15.597 Y25.419 Z2.812 E198.45223
G1 X14.932 Y25.859 Z2.816 E198.82722
G1 X14.382 Y26.138 Z2.819 E199.11724
G1 X13.598 Y26.444 Z2.824 E199.51303
G1 X12.817 Y26.646 Z2.828 E199.89239
G1 X12.199 Y26.733 Z2.832 E200.18589
G1 X11.419 Y26.784 Z2.836 E200.55348
G1 X-11.406 Y26.748 Z2.963 E211.28743
G1 X-12.414 Y26.674 Z2.968 E211.76274
G1 X-13.193 Y26.509 Z2.973 E212.13721
G1 X-14.192 Y26.168 Z2.978 E212.63363
G1 X-14.914 Y25.804 Z2.983 E213.01387
G1 X-15.403 Y25.483 Z2.986 E213.28896
G1 X-16.049 Y24.971 Z2.991 E213.6766
G1 X-16.773 Y24.213 Z2.996 E214.16954
G1 X-17.342 Y23.438 Z3.002 E214.62168
G1 X-28.757 Y3.595 Z3.128 E225.38716
G1 X-29.261 Y2.562 Z3.135 E225.92769
G1 X-29.502 Y1.823 Z3.139 E226.29323
G1 X-29.704 Y0.788 Z3.145 E226.78915
G1 X-29.749 Y0.019 Z3.149 E227.1514
G1 X-29.668 Y-1.022 Z3.155 E227.64243
G1 X-29.498 Y-1.815 Z3.159 E228.02383
G1 X-29.317 Y-2.384 Z3.163 E228.30463
G1 X-28.92 Y-3.29 Z3.168 E228.7698
G1 X-17.374 Y-23.212 Z3.295 E239.59826
G1 X-16.811 Y-24.021 Z3.301 E240.06177
G1 X-16.281 Y-24.618 Z3.305 E240.4372
G1 X-15.853 Y-25.011 Z3.309 E240.71045
G1 X-15.191 Y-25.505 Z3.313 E241.0989
G1 X-14.298 Y-25.998 Z3.319 E241.5786
G1 X-13.564 Y-26.288 Z3.323 E241.94974
G1 X-12.772 Y-26.498 Z3.328 E242.33507
G1 X-12.182 Y-26.591 Z3.331 E242.61595
G1 X-11.418 Y-26.641 Z3.335 E242.97601
G1 X11.407 Y-26.605 Z3.461 E253.70996
G1 X12.389 Y-26.522 Z3.467 E254.17341
G1 X13.153 Y-26.362 Z3.471 E254.54049
G1 X14.119 Y-26.022 Z3.477 E255.02209
G1 X14.823 Y-25.668 Z3.481 E255.39266
G1 X15.316 Y-25.353 Z3.484 E255.66779
G1 X15.946 Y-24.855 Z3.489 E256.04545
G1 X16.655 Y-24.121 Z3.495 E256.52536
G1 X17.24 Y-23.33 Z3.5 E256.98803
;TIME_ELAPSED:40.564244
;LAYER:3
;note -- min layer time used
;TYPE:WALL-OUTER
;MESH:funnelaero.stl
G1 F2145.2 X28.67 Y-3.449 Z3.628 E267.77252
G1 X28.945 Y-2.877 Z3.632 E268.07098
G1 X29.214 Y-2.213 Z3.636 E268.4079
G1 X29.418 Y-1.448 Z3.64 E268.78022
G1 X29.536 Y-.804 Z3.644 E269.08812
G1 X29.583 Y-0.032 Z3.648 E269.45184
G1 X29.488 Y1.115 Z3.655 E269.99309
G1 X29.334 Y1.831 Z3.659 E270.33751
G1 X28.943 Y2.878 Z3.665 E270.86309
G1 X28.554 Y3.639 Z3.67 E271.26502
G1 X17.301 Y23.052 Z3.795 E281.81728
G1 X16.733 Y23.873 Z3.801 E282.28677
G1 X16.226 Y24.446 Z3.805 E282.64657
G1 X15.716 Y24.898 Z3.809 E282.96705
G1 X15.101 Y25.358 Z3.813 E283.32822
G1 X14.123 Y25.895 Z3.82 E283.85292
G1 X13.419 Y26.164 Z3.824 E284.20733
G1 X12.76 Y26.34 Z3.828 E284.52811
G1 X11.985 Y26.457 Z3.832 E284.89669
G1 X11.109 Y26.498 Z3.837 E285.3091
G1 X-11.307 Y26.461 Z3.962 E295.85072
G1 X-12.313 Y26.376 Z3.968 E296.3255
G1 X-13.036 Y26.226 Z3.972 E296.67274
G1 X-13.695 Y26.008 Z3.976 E296.99917
G1 X-14.385 Y25.71 Z3.98 E297.35262
G1 X-15.332 Y25.135 Z3.986 E297.87364
G1 X-15.916 Y24.66 Z3.991 E298.22765
G1 X-16.389 Y24.181 Z3.994 E298.54422
G1 X-16.875 Y23.585 Z3.999 E298.90588
G1 X-17.351 Y22.851 Z4.004 E299.31729
G1 X-28.543 Y3.388 Z4.129 E309.87558
G1 X-28.819 Y2.816 Z4.133 E310.17425
G1 X-29.071 Y2.166 Z4.137 E310.5021
G1 X-29.268 Y1.42 Z4.141 E310.86494
G1 X-29.377 Y0.774 Z4.145 E311.17303
G1 X-29.42 Y0.022 Z4.149 E311.52726
G1 X-29.331 Y-1.083 Z4.155 E312.04859
G1 X-29.182 Y-1.783 Z4.159 E312.38515
G1 X-28.81 Y-2.821 Z4.165 E312.90369
G1 X-28.43 Y-3.568 Z4.17 E313.29783
G1 X-17.177 Y-22.98 Z4.295 E323.84969
G1 X-16.608 Y-23.787 Z4.301 E324.31405
G1 X-16.11 Y-24.34 Z4.305 E324.66402
G1 X-15.625 Y-24.777 Z4.309 E324.97103
G1 X-14.677 Y-25.429 Z4.315 E325.51211
G1 X-13.716 Y-25.889 Z4.321 E326.01314
G1 X-13.015 Y-26.117 Z4.325 E326.3598
G1 X-12.355 Y-26.259 Z4.329 E326.67728
G1 X-11.437 Y-26.357 Z4.334 E327.11145
G1 X11.308 Y-26.318 Z4.461 E337.80778
G1 X12.301 Y-26.225 Z4.467 E338.2768
G1 X13.004 Y-26.072 Z4.471 E338.61514
G1 X13.645 Y-25.863 Z4.475 E338.93221
G1 X14.314 Y-25.567 Z4.479 E339.27624
G1 X15.233 Y-25.009 Z4.485 E339.78185
G1 X15.804 Y-24.55 Z4.489 E340.12637
G1 X16.283 Y-24.077 Z4.493 E340.44295
G1 X17.077 Y-23.042 Z4.5 E341.05641
;TIME_ELAPSED:45.572645
;LAYER:4
;note -- min layer time used
;TYPE:WALL-OUTER
;MESH:funnelaero.stl
G1 F2115.4 X19.989 Y-17.97 Z4.533 E343.80679
G1 X28.364 Y-3.383 Z4.629 E351.71688
G1 X28.756 Y-2.547 Z4.634 E352.1511
G1 X28.969 Y-1.927 Z4.638 E352.4594
G1 X29.131 Y-1.256 Z4.641 E352.78401
G1 X29.218 Y-.625 Z4.645 E353.08356
G1 X29.242 Y0.121 Z4.649 E353.43456
G1 X29.117 Y1.295 Z4.656 E353.98978
G1 X28.762 Y2.482 Z4.663 E354.57243
G1 X28.379 Y3.314 Z4.668 E355.00316
G1 X25.5 Y8.295 Z4.701 E357.70871
G1 X19.064 Y19.38 Z4.774 E363.73662
G1 X16.882 Y23.098 Z4.798 E365.76396
G1 X16.53 Y23.597 Z4.802 E366.05113
G1 X16.055 Y24.145 Z4.806 E366.39218
G1 X15.487 Y24.666 Z4.81 E366.75464
G1 X14.897 Y25.093 Z4.814 E367.09714
G1 X14.274 Y25.438 Z4.818 E367.43205
G1 X13.594 Y25.744 Z4.822 E367.78272
G1 X12.887 Y25.965 Z4.827 E368.13107
G1 X12.19 Y26.099 Z4.831 E368.46485
G1 X11.241 Y26.168 Z4.836 E368.91231
G1 X4.201 Y26.163 Z4.876 E372.22302
G1 X-11.233 Y26.121 Z4.964 E379.48122
G1 X-12.149 Y26.054 Z4.969 E379.91314
G1 X-12.765 Y25.939 Z4.972 E380.20783
G1 X-13.432 Y25.746 Z4.976 E380.53437
G1 X-13.965 Y25.531 Z4.979 E380.80465
G1 X-14.652 Y25.164 Z4.984 E381.17094
G1 X-15.292 Y24.736 Z4.988 E381.53301
G1 X-15.915 Y24.186 Z4.993 E381.92382
G1 X-16.442 Y23.59 Z4.997 E382.29796
G1 X-16.819 Y23.057 Z5.001 E382.60498
G1 X-19.819 Y17.872 Z5.035 E385.42207
G1 X-28.189 Y3.282 Z5.131 E393.33221
G1 X-28.58 Y2.481 Z5.136 E393.75138
G1 X-28.794 Y1.881 Z5.139 E394.05095
G1 X-28.955 Y1.227 Z5.143 E394.36769
G1 X-29.041 Y0.615 Z5.147 E394.65833
G1 X-29.066 Y-.108 Z5.151 E394.99854
G1 X-28.945 Y-1.259 Z5.157 E395.5428
G1 X-28.591 Y-2.423 Z5.164 E396.11495
G1 X-28.202 Y-3.225 Z5.169 E396.53414
G1 X-25.331 Y-8.197 Z5.202 E399.23414
G1 X-18.893 Y-19.282 Z5.274 E405.26252
G1 X-16.727 Y-22.99 Z5.299 E407.282
G1 X-16.398 Y-23.462 Z5.302 E407.55257
G1 X-15.989 Y-23.945 Z5.306 E407.85021
G1 X-15.499 Y-24.42 Z5.31 E408.17114
G1 X-15.058 Y-24.763 Z5.313 E408.43387
G1 X-14.414 Y-25.173 Z5.317 E408.79289
G1 X-13.706 Y-25.511 Z5.322 E409.16184
G1 X-12.965 Y-25.759 Z5.326 E409.52931
G1 X-12.168 Y-25.915 Z5.331 E409.91123
G1 X-11.552 Y-25.968 Z5.334 E410.20199
G1 X-4.201 Y-25.968 Z5.376 E413.65896
G1 X11.233 Y-25.92 Z5.463 E420.91716
G1 X12.132 Y-25.868 Z5.468 E421.34064
G1 X12.727 Y-25.761 Z5.472 E421.62494
G1 X13.378 Y-25.576 Z5.476 E421.94321
G1 X13.894 Y-25.371 Z5.479 E422.20432
G1 X14.564 Y-25.019 Z5.483 E422.56024
G1 X15.182 Y-24.597 Z5.487 E422.91216
G1 X15.788 Y-24.057 Z5.492 E423.29387
G1 X16.299 Y-23.472 Z5.496 E423.65916
G1 X16.66 Y-22.952 Z5.5 E423.95685
;TIME_ELAPSED:50.580924
;LAYER:5
;note -- min layer time used
;TYPE:WALL-OUTER
;MESH:funnelaero.stl
G1 F2071 X18.941 Y-18.982 Z5.527 E426.11005
G1 X21.469 Y-14.563 Z5.556 E428.50421
G1 X23.168 Y-11.585 Z5.576 E430.11657
G1 X25.547 Y-7.414 Z5.604 E432.3747
G1 X28.218 Y-2.667 Z5.635 E434.9362
G1 X28.518 Y-1.947 Z5.64 E435.30302
G1 X28.737 Y-1.095 Z5.645 E435.71671
G1 X28.819 Y-.347 Z5.649 E436.07058
G1 X28.769 Y0.729 Z5.655 E436.57714
G1 X28.621 Y1.514 Z5.66 E436.95281
G1 X28.164 Y2.729 Z5.668 E437.56327
G1 X24.398 Y9.273 Z5.711 E441.11395
G1 X22.672 Y12.235 Z5.731 E442.72614
G1 X19.785 Y17.177 Z5.764 E445.41772
G1 X16.504 Y22.756 Z5.802 E448.46145
G1 X15.971 Y23.5 Z5.807 E448.89185
G1 X15.548 Y23.961 Z5.811 E449.18608
G1 X14.702 Y24.652 Z5.817 E449.69977
G1 X13.979 Y25.061 Z5.822 E450.09041
G1 X13.044 Y25.415 Z5.828 E450.56058
G1 X12.218 Y25.588 Z5.833 E450.95745
G1 X11.725 Y25.629 Z5.836 E451.1901
G1 X5.565 Y25.646 Z5.871 E454.08698
G1 X-.41 Y25.626 Z5.906 E456.89687
G1 X-4.986 Y25.599 Z5.932 E459.04887
G1 X-11.483 Y25.537 Z5.97 E462.10437
G1 X-12.299 Y25.465 Z5.975 E462.4896
G1 X-13.347 Y25.202 Z5.981 E462.99773
G1 X-14.016 Y24.912 Z5.985 E463.34062
G1 X-14.892 Y24.362 Z5.991 E463.82705
G1 X-15.715 Y23.583 Z5.998 E464.35997
G1 X-16.236 Y22.899 Z6.003 E464.76432
G1 X-18.624 Y18.79 Z6.03 E466.99929
G1 X-21.158 Y14.384 Z6.06 E469.38955
G1 X-22.863 Y11.401 Z6.08 E471.00535
G1 X-25.231 Y7.231 Z6.107 E473.26051
G1 X-27.882 Y2.508 Z6.139 E475.80757
G1 X-28.169 Y1.815 Z6.143 E476.16031
G1 X-28.375 Y1.043 Z6.148 E476.53607
G1 X-28.462 Y0.329 Z6.152 E476.87432
G1 X-28.42 Y-.693 Z6.158 E477.35535
G1 X-28.277 Y-1.409 Z6.162 E477.69871
G1 X-27.829 Y-2.562 Z6.169 E478.28043
G1 X-24.083 Y-9.091 Z6.213 E481.82031
G1 X-22.362 Y-12.055 Z6.233 E483.43212
G1 X-19.47 Y-16.996 Z6.266 E486.12449
G1 X-16.169 Y-22.569 Z6.304 E489.17056
G1 X-15.707 Y-23.229 Z6.308 E489.54943
G1 X-15.005 Y-23.964 Z6.314 E490.0274
G1 X-14.451 Y-24.384 Z6.318 E490.35434
G1 X-13.818 Y-24.742 Z6.322 E490.69633
G1 X-12.917 Y-25.071 Z6.328 E491.14741
G1 X-12.169 Y-25.215 Z6.332 E491.50564
G1 X-11.456 Y-25.262 Z6.336 E491.84167
G1 X-5.565 Y-25.28 Z6.371 E494.61205
G1 X0.408 Y-25.269 Z6.405 E497.42099
G1 X7.721 Y-25.209 Z6.448 E500.86021
G1 X11.448 Y-25.159 Z6.469 E502.61306
