;FLAVOR:Marlin
;TIME:311
;Filament used: 3.64109m
;Layer height: 1
;MINX:-38.597
;MINY:-34.655
;MINZ:0.5
;MAXX:38.597
;MAXY:34.655
;MAXZ:55.5
;TARGET_MACHINE.NAME:Unknown
;Generated with Cura_SteamEngine 5.11.0
M140 S60
M105
M190 S60
M104 S200
M105
M109 S200
G28 ;Home
M302 S0 ;Set cold extrusion
M92 E400 ;E Steps at 400 steps/mm M92 E-400 reverse
G1 Z15.0 F6000 ;Move the platform down 15mm
;Prime the extruder
G92 E0
G1 F200 E3
G92 E0
M82 ;absolute extrusion mode
G92 E0
G92 E0
G1 F1500 E-6.5
;LAYER_COUNT:55
;LAYER:0
M107
G1 F600 Z1.5
;MESH:funnelaero.stl
G0 F720 X0.00 Y0.000 Z1.5
G0 X22.46 Y-30.403
;TYPE:WALL-OUTER
G1 F600 Z0.5
G1 F1500 E0
G1 F900 X37.343 Y-4.63 E6.9979
G1 X37.886 Y-3.528 E7.28676
G1 X38.28 Y-2.376 E7.57304
G1 X38.518 Y-1.182 E7.85931
G1 X38.597 Y0.026 E8.14395
G1 X38.578 Y0.591 E8.27688
G1 X38.413 Y1.825 E8.56961
G1 X38.292 Y2.34 E8.694
G1 X37.879 Y3.544 E8.99329
G1 X37.331 Y4.65 E9.28352
G1 X22.687 Y30.013 E16.16983
G1 X21.997 Y31.047 E16.46212
G1 X21.175 Y31.988 E16.75591
G1 X20.762 Y32.375 E16.88899
G1 X19.779 Y33.129 E17.18029
G1 X19.319 Y33.415 E17.30765
G1 X18.213 Y33.959 E17.59746
G1 X17.091 Y34.337 E17.87585
G1 X15.887 Y34.574 E18.16438
G1 X14.636 Y34.655 E18.45915
G1 X-14.65 Y34.655 E25.34522
G1 X-15.922 Y34.57 E25.64498
G1 X-17.105 Y34.335 E25.92857
G1 X-17.656 Y34.168 E26.06395
G1 X-18.774 Y33.704 E26.34857
G1 X-19.824 Y33.096 E26.63386
G1 X-20.778 Y32.361 E26.91703
G1 X-21.178 Y31.985 E27.04611
G1 X-22 Y31.044 E27.3399
G1 X-22.693 Y30.005 E27.63356
G1 X-37.343 Y4.63 E34.52302
G1 X-37.886 Y3.528 E34.81188
G1 X-38.28 Y2.376 E35.09816
G1 X-38.518 Y1.182 E35.38443
G1 X-38.597 Y-0.026 E35.66908
G1 X-38.578 Y-.591 E35.802
G1 X-38.413 Y-1.825 E36.09474
G1 X-38.292 Y-2.34 E36.21913
G1 X-37.879 Y-3.544 E36.51842
G1 X-37.331 Y-4.65 E36.80865
G1 X-22.687 Y-30.013 E43.69496
G1 X-21.997 Y-31.047 E43.98724
G1 X-21.175 Y-31.988 E44.28103
G1 X-20.762 Y-32.375 E44.41411
G1 X-19.779 Y-33.129 E44.70541
G1 X-19.319 Y-33.415 E44.83277
G1 X-18.213 Y-33.959 E45.12259
G1 X-17.091 Y-34.337 E45.40097
G1 X-15.887 Y-34.574 E45.6895
G1 X-14.636 Y-34.655 E45.98427
G1 X14.65 Y-34.655 E52.87035
G1 X15.922 Y-34.57 E53.1701
G1 X17.105 Y-34.335 E53.4537
G1 X17.656 Y-34.168 E53.58907
G1 X18.774 Y-33.704 E53.87369
G1 X19.824 Y-33.096 E54.15898
G1 X20.778 Y-32.361 E54.44215
G1 X21.178 Y-31.985 E54.57124
G1 X22.017 Y-31.025 E54.87102
G1 X22.46 Y-30.403 E55.05057
G1 X37.343 Y-4.63 Z0.564 E62.04849
G1 X37.886 Y-3.528 Z0.566 E62.33735
G1 X38.28 Y-2.376 Z0.569 E62.62363
G1 X38.518 Y-1.182 Z0.571 E62.9099
G1 X38.597 Y0.026 Z0.574 E63.19455
G1 X38.578 Y0.591 Z0.575 E63.32747
G1 X38.413 Y1.825 Z0.578 E63.62021
G1 X38.292 Y2.34 Z0.579 E63.7446
G1 X37.879 Y3.544 Z0.582 E64.04389
G1 X37.331 Y4.65 Z0.584 E64.33412
G1 X22.687 Y30.013 Z0.647 E71.22044
G1 X21.997 Y31.047 Z0.65 E71.51273
G1 X21.175 Y31.988 Z0.652 E71.80652
G1 X20.762 Y32.375 Z0.653 E71.9396
G1 X19.779 Y33.129 Z0.656 E72.2309
G1 X19.319 Y33.415 Z0.657 E72.35827
G1 X18.213 Y33.959 Z0.66 E72.64808
G1 X17.091 Y34.337 Z0.662 E72.92647
G1 X15.887 Y34.574 Z0.665 E73.215
G1 X14.636 Y34.655 Z0.668 E73.50976
G1 X-14.65 Y34.655 Z0.73 E80.39585
G1 X-15.922 Y34.57 Z0.733 E80.69561
G1 X-17.105 Y34.335 Z0.735 E80.97921
G1 X-17.656 Y34.168 Z0.737 E81.11459
G1 X-18.774 Y33.704 Z0.739 E81.3992
G1 X-19.824 Y33.096 Z0.742 E81.6845
G1 X-20.778 Y32.361 Z0.744 E81.96767
G1 X-21.178 Y31.985 Z0.746 E82.09675
G1 X-22 Y31.044 Z0.748 E82.39054
G1 X-22.693 Y30.005 Z0.751 E82.6842
G1 X-37.343 Y4.63 Z0.814 E89.57367
G1 X-37.886 Y3.528 Z0.816 E89.86254
G1 X-38.28 Y2.376 Z0.819 E90.14881
G1 X-38.518 Y1.182 Z0.821 E90.43509
G1 X-38.597 Y-0.026 Z0.824 E90.71973
G1 X-38.578 Y-.591 Z0.825 E90.85266
G1 X-38.413 Y-1.825 Z0.828 E91.14539
G1 X-38.292 Y-2.34 Z0.829 E91.26978
G1 X-37.879 Y-3.544 Z0.832 E91.56908
G1 X-37.331 Y-4.65 Z0.834 E91.8593
G1 X-22.687 Y-30.013 Z0.897 E98.74563
G1 X-21.997 Y-31.047 Z0.9 E99.03792
G1 X-21.175 Y-31.988 Z0.902 E99.33171
G1 X-20.762 Y-32.375 Z0.903 E99.46479
G1 X-19.779 Y-33.129 Z0.906 E99.75609
G1 X-19.319 Y-33.415 Z0.907 E99.88345
G1 X-18.213 Y-33.959 Z0.91 E100.17326
G1 X-17.091 Y-34.337 Z0.912 E100.45165
G1 X-15.887 Y-34.574 Z0.915 E100.74018
G1 X-14.636 Y-34.655 Z0.918 E101.03495
G1 X14.65 Y-34.655 Z0.98 E107.92104
G1 X15.922 Y-34.57 Z0.983 E108.2208
G1 X17.105 Y-34.335 Z0.985 E108.50439
G1 X17.656 Y-34.168 Z0.987 E108.63977
G1 X18.774 Y-33.704 Z0.989 E108.92439
G1 X19.824 Y-33.096 Z0.992 E109.20968
G1 X20.778 Y-32.361 Z0.994 E109.49285
G1 X21.178 Y-31.985 Z0.996 E109.62194
G1 X22.017 Y-31.025 Z0.998 E109.92172
G1 X22.46 Y-30.403 Z1 E110.10128
;TIME_ELAPSED:37.270295
;LAYER:1
M106 S255
;MESH:funnelaero.stl
G0 F1560 X22.46 Y-30.403 Z1.5
;TYPE:WALL-OUTER
G1 F1950 X37.281 Y-4.681 Z1.627 E124.06185
G1 X37.807 Y-3.621 Z1.632 E124.61834
G1 X38.037 Y-2.997 Z1.635 E124.93108
G1 X38.358 Y-1.824 Z1.64 E125.50299
G1 X38.479 Y-1.2 Z1.643 E125.8019
G1 X38.557 Y-0.021 Z1.648 E126.35756
G1 X38.451 Y1.276 Z1.654 E126.96953
G1 X38.225 Y2.421 Z1.659 E127.51838
G1 X37.781 Y3.662 Z1.664 E128.13821
G1 X37.447 Y4.345 Z1.668 E128.49575
G1 X22.458 Y30.253 Z1.796 E142.57158
G1 X22.035 Y30.874 Z1.799 E142.92493
G1 X21.176 Y31.878 Z1.805 E143.54631
G1 X20.687 Y32.339 Z1.808 E143.86235
G1 X19.766 Y33.042 Z1.813 E144.40722
G1 X18.646 Y33.665 Z1.818 E145.00992
G1 X17.538 Y34.111 Z1.823 E145.57161
G1 X17.032 Y34.271 Z1.825 E145.82118
G1 X15.743 Y34.511 Z1.831 E146.43777
G1 X14.584 Y34.583 Z1.836 E146.98386
G1 X-14.583 Y34.556 Z1.961 E160.70018
G1 X-15.739 Y34.48 Z1.966 E161.24499
G1 X-17.013 Y34.24 Z1.972 E161.85465
G1 X-17.647 Y34.047 Z1.974 E162.16631
G1 X-18.734 Y33.592 Z1.979 E162.72046
G1 X-19.747 Y33.004 Z1.984 E163.27128
G1 X-20.26 Y32.622 Z1.987 E163.57207
G1 X-21.152 Y31.839 Z1.992 E164.13023
G1 X-22.001 Y30.849 Z1.998 E164.74355
G1 X-22.429 Y30.226 Z2.001 E165.099
G1 X-37.188 Y4.627 Z2.128 E178.99491
G1 X-37.708 Y3.572 Z2.133 E179.54803
G1 X-37.936 Y2.962 Z2.136 E179.85428
G1 X-38.25 Y1.802 Z2.141 E180.41943
G1 X-38.36 Y1.176 Z2.143 E180.71832
G1 X-38.434 Y0.013 Z2.148 E181.26635
G1 X-38.339 Y-1.261 Z2.154 E181.86714
G1 X-38.113 Y-2.383 Z2.159 E182.40537
G1 X-37.683 Y-3.614 Z2.164 E183.01858
G1 X-37.359 Y-4.302 Z2.168 E183.3762
G1 X-22.377 Y-30.2 Z2.296 E197.44632
G1 X-21.944 Y-30.814 Z2.299 E197.79964
G1 X-21.088 Y-31.802 Z2.305 E198.41439
G1 X-20.613 Y-32.244 Z2.307 E198.71952
G1 X-19.693 Y-32.942 Z2.312 E199.26259
G1 X-18.591 Y-33.564 Z2.318 E199.85768
G1 X-17.503 Y-34.006 Z2.323 E200.40994
G1 X-17.009 Y-34.156 Z2.325 E200.65273
G1 X-15.736 Y-34.401 Z2.331 E201.26237
G1 X-14.584 Y-34.475 Z2.336 E201.80523
G1 X14.583 Y-34.449 Z2.461 E215.52155
G1 X15.732 Y-34.372 Z2.465 E216.0631
G1 X16.99 Y-34.125 Z2.471 E216.666
G1 X17.6 Y-33.935 Z2.474 E216.96645
G1 X18.673 Y-33.486 Z2.479 E217.51345
G1 X19.686 Y-32.898 Z2.484 E218.06427
G1 X20.192 Y-32.532 Z2.486 E218.35794
G1 X21.065 Y-31.761 Z2.491 E218.90568
G1 X21.909 Y-30.79 Z2.497 E219.51069
G1 X22.335 Y-30.19 Z2.5 E219.85674
;TIME_ELAPSED:44.594153
;LAYER:2
;note -- min layer time used
;TYPE:WALL-OUTER
;MESH:funnelaero.stl
G1 F2780.7 X37.037 Y-4.655 Z2.627 E233.71319
G1 X37.614 Y-3.478 Z2.633 E234.32963
G1 X37.956 Y-2.428 Z2.638 E234.84894
G1 X38.232 Y-1.092 Z2.643 E235.49048
G1 X38.297 Y-0.026 Z2.648 E235.99272
G1 X38.191 Y1.354 Z2.654 E236.6436
G1 X37.953 Y2.452 Z2.659 E237.17195
G1 X37.719 Y3.143 Z2.662 E237.51503
G1 X37.186 Y4.377 Z2.668 E238.14716
G1 X22.505 Y29.732 Z2.794 E251.92536
G1 X21.918 Y30.621 Z2.799 E252.42634
G1 X21.428 Y31.209 Z2.802 E252.78629
G1 X20.642 Y32.019 Z2.807 E253.31707
G1 X20.054 Y32.489 Z2.81 E253.67107
G1 X19.122 Y33.103 Z2.815 E254.19592
G1 X17.917 Y33.687 Z2.821 E254.82564
G1 X16.863 Y34.039 Z2.826 E255.34821
G1 X15.533 Y34.279 Z2.832 E255.98377
G1 X14.492 Y34.343 Z2.836 E256.47424
G1 X-14.49 Y34.307 Z2.961 E270.10357
G1 X-15.554 Y34.24 Z2.966 E270.60493
G1 X-16.306 Y34.113 Z2.969 E270.96358
G1 X-17.398 Y33.834 Z2.974 E271.4936
G1 X-18.081 Y33.568 Z2.977 E271.8383
G1 X-19.086 Y33.067 Z2.982 E272.36639
G1 X-20.197 Y32.317 Z2.988 E272.99676
G1 X-21.016 Y31.581 Z2.992 E273.51458
G1 X-21.513 Y31.024 Z2.996 E273.86564
G1 X-22.325 Y29.926 Z3.002 E274.50785
G1 X-36.913 Y4.583 Z3.128 E288.2593
G1 X-37.471 Y3.424 Z3.133 E288.86421
G1 X-37.811 Y2.389 Z3.138 E289.37653
G1 X-38.069 Y1.081 Z3.144 E290.0035
G1 X-38.134 Y0.015 Z3.148 E290.50573
G1 X-38.034 Y-1.323 Z3.154 E291.13671
G1 X-37.806 Y-2.402 Z3.159 E291.65533
G1 X-37.581 Y-3.096 Z3.162 E291.99842
G1 X-37.062 Y-4.306 Z3.168 E292.61758
G1 X-22.38 Y-29.661 Z3.294 E306.39602
G1 X-21.796 Y-30.535 Z3.299 E306.89034
G1 X-21.319 Y-31.113 Z3.302 E307.24277
G1 X-20.533 Y-31.902 Z3.307 E307.7665
G1 X-19.954 Y-32.372 Z3.31 E308.1172
G1 X-19.052 Y-32.966 Z3.315 E308.6251
G1 X-17.854 Y-33.547 Z3.32 E309.25124
G1 X-16.832 Y-33.886 Z3.325 E309.75761
G1 X-15.529 Y-34.134 Z3.331 E310.38137
G1 X-14.491 Y-34.199 Z3.335 E310.87046
G1 X14.491 Y-34.164 Z3.46 E324.49979
G1 X15.545 Y-34.093 Z3.465 E324.99657
G1 X16.279 Y-33.971 Z3.468 E325.34648
G1 X17.351 Y-33.681 Z3.473 E325.86873
G1 X18.022 Y-33.426 Z3.476 E326.2063
G1 X19.009 Y-32.932 Z3.481 E326.72535
G1 X20.092 Y-32.197 Z3.486 E327.34086
G1 X20.899 Y-31.479 Z3.491 E327.84883
G1 X21.403 Y-30.928 Z3.494 E328.2
G1 X22.202 Y-29.854 Z3.5 E328.82951
;TIME_ELAPSED:49.605165
;LAYER:3
;note -- min layer time used
;TYPE:WALL-OUTER
;MESH:funnelaero.stl
G1 F2756.6 X36.739 Y-4.597 Z3.627 E342.53394
G1 X37.303 Y-3.424 Z3.633 E343.14602
G1 X37.633 Y-2.441 Z3.637 E343.63364
G1 X37.908 Y-1.035 Z3.643 E344.30737
G1 X37.967 Y0.037 Z3.648 E344.81226
G1 X37.86 Y1.374 Z3.654 E345.44302
G1 X37.633 Y2.435 Z3.659 E345.95327
G1 X37.363 Y3.235 Z3.662 E346.35033
G1 X36.85 Y4.387 Z3.668 E346.94337
G1 X22.3 Y29.513 Z3.794 E360.59751
G1 X21.783 Y30.288 Z3.798 E361.03562
G1 X21.251 Y30.957 Z3.802 E361.43758
G1 X20.491 Y31.719 Z3.807 E361.94369
G1 X19.836 Y32.257 Z3.81 E362.3423
G1 X18.937 Y32.845 Z3.815 E362.84747
G1 X17.734 Y33.419 Z3.821 E363.4743
G1 X16.689 Y33.755 Z3.825 E363.99051
G1 X15.884 Y33.917 Z3.829 E364.37666
G1 X14.609 Y34.051 Z3.835 E364.97956
G1 X-14.41 Y34.02 Z3.961 E378.62628
G1 X-15.337 Y33.96 Z3.965 E379.06314
G1 X-16.178 Y33.831 Z3.969 E379.46326
G1 X-17.203 Y33.557 Z3.973 E379.96221
G1 X-17.991 Y33.259 Z3.977 E380.35839
G1 X-18.947 Y32.777 Z3.982 E380.86188
G1 X-19.625 Y32.328 Z3.985 E381.2443
G1 X-20.469 Y31.657 Z3.99 E381.75135
G1 X-21.403 Y30.678 Z3.996 E382.38766
G1 X-22.145 Y29.666 Z4.001 E382.97779
G1 X-36.616 Y4.525 Z4.128 E396.61946
G1 X-37.166 Y3.358 Z4.133 E397.22616
G1 X-37.485 Y2.392 Z4.138 E397.70457
G1 X-37.745 Y1.025 Z4.144 E398.35895
G1 X-37.804 Y-0.025 Z4.148 E398.85351
G1 X-37.702 Y-1.342 Z4.154 E399.47471
G1 X-37.482 Y-2.388 Z4.159 E399.97737
G1 X-37.225 Y-3.177 Z4.162 E400.3676
G1 X-36.726 Y-4.316 Z4.168 E400.95238
G1 X-22.175 Y-29.442 Z4.294 E414.60676
G1 X-21.661 Y-30.207 Z4.298 E415.04018
G1 X-21.127 Y-30.863 Z4.302 E415.43796
G1 X-20.386 Y-31.6 Z4.306 E415.92944
G1 X-19.746 Y-32.121 Z4.31 E416.31753
G1 X-18.863 Y-32.7 Z4.314 E416.81409
G1 X-17.683 Y-33.267 Z4.32 E417.42974
G1 X-16.66 Y-33.603 Z4.325 E417.93611
G1 X-15.856 Y-33.775 Z4.328 E418.32276
G1 X-14.599 Y-33.914 Z4.334 E418.91749
G1 X14.411 Y-33.877 Z4.46 E432.55999
G1 X15.328 Y-33.814 Z4.464 E432.99224
G1 X16.153 Y-33.678 Z4.468 E433.38545
G1 X17.162 Y-33.403 Z4.472 E433.87726
G1 X17.918 Y-33.113 Z4.476 E434.25804
G1 X18.856 Y-32.641 Z4.481 E434.75185
G1 X19.539 Y-32.201 Z4.484 E435.13393
G1 X20.368 Y-31.543 Z4.489 E435.63166
G1 X21.285 Y-30.588 Z4.494 E436.25428
G1 X22.045 Y-29.556 Z4.5 E436.857
;TIME_ELAPSED:54.616636
;LAYER:4
;note -- min layer time used
;TYPE:WALL-OUTER
;MESH:funnelaero.stl
G1 F2732.7 X36.513 Y-4.408 Z4.627 E450.50082
G1 X36.8 Y-3.792 Z4.63 E450.82041
G1 X37.165 Y-2.875 Z4.635 E451.28455
G1 X37.417 Y-1.915 Z4.639 E451.7513
G1 X37.583 Y-.989 Z4.643 E452.19371
G1 X37.638 Y-0.017 Z4.647 E452.65154
G1 X37.576 Y0.911 Z4.652 E453.08893
G1 X37.418 Y1.933 Z4.656 E453.57525
G1 X37.007 Y3.305 Z4.662 E454.24879
G1 X36.509 Y4.407 Z4.668 E454.81748
G1 X22.104 Y29.279 Z4.794 E468.33409
G1 X21.641 Y29.973 Z4.798 E468.72642
G1 X20.712 Y31.058 Z4.804 E469.39814
G1 X20.015 Y31.698 Z4.808 E469.84313
G1 X18.821 Y32.532 Z4.814 E470.52805
G1 X17.519 Y33.152 Z4.821 E471.20621
G1 X16.551 Y33.466 Z4.825 E471.68478
G1 X15.629 Y33.652 Z4.829 E472.12711
G1 X14.441 Y33.773 Z4.835 E472.68868
G1 X-14.419 Y33.735 Z4.961 E486.26064
G1 X-15.122 Y33.681 Z4.964 E486.59221
G1 X-16.523 Y33.42 Z4.971 E487.26239
G1 X-17.425 Y33.132 Z4.975 E487.70767
G1 X-18.34 Y32.725 Z4.979 E488.17861
G1 X-19.536 Y31.999 Z4.985 E488.83657
G1 X-20.329 Y31.356 Z4.99 E489.31668
G1 X-21.29 Y30.332 Z4.996 E489.97708
G1 X-21.986 Y29.37 Z5.001 E490.53547
G1 X-36.387 Y4.348 Z5.128 E504.11222
G1 X-36.675 Y3.733 Z5.131 E504.43158
G1 X-37.023 Y2.829 Z5.135 E504.88711
G1 X-37.27 Y1.887 Z5.14 E505.34508
G1 X-37.421 Y0.978 Z5.144 E505.77841
G1 X-37.475 Y-0.001 Z5.148 E506.2395
G1 X-37.422 Y-.9 Z5.152 E506.66301
G1 X-37.267 Y-1.902 Z5.156 E507.13982
G1 X-36.87 Y-3.246 Z5.162 E507.79886
G1 X-36.385 Y-4.336 Z5.168 E508.35991
G1 X-21.979 Y-29.208 Z5.294 E521.87674
G1 X-21.519 Y-29.891 Z5.298 E522.26399
G1 X-20.609 Y-30.949 Z5.304 E522.92026
G1 X-19.918 Y-31.572 Z5.308 E523.35779
G1 X-19.111 Y-32.16 Z5.312 E523.82735
G1 X-17.889 Y-32.824 Z5.318 E524.48137
G1 X-16.517 Y-33.312 Z5.325 E525.16618
G1 X-15.612 Y-33.505 Z5.329 E525.60134
G1 X-14.441 Y-33.631 Z5.334 E526.15521
G1 X14.41 Y-33.594 Z5.461 E539.72293
G1 X15.112 Y-33.535 Z5.464 E540.05423
G1 X16.483 Y-33.274 Z5.47 E540.71054
G1 X17.369 Y-32.983 Z5.474 E541.1491
G1 X18.27 Y-32.585 Z5.478 E541.61231
G1 X19.436 Y-31.873 Z5.484 E542.25479
G1 X20.216 Y-31.247 Z5.489 E542.72512
G1 X21.166 Y-30.247 Z5.495 E543.37377
G1 X21.887 Y-29.257 Z5.5 E543.94972
;TIME_ELAPSED:59.627450
;LAYER:5
;note -- min layer time used
;TYPE:WALL-OUTER
;MESH:funnelaero.stl
G1 F2704.6 X25.675 Y-22.668 Z5.534 E547.52388
G1 X32.714 Y-10.423 Z5.596 E554.16595
G1 X36.416 Y-3.922 Z5.63 E557.68411
G1 X36.796 Y-2.978 Z5.634 E558.16266
G1 X37.046 Y-2.12 Z5.638 E558.58293
G1 X37.262 Y-.809 Z5.644 E559.20776
G1 X37.299 Y0.149 Z5.648 E559.65862
G1 X37.211 Y1.221 Z5.653 E560.16444
G1 X36.997 Y2.257 Z5.658 E560.66192
G1 X36.662 Y3.314 Z5.663 E561.18337
G1 X36.37 Y3.974 Z5.666 E561.52276
G1 X32.41 Y10.867 Z5.701 E565.26118
G1 X25.326 Y23.085 Z5.764 E571.90284
G1 X21.581 Y29.488 Z5.797 E575.39118
G1 X20.829 Y30.439 Z5.802 E575.96134
G1 X19.842 Y31.411 Z5.808 E576.61278
G1 X19.018 Y31.996 Z5.813 E577.08801
G1 X17.764 Y32.675 Z5.819 E577.75863
G1 X16.863 Y33.019 Z5.823 E578.21217
G1 X15.916 Y33.264 Z5.828 E578.67218
G1 X14.814 Y33.414 Z5.833 E579.19519
G1 X6.789 Y33.435 Z5.868 E582.96911
G1 X-7.33 Y33.41 Z5.931 E589.60884
G1 X-14.738 Y33.372 Z5.964 E593.09264
G1 X-15.81 Y33.222 Z5.968 E593.60167
G1 X-16.683 Y33.022 Z5.972 E594.02285
G1 X-17.468 Y32.747 Z5.976 E594.41401
G1 X-18.257 Y32.384 Z5.98 E594.82244
G1 X-19.145 Y31.846 Z5.985 E595.3107
G1 X-20.007 Y31.184 Z5.989 E595.82182
G1 X-20.358 Y30.845 Z5.992 E596.05131
G1 X-21.082 Y30.039 Z5.996 E596.56081
G1 X-21.723 Y29.117 Z6.001 E597.08888
G1 X-25.503 Y22.563 Z6.035 E600.6469
G1 X-32.542 Y10.319 Z6.098 E607.28857
G1 X-36.24 Y3.839 Z6.131 E610.79722
G1 X-36.622 Y2.912 Z6.135 E611.26872
G1 X-36.874 Y2.074 Z6.139 E611.68024
G1 X-37.085 Y0.799 Z6.145 E612.28798
G1 X-37.121 Y-.141 Z6.149 E612.73036
G1 X-37.038 Y-1.194 Z6.154 E613.22709
G1 X-36.83 Y-2.209 Z6.158 E613.71433
G1 X-36.488 Y-3.238 Z6.163 E614.22426
G1 X-36.191 Y-3.896 Z6.166 E614.56376
G1 X-32.236 Y-10.767 Z6.201 E618.29203
G1 X-25.152 Y-22.985 Z6.264 E624.9337
G1 X-21.717 Y-28.882 Z6.294 E628.14304
G1 X-21.038 Y-29.904 Z6.3 E628.72006
G1 X-20.495 Y-30.545 Z6.304 E629.11513
G1 X-19.911 Y-31.113 Z6.307 E629.49824
G1 X-19.221 Y-31.654 Z6.311 E629.91057
G1 X-18.41 Y-32.162 Z6.315 E630.3606
G1 X-17.463 Y-32.617 Z6.32 E630.85468
G1 X-16.494 Y-32.945 Z6.324 E631.33577
G1 X-15.46 Y-33.15 Z6.329 E631.83149
G1 X-14.342 Y-33.23 Z6.334 E632.3586
G1 X-6.789 Y-33.234 Z6.368 E635.91054
G1 X7.33 Y-33.208 Z6.43 E642.55027
G1 X14.721 Y-33.175 Z6.463 E646.02606
G1 X15.777 Y-33.046 Z6.468 E646.52635
