;FLAVOR:Marlin
;TIME:789
;Filament used: 11.0646m
;Layer height: 1
;MINX:-59.088
;MINY:-57.009
;MINZ:0.7
;MAXX:56.541
;MAXY:58.592
;MAXZ:39.7
;TARGET_MACHINE.NAME:Unknown
;Generated with Cura_SteamEngine 5.11.0
M140 S60
M105
M190 S60
M104 S200
M105
M109 S200
G28 ;Home
M302 S0 ;Set cold extrusion
M92 E400 ;E Steps at 400 steps/mm M92 E-400 reverse
G1 Z15.0 F6000 ;Move the platform down 15mm
;Prime the extruder
G92 E0
G1 F200 E3
G92 E0
M82 ;absolute extrusion mode
G92 E0
G92 E0
G1 F1500 E-6.5
;LAYER_COUNT:39
;LAYER:0
M107
G1 F600 Z1.7
;MESH:michelinairlesstyre.stl
G0 F960 X0.00 Y0.000 Z1.7
G0 X2.556 Y50.449
;TYPE:WALL-INNER
G1 F600 Z0.7
G1 F1500 E0
G1 F1200 X4.382 Y50.284 E0.60354
G1 X5.553 Y50.308 E0.9891
G1 X6.673 Y49.967 E1.37449
G1 X8.467 Y49.632 E1.97526
G1 X9.587 Y49.391 E2.35238
G1 X9.6 Y49.401 E2.35778
G1 X11.368 Y48.965 E2.95722
G1 X12.771 Y48.573 E3.43675
G1 X14.498 Y48.04 E4.03171
G1 X15.707 Y47.805 E4.43715
G1 X16.788 Y47.215 E4.84255
G1 X18.405 Y46.54 E5.41935
G1 X19.787 Y45.923 E5.91757
G1 X21.107 Y45.284 E6.40033
G1 X22.404 Y44.606 E6.8821
G1 X24.048 Y43.692 E7.50129
G1 X25.108 Y43.249 E7.87947
G1 X25.512 Y42.868 E8.06228
G1 X26.193 Y42.34 E8.34594
G1 X27.486 Y41.451 E8.86247
G1 X28.704 Y40.559 E9.35944
G1 X29.855 Y39.669 E9.83839
G1 X31.005 Y38.716 E10.33005
G1 X32.359 Y37.531 E10.92235
G1 X33.362 Y36.83 E11.32517
G1 X33.913 Y36.06 E11.63686
G1 X35.331 Y34.561 E12.31611
G1 X36.313 Y33.467 E12.80004
G1 X37.259 Y32.346 E13.28289
G1 X38.189 Y31.17 E13.77644
G1 X39.264 Y29.74 E14.36535
G1 X40.097 Y28.847 E14.76735
G1 X40.488 Y27.96 E15.08645
G1 X41.542 Y26.228 E15.75387
G1 X42.289 Y24.928 E16.24743
G1 X42.989 Y23.622 E16.7352
G1 X43.648 Y22.299 E17.22175
G1 X44.413 Y20.649 E17.82044
G1 X45.024 Y19.637 E18.20959
G1 X45.267 Y18.546 E18.57753
G1 X45.904 Y16.75 E19.20483
G1 X46.359 Y15.345 E19.69098
G1 X46.765 Y13.935 E20.17399
G1 X47.129 Y12.514 E20.65686
G1 X47.543 Y10.71 E21.26615
G1 X47.933 Y9.592 E21.65593
G1 X47.954 Y8.431 E22.03818
G1 X48.189 Y6.606 E22.6439
G1 X48.339 Y5.123 E23.13457
G1 X48.447 Y3.67 E23.61419
G1 X48.51 Y2.17 E24.10841
G1 X48.543 Y0.272 E24.73329
G1 X48.687 Y-.827 E25.09816
G1 X48.463 Y-1.966 E25.48028
G1 X48.319 Y-3.803 E26.08685
G1 X48.159 Y-5.268 E26.57197
G1 X47.957 Y-6.75 E27.06434
G1 X47.71 Y-8.206 E27.55048
G1 X47.307 Y-10.266 E28.24145
G1 X47.261 Y-11.175 E28.54106
G1 X46.866 Y-12.029 E28.8508
G1 X46.279 Y-14.007 E29.53
G1 X45.816 Y-15.424 E30.02072
G1 X45.312 Y-16.814 E30.50744
G1 X44.767 Y-18.197 E30.99677
G1 X43.948 Y-20.111 E31.68209
G1 X43.709 Y-21.008 E31.98767
G1 X43.018 Y-22.005 E32.38699
G1 X42.169 Y-23.56 E32.9702
G1 X41.418 Y-24.853 E33.46242
G1 X40.629 Y-26.123 E33.95459
G1 X39.821 Y-27.344 E34.43657
G1 X38.798 Y-28.794 E35.02072
G1 X38.475 Y-29.321 E35.22419
G1 X38.195 Y-29.88 E35.43
G1 X37.359 Y-30.649 E35.80392
G1 X36.137 Y-32.085 E36.42462
G1 X35.161 Y-33.165 E36.90381
G1 X34.122 Y-34.245 E37.39714
G1 X33.085 Y-35.261 E37.87504
G1 X31.737 Y-36.506 E38.47908
G1 X30.955 Y-37.415 E38.8738
G1 X30.078 Y-37.916 E39.20628
G1 X28.497 Y-39.134 E39.86326
G1 X27.296 Y-39.998 E40.35028
G1 X26.058 Y-40.841 E40.84333
G1 X24.815 Y-41.63 E41.32797
G1 X23.318 Y-42.522 E41.90161
G1 X22.837 Y-42.849 E42.09307
G1 X22.303 Y-43.284 E42.3198
G1 X21.259 Y-43.632 E42.68206
G1 X19.532 Y-44.457 E43.3121
G1 X18.202 Y-45.046 E43.79093
G1 X16.812 Y-45.611 E44.28485
G1 X15.42 Y-46.13 E44.77389
G1 X13.674 Y-46.729 E45.38153
G1 X12.634 Y-47.219 E45.75998
G1 X12.084 Y-47.263 E45.94161
G1 X11.366 Y-47.384 E46.18129
G1 X9.667 Y-47.795 E46.75671
G1 X8.228 Y-48.096 E47.24066
G1 X6.782 Y-48.354 E47.72418
G1 X5.295 Y-48.578 E48.2192
G1 X3.464 Y-48.8 E48.82635
G1 X2.342 Y-49.065 E49.20586
G1 X1.391 Y-48.954 E49.52104
G1 X-.661 Y-49.007 E50.19675
G1 X-2.125 Y-49.004 E50.67868
G1 X-3.628 Y-48.955 E51.1737
G1 X-5.101 Y-48.865 E51.6595
G1 X-6.956 Y-48.698 E52.2726
G1 X-8.101 Y-48.724 E52.64962
G1 X-9.006 Y-48.421 E52.96378
G1 X-11.012 Y-48.048 E53.63545
G1 X-12.126 Y-47.808 E54.01057
G1 X-12.139 Y-47.818 E54.01597
G1 X-13.915 Y-47.381 E54.61804
G1 X-15.319 Y-46.989 E55.09789
G1 X-17.029 Y-46.46 E55.68712
G1 X-17.713 Y-46.3 E55.91836
G1 X-18.249 Y-46.222 E56.09666
G1 X-19.206 Y-45.677 E56.45919
G1 X-20.966 Y-44.953 E57.08566
G1 X-21.995 Y-44.492 E57.45684
G1 X-22.001 Y-44.496 E57.45921
G1 X-23.651 Y-43.702 E58.06198
G1 X-24.944 Y-43.023 E58.54274
G1 X-26.79 Y-41.994 E59.23844
G1 X-27.659 Y-41.663 E59.54455
G1 X-28.333 Y-41.041 E59.84646
G1 X-30.031 Y-39.87 E60.52545
G1 X-31.246 Y-38.979 E61.02143
G1 X-32.404 Y-38.081 E61.50381
G1 X-33.557 Y-37.132 E61.99539
G1 X-35.117 Y-35.764 E62.6784
G1 X-35.904 Y-35.25 E62.98783
G1 X-36.26 Y-34.741 E63.1923
G1 X-36.749 Y-34.164 E63.44128
G1 X-37.865 Y-32.995 E63.9733
G1 X-38.856 Y-31.886 E64.46288
G1 X-39.813 Y-30.747 E64.9526
G1 X-40.739 Y-29.584 E65.44197
G1 X-41.956 Y-27.952 E66.11213
G1 X-42.641 Y-27.263 E66.43196
G1 X-43.067 Y-26.31 E66.77558
G1 X-44.098 Y-24.63 E67.42445
G1 X-44.837 Y-23.343 E67.91299
G1 X-45.533 Y-22.045 E68.39782
G1 X-46.189 Y-20.723 E68.88363
G1 X-46.957 Y-19.066 E69.48483
G1 X-47.568 Y-18.054 E69.87398
G1 X-47.778 Y-17.054 E70.21034
G1 X-48.448 Y-15.166 E70.86982
G1 X-48.903 Y-13.761 E71.35597
G1 X-49.312 Y-12.343 E71.84178
G1 X-49.679 Y-10.921 E72.32522
G1 X-50.093 Y-9.118 E72.93419
G1 X-50.477 Y-8.017 E73.31803
G1 X-50.465 Y-7.39 E73.52447
G1 X-50.519 Y-6.658 E73.76609
G1 X-50.738 Y-5.014 E74.31205
G1 X-50.887 Y-3.539 E74.80006
G1 X-50.995 Y-2.086 E75.27969
G1 X-51.058 Y-.586 E75.7739
G1 X-51.09 Y1.292 E76.3922
G1 X-51.234 Y2.402 E76.76066
G1 X-51.107 Y2.932 E76.94006
G1 X-50.991 Y3.75 E77.21203
G1 X-50.867 Y5.372 E77.74753
G1 X-50.707 Y6.843 E78.23461
G1 X-50.504 Y8.315 E78.72376
G1 X-50.262 Y9.771 E79.20963
G1 X-49.899 Y11.608 E79.82603
G1 X-49.804 Y12.759 E80.20621
G1 X-49.348 Y13.817 E80.58546
G1 X-48.83 Y15.586 E81.19224
G1 X-48.368 Y16.988 E81.67817
G1 X-47.865 Y18.386 E82.16725
G1 X-47.323 Y19.762 E82.65408
G1 X-46.605 Y21.443 E83.25581
G1 X-46.259 Y22.58 E83.64704
G1 X-45.557 Y23.585 E84.05058
G1 X-44.71 Y25.156 E84.63811
G1 X-43.96 Y26.447 E85.12959
G1 X-43.191 Y27.688 E85.61019
G1 X-42.374 Y28.918 E86.09627
G1 X-41.285 Y30.47 E86.72038
G1 X-40.743 Y31.463 E87.09279
G1 X-39.932 Y32.205 E87.45463
G1 X-38.685 Y33.664 E88.08644
G1 X-37.704 Y34.75 E88.56819
G1 X-36.685 Y35.81 E89.05221
G1 X-35.629 Y36.846 E89.53918
G1 X-34.252 Y38.124 E90.15761
G1 X-33.496 Y39.002 E90.53902
G1 X-32.666 Y39.476 E90.85366
G1 X-31.05 Y40.713 E91.52358
G1 X-29.835 Y41.59 E92.01685
G1 X-28.624 Y42.411 E92.49846
G1 X-27.363 Y43.213 E92.99041
G1 X-25.862 Y44.106 E93.56535
G1 X-25.381 Y44.433 E93.75681
G1 X-24.847 Y44.868 E93.98354
G1 X-23.679 Y45.278 E94.39103
G1 X-22.076 Y46.041 E94.97544
G1 X-20.746 Y46.63 E95.45426
G1 X-19.354 Y47.196 E95.94892
G1 X-17.968 Y47.714 E96.43599
G1 X-16.328 Y48.272 E97.00625
G1 X-15.722 Y48.522 E97.22204
G1 X-15.177 Y48.803 E97.42389
G1 X-14.154 Y48.908 E97.76242
G1 X-12.211 Y49.379 E98.42055
G1 X-10.774 Y49.68 E98.90385
G1 X-9.33 Y49.938 E99.38672
G1 X-7.844 Y50.161 E99.88137
G1 X-6.012 Y50.384 E100.48889
G1 X-4.887 Y50.644 E100.86898
G1 X-3.849 Y50.54 E101.21238
G1 X-1.879 Y50.591 E101.8611
G1 X-.42 Y50.588 E102.34138
G1 X1.08 Y50.539 E102.83542
G1 X2.556 Y50.449 E103.3222
G0 F960 X1.149 Y51.932
G0 X1.221 Y53.536
G1 F1200 X2.786 Y53.44 E103.83834
G1 X4.531 Y53.28 E104.41518
G1 X5.054 Y53.278 E104.58734
G1 X5.984 Y53.428 E104.89744
G1 X6.561 Y53.136 E105.11032
G1 X7.259 Y52.91 E105.35183
G1 X9.054 Y52.574 E105.95298
G1 X10.218 Y52.324 E106.34489
G1 X10.231 Y52.335 E106.3505
G1 X12.131 Y51.867 E106.99464
G1 X13.619 Y51.451 E107.50325
G1 X15.417 Y50.899 E108.12239
G1 X16.159 Y50.775 E108.37003
G1 X16.774 Y50.766 E108.5725
G1 X17.129 Y50.471 E108.72444
G1 X17.904 Y50.003 E109.02247
G1 X19.593 Y49.295 E109.62534
G1 X21.053 Y48.643 E110.15169
G1 X22.456 Y47.964 E110.66478
G1 X23.831 Y47.245 E111.17556
G1 X25.416 Y46.362 E111.77282
G1 X26.024 Y46.105 E111.99011
G1 X26.77 Y45.924 E112.24281
G1 X27.262 Y45.336 E112.49519
G1 X27.715 Y44.935 E112.69434
G1 X29.223 Y43.897 E113.29698
G1 X30.509 Y42.956 E113.82154
G1 X31.73 Y42.011 E114.3298
G1 X32.952 Y40.999 E114.85209
G1 X34.349 Y39.78 E115.46242
G1 X34.862 Y39.428 E115.66723
G1 X35.542 Y39.103 E115.91533
G1 X35.895 Y38.438 E116.16316
G1 X36.222 Y37.982 E116.34788
G1 X37.536 Y36.596 E116.97658
G1 X38.576 Y35.437 E117.48918
G1 X39.582 Y34.244 E118.00289
G1 X40.566 Y33.001 E118.52476
G1 X41.679 Y31.524 E119.13356
G1 X42.036 Y31.14 E119.30615
G1 X42.702 Y30.615 E119.58532
G1 X42.867 Y30.007 E119.7927
G1 X43.164 Y29.328 E120.03666
G1 X44.124 Y27.757 E120.64272
G1 X44.912 Y26.384 E121.16384
G1 X45.654 Y25 E121.68078
G1 X46.354 Y23.597 E122.19692
G1 X47.038 Y22.111 E122.73542
G1 X47.457 Y21.392 E123.00936
G1 X47.94 Y20.822 E123.2553
G1 X47.958 Y20.349 E123.41112
G1 X48.036 Y19.832 E123.58323
G1 X48.199 Y19.254 E123.78092
G1 X48.745 Y17.714 E124.31879
G1 X49.228 Y16.223 E124.83471
G1 X49.661 Y14.723 E125.34865
G1 X50.045 Y13.218 E125.85995
G1 X50.461 Y11.413 E126.4697
G1 X50.725 Y10.697 E126.72091
G1 X51.032 Y10.149 E126.92768
G1 X50.935 Y9.53 E127.13393
G1 X50.913 Y8.907 E127.33914
G1 X51.169 Y6.952 E127.98819
G1 X51.328 Y5.386 E128.50635
G1 X51.442 Y3.844 E129.01533
G1 X51.509 Y2.254 E129.5392
G1 X51.539 Y0.423 E130.14202
G1 X51.624 Y-.218 E130.35488
G1 X51.834 Y-.927 E130.59829
G1 X51.66 Y-1.36 E130.7519
G1 X51.458 Y-2.221 E131.04303
G1 X51.307 Y-4.083 E131.65798
G1 X51.137 Y-5.634 E132.17161
G1 X50.923 Y-7.203 E132.69288
G1 X50.661 Y-8.747 E133.20841
G1 X50.314 Y-10.519 E133.8028
G1 X50.26 Y-11.284 E134.05525
G1 X50.318 Y-11.929 E134.26843
G1 X50.039 Y-12.345 E134.43332
G1 X49.682 Y-13.108 E134.71062
G1 X49.143 Y-14.9 E135.32663
G1 X48.652 Y-16.401 E135.8465
G1 X48.118 Y-17.876 E136.36289
G1 X47.542 Y-19.339 E136.88047
G1 X46.799 Y-21.089 E137.50631
G1 X46.645 Y-21.62 E137.68831
G1 X46.543 Y-22.381 E137.94106
G1 X45.901 Y-23.072 E138.25155
G1 X45.677 Y-23.401 E138.38257
G1 X44.784 Y-25.03 E138.9941
G1 X43.99 Y-26.398 E139.51478
G1 X43.155 Y-27.742 E140.03564
G1 X42.297 Y-29.038 E140.54728
G1 X41.24 Y-30.541 E141.15215
G1 X40.886 Y-31.211 E141.40159
G1 X40.68 Y-31.813 E141.61104
G1 X40.148 Y-32.16 E141.82013
G1 X39.539 Y-32.719 E142.09225
G1 X38.392 Y-34.064 E142.67414
G1 X37.356 Y-35.211 E143.18293
G1 X36.254 Y-36.356 E143.70606
G1 X35.153 Y-37.435 E144.21352
G1 X33.829 Y-38.662 E144.80774
G1 X33.384 Y-39.174 E145.03105
G1 X32.984 Y-39.822 E145.28173
G1 X32.524 Y-39.991 E145.44305
G1 X31.813 Y-40.369 E145.70812
G1 X30.289 Y-41.541 E146.34099
G1 X29.016 Y-42.456 E146.85706
G1 X27.706 Y-43.347 E147.37858
G1 X26.386 Y-44.186 E147.89345
G1 X24.852 Y-45.102 E148.4816
G1 X24.304 Y-45.518 E148.70808
G1 X23.789 Y-46.059 E148.95396
G1 X23.172 Y-46.158 E149.15967
G1 X22.553 Y-46.338 E149.37187
G1 X20.786 Y-47.183 E150.01663
G1 X19.374 Y-47.808 E150.52494
G1 X17.902 Y-48.406 E151.04796
G1 X16.428 Y-48.956 E151.56585
G1 X14.655 Y-49.561 E152.18254
G1 X14.139 Y-49.814 E152.37172
G1 X13.507 Y-50.245 E152.62354
G1 X12.741 Y-50.217 E152.87586
G1 X12.174 Y-50.273 E153.06342
G1 X10.328 Y-50.721 E153.68873
G1 X8.799 Y-51.041 E154.20296
G1 X7.269 Y-51.315 E154.71462
G1 X5.695 Y-51.551 E155.23855
G1 X3.911 Y-51.767 E155.83011
G1 X3.342 Y-51.895 E156.02209
G1 X2.569 Y-52.204 E156.29613
G1 X1.98 Y-52.047 E156.49679
G1 X1.332 Y-51.956 E156.7122
G1 X-.626 Y-52.007 E157.35696
G1 X-2.177 Y-52.004 E157.86752
G1 X-3.769 Y-51.952 E158.39187
G1 X-5.331 Y-51.856 E158.90702
G1 X-7.133 Y-51.693 E159.50264
G1 X-7.606 Y-51.694 E159.65834
G1 X-8.533 Y-51.843 E159.96741
G1 X-9.216 Y-51.509 E160.21769
G1 X-9.77 Y-51.328 E160.40954
G1 X-11.601 Y-50.99 E161.02246
G1 X-12.759 Y-50.741 E161.41237
G1 X-12.773 Y-50.752 E161.41823
G1 X-14.677 Y-50.283 E162.06374
G1 X-16.167 Y-49.867 E162.57298
G1 X-18.096 Y-49.269 E163.23779
G1 X-18.833 Y-49.182 E163.48208
G1 X-19.318 Y-49.183 E163.64174
G1 X-19.813 Y-48.784 E163.85103
G1 X-20.459 Y-48.406 E164.09741
G1 X-22.152 Y-47.709 E164.70011
G1 X-23.182 Y-47.247 E165.07171
G1 X-23.193 Y-47.254 E165.076
G1 X-25.001 Y-46.381 E165.73692
G1 X-26.373 Y-45.662 E166.24682
G1 X-27.95 Y-44.783 E166.84114
G1 X-28.571 Y-44.52 E167.06314
G1 X-29.319 Y-44.339 E167.31648
G1 X-29.813 Y-43.75 E167.56953
G1 X-30.289 Y-43.337 E167.77698
G1 X-31.767 Y-42.317 E168.36813
G1 X-33.053 Y-41.375 E168.89289
G1 X-34.277 Y-40.424 E169.40313
G1 X-35.502 Y-39.416 E169.92535
G1 X-36.856 Y-38.229 E170.51809
G1 X-37.512 Y-37.786 E170.77867
G1 X-38.086 Y-37.521 E170.98678
G1 X-38.492 Y-36.774 E171.26666
G1 X-38.81 Y-36.358 E171.43903
G1 X-40.069 Y-35.03 E172.04141
G1 X-41.123 Y-33.851 E172.562
G1 X-42.136 Y-32.646 E173.08021
G1 X-43.115 Y-31.416 E173.59771
G1 X-44.225 Y-29.938 E174.20617
G1 X-44.527 Y-29.608 E174.35342
G1 X-45.245 Y-29.031 E174.65664
G1 X-45.408 Y-28.433 E174.86068
G1 X-45.681 Y-27.786 E175.09184
G1 X-46.678 Y-26.162 E175.71914
G1 X-47.461 Y-24.799 E176.23659
G1 X-48.2 Y-23.42 E176.75161
G1 X-48.896 Y-22.017 E177.26716
G1 X-49.667 Y-20.342 E177.87415
G1 X-50.167 Y-19.591 E178.17115
G1 X-50.484 Y-19.24 E178.32684
G1 X-50.518 Y-18.615 E178.53289
G1 X-50.674 Y-17.865 E178.78506
G1 X-51.289 Y-16.13 E179.39101
G1 X-51.772 Y-14.639 E179.90694
G1 X-52.206 Y-13.133 E180.42287
G1 X-52.594 Y-11.629 E180.93417
G1 X-53.002 Y-9.853 E181.53403
G1 X-53.217 Y-9.236 E181.74911
G1 X-53.576 Y-8.57 E181.99817
G1 X-53.47 Y-7.821 E182.24719
G1 X-53.484 Y-7.139 E182.47174
G1 X-53.718 Y-5.363 E183.06143
G1 X-53.876 Y-3.802 E183.57791
G1 X-53.99 Y-2.26 E184.0869
G1 X-54.057 Y-.67 E184.61077
G1 X-54.09 Y1.205 E185.22808
G1 X-54.229 Y2.042 E185.50738
G1 X-54.381 Y2.506 E185.66811
G1 X-54.095 Y3.314 E185.95026
G1 X-53.985 Y3.951 E186.16306
G1 X-53.854 Y5.649 E186.72368
G1 X-53.685 Y7.21 E187.24054
G1 X-53.47 Y8.766 E187.75761
G1 X-53.213 Y10.312 E188.27352
G1 X-52.851 Y12.148 E188.88954
G1 X-52.805 Y12.678 E189.06466
G1 X-52.86 Y13.513 E189.34012
G1 X-52.602 Y13.895 E189.49187
G1 X-52.259 Y14.564 E189.73935
G1 X-51.694 Y16.478 E190.39629
G1 X-51.205 Y17.966 E190.91189
G1 X-50.672 Y19.444 E191.42909
G1 X-50.097 Y20.903 E191.94532
G1 X-49.37 Y22.611 E192.55638
G1 X-49.193 Y23.203 E192.75979
G1 X-49.091 Y23.957 E193.01025
G1 X-48.562 Y24.502 E193.26027
G1 X-48.091 Y25.207 E193.53938
G1 X-47.328 Y26.621 E194.06829
G1 X-46.533 Y27.991 E194.5897
G1 X-45.716 Y29.309 E195.10016
G1 X-44.85 Y30.613 E195.61546
G1 X-43.793 Y32.117 E196.22059
G1 X-43.427 Y32.812 E196.47916
G1 X-43.228 Y33.396 E196.68226
G1 X-42.835 Y33.643 E196.83505
G1 X-42.422 Y33.97 E197.00846
G1 X-42.025 Y34.373 E197.19468
G1 X-40.939 Y35.645 E197.74526
G1 X-39.899 Y36.795 E198.25566
G1 X-38.817 Y37.921 E198.76972
G1 X-37.697 Y39.019 E199.28602
G1 X-36.324 Y40.289 E199.9017
G1 X-35.761 Y40.998 E200.19973
G1 X-35.526 Y41.407 E200.355
G1 X-34.946 Y41.632 E200.55979
G1 X-34.153 Y42.111 E200.86476
G1 X-32.842 Y43.119 E201.40914
G1 X-31.555 Y44.048 E201.93165
G1 X-30.272 Y44.918 E202.44193
G1 X-28.935 Y45.769 E202.96364
G1 X-27.344 Y46.72 E203.57381
G1 X-26.923 Y47.037 E203.74729
G1 X-26.333 Y47.643 E204.02571
G1 X-25.716 Y47.742 E204.23141
G1 X-24.948 Y47.997 E204.4978
G1 X-23.33 Y48.767 E205.08765
G1 X-21.918 Y49.392 E205.59596
G1 X-20.444 Y49.991 E206.11971
G1 X-18.976 Y50.54 E206.63565
G1 X-17.276 Y51.12 E207.22693
G1 X-16.752 Y51.36 E207.41666
G1 X-16.05 Y51.828 E207.69439
G1 X-15.307 Y51.8 E207.93915
G1 X-14.456 Y51.922 E208.22215
G1 X-12.872 Y52.305 E208.7586
G1 X-11.346 Y52.625 E209.27187
G1 X-9.817 Y52.899 E209.78321
G1 X-8.244 Y53.135 E210.30681
G1 X-6.442 Y53.353 E210.90433
G1 X-5.796 Y53.507 E211.12294
G1 X-5.114 Y53.788 E211.36575
G1 X-4.668 Y53.661 E211.5184
G1 X-3.79 Y53.549 E211.80977
G1 X-1.915 Y53.591 E212.42715
G1 X-.367 Y53.588 E212.93673
G1 X1.221 Y53.536 E213.45975
G0 F960 X1.15 Y51.931
G0 X-4.31 Y51.919
G0 X-4.441 Y56.697
;TYPE:WALL-OUTER
G1 F1177.2 X-3.812 Y56.543 E213.67705
G1 F1200 X-1.95 Y56.591 E214.29019
G1 X-.315 Y56.588 E214.82841
G1 X1.361 Y56.533 E215.38042
G1 X3.016 Y56.432 E215.92623
G1 X4.797 Y56.272 E216.51487
G1 X5.107 Y56.3 E216.61734
G1 F1152.4 X5.76 Y56.45 E216.84701
G1 F1084.3 X6.139 Y56.71 E217.01444
