;FLAVOR:Marlin
;TIME:552
;Filament used: 6.1972m
;Layer height: 1
;MINX:-23.1
;MINY:-23.033
;MINZ:0.7
;MAXX:23.129
;MAXY:23.104
;MAXZ:100.7
;TARGET_MACHINE.NAME:Unknown
;Generated with Cura_SteamEngine 5.11.0
M104 S0
M105
M109 S0
G28 ;Home
M302 S0 ;Set cold extrusion
M92 E400 ;E Steps at 400 steps/mm M92 E-400 reverse
G1 Z15.0 F6000 ;Move the platform down 15mm
;Prime the extruder
G92 E0
G1 F200 E3
G92 E0
M82 ;absolute extrusion mode
G92 E0
G92 E0
G1 F1500 E-6.5
;LAYER_COUNT:100
;LAYER:0
M107
G1 F600 Z1.7
;MESH:Twisted_Vase_Basic.stl
G0 F960 X0.00 Y0.000 Z1.7
G0 X-11.934 Y7.511
;TYPE:WALL-INNER
G1 F600 Z0.7
G1 F1500 E0
G1 F1200 X-8.181 Y14.004 E2.22805
G1 X8.084 Y14.007 E7.06021
G1 X16.174 Y-0.001 E11.86601
G1 X12.274 Y-6.758 E14.18382
G1 X11.934 Y-7.511 E14.42927
G1 X8.181 Y-14.004 E16.65733
G1 X-8.084 Y-14.006 E21.48948
G1 X-16.173 Y0.001 E26.29488
G1 X-12.274 Y6.758 E28.61254
G1 X-11.934 Y7.511 E28.85799
G0 F960 X-13.057 Y8.35
G0 X-14.637 Y8.83
G1 F1200 X-9.912 Y17.004 E31.66293
G1 X9.816 Y17.007 E37.52391
G1 X19.638 Y-0.001 E43.35885
G1 X14.785 Y-8.408 E46.24274
G1 X14.637 Y-8.83 E46.3756
G1 X9.912 Y-17.004 E49.18054
G1 X-9.816 Y-17.006 E55.04151
G1 X-19.637 Y0.001 E60.87605
G1 X-14.785 Y8.408 E63.7598
G1 X-14.637 Y8.83 E63.89265
G0 F960 X-13.055 Y8.351
G0 X-17.364 Y10.105
;TYPE:WALL-OUTER
G1 F1200 X-11.643 Y20.004 E67.28936
G1 X11.548 Y20.007 E74.17916
G1 X23.102 Y-0.001 E81.04324
G1 X17.48 Y-9.75 E84.38664
G1 X17.364 Y-10.105 E84.4976
G1 X11.643 Y-20.004 E87.8943
G1 X-11.547 Y-20.006 E94.7838
G1 X-23.1 Y0.001 E101.64748
G1 X-17.48 Y9.75 E104.99059
G1 X-17.364 Y10.105 E105.10154
G0 F960 X-16.614 Y11.403
G0 X-12.623 Y9.099
G0 X-9.374 Y6.237
;TYPE:SKIN
G1 F1200 X-9.77 Y5.387 E105.38013
G1 X-12.879 Y0.001 E107.2277
G1 X-6.438 Y-11.155 E111.05477
G1 X6.534 Y-11.152 E114.90861
G1 X9.374 Y-6.237 E116.59504
G1 X9.77 Y-5.387 E116.87363
G1 X12.879 Y-0.001 E118.7212
G1 X6.438 Y11.155 E122.54827
G1 X-6.534 Y11.152 E126.40211
G1 X-9.374 Y6.237 E128.08854
G0 F960 X-3.076 Y9.652
G1 F1200 X-8.992 Y3.736 E130.57413
G0 F960 X-10.172 Y-1.687
G1 F1200 X1.168 Y9.653 E135.33861
G0 F960 X5.411 Y9.654
G1 F1200 X-8.62 Y-4.377 E141.2337
G0 F960 X-7.067 Y-7.067
G1 F1200 X7.067 Y7.067 E147.17206
G0 F960 X8.62 Y4.377
G1 F1200 X-5.411 Y-9.654 E153.06716
G0 F960 X-1.168 Y-9.653
G1 F1200 X10.172 Y1.687 E157.83163
G0 F960 X8.992 Y-3.736
G1 F1200 X3.076 Y-9.652 E160.31722
G1 X2.546 Y-10.182
;MESH:NONMESH
G0 F600 X2.546 Y-10.182 Z1.7
G0 F960 X0.938 Y1.63
;TIME_ELAPSED:34.692036
;LAYER:1
;TYPE:WALL-INNER
;MESH:Twisted_Vase_Basic.stl
G1 F1382.1 X1.886 Y-0.013 E161.19098
G1 X1.107 Y-1.63 E162.01775
G1 X-.94 Y-1.626 E162.96066
G1 X-1.885 Y0.013 E163.83213
G1 X-1.107 Y1.63 E164.6587
G1 X0.938 Y1.63 E165.60069
G0 F1680 X-3.6 Y3.848
G1 F1500 X-3.075 Y4.756 E166.04583
G1 X2.744 Y4.758 E168.51549
G1 X5.493 Y-0.001 E170.84803
G1 X4.664 Y-1.435 E171.55102
G1 X4.085 Y-2.618 E172.11001
G1 X3.601 Y-3.849 E172.6714
G1 X3.076 Y-4.757 E173.11654
G1 X-2.746 Y-4.755 E175.58748
G1 X-5.492 Y0.001 E177.91828
G1 X-4.483 Y1.746 E178.77377
G1 X-3.854 Y3.162 E179.43137
G1 X-3.6 Y3.848 E179.74183
G0 F1680 X-6.361 Y5.066
G1 F1500 X-4.807 Y7.756 E181.06032
G1 X4.476 Y7.758 E185.00014
G1 X8.957 Y-0.001 E188.80288
G1 X7.298 Y-2.873 E190.21054
G1 X6.826 Y-3.838 E190.66647
G1 X6.362 Y-5.067 E191.22401
G1 X4.808 Y-7.757 E192.5425
G1 X-4.477 Y-7.756 E196.48317
G1 X-8.956 Y0.001 E200.28475
G1 X-7.305 Y2.859 E201.68557
G1 X-6.637 Y4.283 E202.35313
G1 X-6.361 Y5.066 E202.70548
G0 F1680 X-9.123 Y6.284
G1 F1500 X-6.539 Y10.756 E204.89752
G1 X6.208 Y10.759 E210.30752
G1 X12.421 Y-0.001 E215.58082
G1 X9.798 Y-4.542 E217.8065
G1 X9.279 Y-5.775 E218.37427
G1 X9.123 Y-6.284 E218.60021
G1 X6.539 Y-10.757 E220.79261
G1 X-6.209 Y-10.757 E226.20303
G1 X-12.42 Y0.001 E231.47518
G1 X-9.801 Y4.535 E233.69743
G1 X-9.278 Y5.775 E234.2686
G1 X-9.123 Y6.284 E234.49442
G0 F1680 X-12.101 Y6.79
G1 F1500 X-11.886 Y7.499 E234.80886
G1 X-8.271 Y13.756 E237.87576
G1 X7.94 Y13.759 E244.75593
G1 X15.885 Y-0.001 E251.49943
G1 X12.531 Y-5.818 E254.34923
G1 X12.102 Y-6.79 E254.80015
G1 X11.886 Y-7.499 E255.11471
G1 X8.271 Y-13.757 E258.18198
G1 X-7.94 Y-13.758 E265.06215
G1 X-15.885 Y0.001 E271.80528
G1 X-12.476 Y5.902 E274.69762
G1 X-12.101 Y6.79 E275.10673
G0 F1680 X-13.348 Y7.404
G0 X-14.925 Y7.805
G1 F1500 X-14.691 Y8.64 E275.47477
G1 X-10.002 Y16.756 E279.45286
G1 X9.672 Y16.759 E287.80277
G1 X19.349 Y-0.001 E296.01647
G1 X15.182 Y-7.222 E299.55483
G1 X14.925 Y-7.805 E299.82524
G1 X14.691 Y-8.64 E300.19328
G1 X10.003 Y-16.757 E304.17153
G1 X-9.672 Y-16.759 E312.52186
G1 X-19.349 Y0.001 E320.73556
G1 X-15.15 Y7.27 E324.29836
G1 X-14.925 Y7.805 E324.54468
G0 F1680 X-13.348 Y7.405
G0 X10.471 Y18.206
G0 X10.323 Y19.814
;TYPE:WALL-OUTER
G1 F2100 X11.226 Y20.066 E324.94257
G1 X22.073 Y1.282 E334.14848
G1 X22.322 Y0.96 E334.32124
G1 X22.991 Y0.306 E334.7183
G1 X17.767 Y-8.747 E339.15432
G1 X17.497 Y-9.781 E339.60788
G1 X11.889 Y-19.49 E344.3665
G1 X11.78 Y-19.756 E344.48851
G1 X-9.921 Y-19.76 E353.6987
G1 X-10.323 Y-19.815 E353.8709
G1 X-11.226 Y-20.067 E354.26879
G1 X-22.073 Y-1.282 E363.47507
G1 X-22.322 Y-.96 E363.64783
G1 X-22.991 Y-.306 E364.04489
G1 X-17.767 Y8.747 E368.48091
G1 X-17.497 Y9.781 E368.93447
G1 X-11.888 Y19.489 E373.69294
G1 X-11.78 Y19.756 E373.81518
G1 X9.921 Y19.76 E383.02537
G1 X10.323 Y19.814 E383.19751
G0 F1680 X11.226 Y20.066
G0 X11.507 Y19.58
;MESH:NONMESH
G0 F600 X11.507 Y19.58 Z2.7
G0 F1680 X10.471 Y18.206
G0 X21 Y0.035
G0 X22.929 Y0.781
;TIME_ELAPSED:56.971189
;LAYER:2
;TYPE:WALL-OUTER
;MESH:Twisted_Vase_Basic.stl
G1 F3000 X20.862 Y2.802 E384.42442
G1 X10.789 Y20.247 E392.97393
G1 X8.005 Y19.468 E394.20088
G1 X-12.14 Y19.467 E402.75069
G1 X-12.379 Y18.532 E403.16027
G1 X-17.656 Y9.392 E407.63952
G1 X-18.133 Y7.529 E408.45571
G1 X-22.929 Y-.781 E412.52781
G1 X-20.862 Y-2.802 E413.75472
G1 X-10.788 Y-20.248 E422.30481
G1 X-8.005 Y-19.468 E423.53147
G1 X12.14 Y-19.467 E432.08127
G1 X12.379 Y-18.532 E432.49086
G1 X17.656 Y-9.392 E436.9701
G1 X18.133 Y-7.529 E437.78629
G1 X22.929 Y0.781 E441.85839
G0 F2400 X22.993 Y0.309
G1 F3000 X21.109 Y2.944 Z2.724 E443.23321
G1 X10.855 Y20.014 Z2.868 E451.68479
G1 X8.005 Y19.705 Z2.889 E452.90149
G1 X-12.022 Y19.399 Z3.034 E461.40242
G1 X-12.411 Y18.551 Z3.041 E461.7984
G1 X-17.624 Y9.384 Z3.117 E466.2742
G1 X-18.276 Y7.612 Z3.131 E467.07557
G1 X-22.827 Y-.676 Z3.2 E471.08863
G1 X-20.983 Y-2.871 Z3.221 E472.30536
G1 X-10.814 Y-20.155 Z3.366 E480.81657
G1 X-8.005 Y-19.559 Z3.387 E482.03532
G1 X12.11 Y-19.45 Z3.533 E490.57274
G1 X12.387 Y-18.537 Z3.54 E490.97769
G1 X17.651 Y-9.391 Z3.616 E495.4565
G1 X18.15 Y-7.539 Z3.63 E496.27056
G1 X22.929 Y0.781 Z3.7 E500.34286
;TIME_ELAPSED:62.582961
;LAYER:3
;note -- min layer time used
;TYPE:WALL-OUTER
;MESH:Twisted_Vase_Basic.stl
G1 F1652.6 X19.79 Y4.638 Z3.736 E502.45348
G1 X10.414 Y20.193 Z3.868 E510.16198
G1 X5.879 Y19.409 Z3.901 E512.11529
G1 X-12.328 Y19.127 Z4.034 E519.84372
G1 X-13.003 Y17.411 Z4.047 E520.62635
G1 X-17.78 Y9.002 Z4.117 E524.73102
G1 X-18.647 Y6.383 Z4.137 E525.90191
G1 X-22.763 Y-1.148 Z4.2 E529.54449
G1 X-19.664 Y-4.565 Z4.233 E531.50235
G1 X-10.373 Y-20.335 Z4.366 E539.27077
G1 X-5.879 Y-19.263 Z4.4 E541.23165
G1 X12.469 Y-19.163 Z4.533 E549.01911
G1 X12.979 Y-17.396 Z4.546 E549.79967
G1 X17.807 Y-9.009 Z4.616 E553.90698
G1 X18.521 Y-6.309 Z4.637 E555.09232
G1 X22.864 Y1.252 Z4.7 E558.79311
;TIME_ELAPSED:67.594150
;LAYER:4
;note -- min layer time used
;TYPE:WALL-OUTER
;MESH:Twisted_Vase_Basic.stl
G1 F1652.3 X18.471 Y6.331 Z4.749 E561.64323
G1 X9.973 Y20.373 Z4.868 E568.6094
G1 X3.752 Y19.113 Z4.914 E571.30335
G1 X-12.704 Y18.834 Z5.034 E578.28868
G1 X-13.596 Y16.271 Z5.053 E579.44048
G1 X-17.936 Y8.62 Z5.117 E583.17381
G1 X-19.018 Y5.151 Z5.144 E584.71609
G1 X-22.697 Y-1.62 Z5.2 E587.98668
G1 X-18.344 Y-6.258 Z5.246 E590.68636
G1 X-9.932 Y-20.515 Z5.366 E597.71213
G1 X-3.752 Y-18.967 Z5.412 E600.41611
G1 X12.845 Y-18.87 Z5.533 E607.4604
G1 X13.572 Y-16.256 Z5.552 E608.61195
G1 X17.963 Y-8.627 Z5.616 E612.34791
G1 X18.892 Y-5.078 Z5.643 E613.90495
G1 X22.799 Y1.724 Z5.7 E617.23423
;TIME_ELAPSED:72.606109
;LAYER:5
;note -- min layer time used
;TYPE:WALL-OUTER
;MESH:Twisted_Vase_Basic.stl
G1 F1652.2 X17.151 Y8.024 Z5.761 E620.82532
G1 X9.532 Y20.553 Z5.868 E627.04896
G1 X1.626 Y18.817 Z5.927 E630.4844
G1 X-13.08 Y18.542 Z6.034 E636.72708
G1 X-14.19 Y15.13 Z6.06 E638.24992
G1 X-18.092 Y8.238 Z6.117 E641.61133
G1 X-19.389 Y3.92 Z6.15 E643.52488
G1 X-22.632 Y-2.092 Z6.2 E646.42408
G1 X-17.025 Y-7.952 Z6.258 E649.86632
G1 X-9.491 Y-20.695 Z6.366 E656.14931
G1 X-1.626 Y-18.671 Z6.425 E659.59617
G1 X13.222 Y-18.578 Z6.533 E665.89815
G1 X14.166 Y-15.116 Z6.559 E667.42115
G1 X18.119 Y-8.245 Z6.616 E670.78555
G1 X19.264 Y-3.847 Z6.649 E672.71439
G1 X22.734 Y2.196 Z6.7 E675.67195
;TIME_ELAPSED:77.617630
;LAYER:6
;note -- min layer time used
;TYPE:WALL-OUTER
;MESH:Twisted_Vase_Basic.stl
G1 F1652.2 X15.832 Y9.718 Z6.774 E680.00478
G1 X9.091 Y20.733 Z6.868 E685.4858
G1 X-.5 Y18.521 Z6.939 E689.66331
G1 X-13.457 Y18.25 Z7.034 E695.16378
G1 X-14.782 Y13.99 Z7.066 E697.05727
G1 X-18.247 Y7.856 Z7.117 E700.04734
G1 X-19.76 Y2.69 Z7.156 E702.33202
G1 X-22.567 Y-2.564 Z7.199 E704.86024
G1 X-15.706 Y-9.645 Z7.271 E709.04494
G1 X-9.05 Y-20.875 Z7.366 E714.58551
G1 X0.5 Y-18.375 Z7.438 E718.77535
G1 X13.598 Y-18.286 Z7.533 E724.33459
G1 X14.758 Y-13.976 Z7.565 E726.22895
G1 X18.274 Y-7.863 Z7.616 E729.222
G1 X19.634 Y-2.617 Z7.656 E731.52214
G1 X22.669 Y2.668 Z7.7 E734.10877
;TIME_ELAPSED:82.629211
;LAYER:7
;note -- min layer time used
;TYPE:WALL-OUTER
;MESH:Twisted_Vase_Basic.stl
G1 F1652.2 X14.513 Y11.411 Z7.787 E739.18345
G1 X8.65 Y20.913 Z7.868 E743.92225
G1 X-2.626 Y18.225 Z7.952 E748.84216
G1 X-13.833 Y17.958 Z8.034 E753.60004
G1 X-15.375 Y12.85 Z8.072 E755.86462
G1 X-18.403 Y7.474 Z8.117 E758.48337
G1 X-20.131 Y1.459 Z8.163 E761.13954
G1 X-22.503 Y-3.035 Z8.199 E763.29628
G1 X-14.387 Y-11.339 Z8.284 E768.22447
G1 X-8.609 Y-21.054 Z8.366 E773.0219
G1 X2.626 Y-18.08 Z8.45 E777.95454
G1 X13.975 Y-17.994 Z8.533 E782.77147
G1 X15.351 Y-12.836 Z8.572 E785.03721
G1 X18.43 Y-7.481 Z8.616 E787.65891
G1 X20.005 Y-1.386 Z8.662 E790.33075
G1 X22.605 Y3.14 Z8.7 E792.5461
;TIME_ELAPSED:87.641363
;LAYER:8
;note -- min layer time used
;TYPE:WALL-OUTER
;MESH:Twisted_Vase_Basic.stl
G1 F1652.3 X13.194 Y13.105 Z8.8 E798.36347
G1 X8.209 Y21.092 Z8.868 E802.35943
G1 X-4.752 Y17.929 Z8.965 E808.02183
G1 X-14.21 Y17.666 Z9.034 E812.03759
G1 X-15.968 Y11.711 Z9.079 E814.67287
G1 X-18.559 Y7.092 Z9.117 E816.92065
G1 X-20.503 Y0.228 Z9.169 E819.94849
G1 X-22.438 Y-3.508 Z9.199 E821.7342
G1 X-13.068 Y-13.032 Z9.297 E827.40473
G1 X-8.168 Y-21.234 Z9.366 E831.45976
G1 X4.752 Y-17.784 Z9.463 E837.13546
G1 X14.351 Y-17.702 Z9.533 E841.20966
G1 X15.944 Y-11.697 Z9.578 E843.84648
G1 X18.586 Y-7.099 Z9.616 E846.0972
G1 X20.377 Y-.156 Z9.668 E849.14044
G1 X22.54 Y3.612 Z9.7 E850.98444
;TIME_ELAPSED:92.653513
;LAYER:9
;note -- min layer time used
;TYPE:WALL-OUTER
;MESH:Twisted_Vase_Basic.stl
G1 F1652.3 X11.875 Y14.799 Z9.812 E857.54439
G1 X7.768 Y21.272 Z9.868 E860.79801
G1 X-6.878 Y17.634 Z9.978 E867.20303
G1 X-14.586 Y17.374 Z10.034 E870.47636
G1 X-16.561 Y10.57 Z10.085 E873.48334
G1 X-18.714 Y6.71 Z10.117 E875.35923
G1 X-20.873 Y-1.002 Z10.175 E878.75823
G1 X-22.374 Y-3.979 Z10.199 E880.17326
G1 X-11.749 Y-14.725 Z10.309 E886.58709
G1 X-7.727 Y-21.414 Z10.366 E889.89975
G1 X6.878 Y-17.488 Z10.476 E896.31852
G1 X14.727 Y-17.41 Z10.533 E899.64999
G1 X16.538 Y-10.556 Z10.584 E902.65883
G1 X18.741 Y-6.717 Z10.616 E904.53741
G1 X20.747 Y1.074 Z10.675 E907.95195
G1 X22.475 Y4.083 Z10.7 E909.42465
;TIME_ELAPSED:97.665084
;LAYER:10
;note -- min layer time used
;TYPE:WALL-OUTER
;MESH:Twisted_Vase_Basic.stl
G1 F1652.4 X10.555 Y16.492 Z10.825 E916.72759
G1 X7.327 Y21.452 Z10.868 E919.23929
G1 X-9.005 Y17.338 Z10.99 E926.38752
G1 X-14.962 Y17.082 Z11.034 E928.91815
G1 X-17.154 Y9.431 Z11.091 E932.29606
G1 X-18.87 Y6.329 Z11.117 E933.80065
G1 X-21.244 Y-2.232 Z11.182 E937.57127
G1 X-22.308 Y-4.451 Z11.199 E938.61573
G1 X-10.429 Y-16.419 Z11.322 E945.77259
G1 X-7.286 Y-21.594 Z11.366 E948.34234
G1 X9.005 Y-17.192 Z11.488 E955.50461
G1 X15.104 Y-17.118 Z11.533 E958.09336
G1 X17.13 Y-9.416 Z11.591 E961.47348
G1 X18.897 Y-6.336 Z11.616 E962.98056
G1 X21.119 Y2.305 Z11.681 E966.76732
G1 X22.41 Y4.555 Z11.7 E967.86831
;TIME_ELAPSED:102.677122
;LAYER:11
;note -- min layer time used
;TYPE:WALL-OUTER
;MESH:Twisted_Vase_Basic.stl
G1 F1652.6 X9.236 Y18.185 Z11.838 E975.91371
G1 X6.886 Y21.632 Z11.868 E977.68434
G1 X-11.131 Y17.042 Z12.003 E985.57545
G1 X-15.339 Y16.79 Z12.034 E987.36463
G1 X-17.747 Y8.291 Z12.098 E991.1138
G1 X-19.026 Y5.947 Z12.117 E992.24711
G1 X-21.616 Y-3.462 Z12.188 E996.38905
G1 X-22.244 Y-4.922 Z12.199 E997.0636
G1 X-9.11 Y-18.113 Z12.335 E1004.96411
G1 X-6.845 Y-21.774 Z12.366 E1006.79126
G1 X11.131 Y-16.897 Z12.501 E1014.69652
G1 X15.48 Y-16.826 Z12.533 E1016.54259
G1 X17.723 Y-8.277 Z12.597 E1020.2938
G1 X19.053 Y-5.954 Z12.616 E1021.42989
G1 X21.49 Y3.535 Z12.688 E1025.58796
G1 X22.346 Y5.026 Z12.7 E1026.31765
;TIME_ELAPSED:107.688975
;LAYER:12
;note -- min layer time used
;TYPE:WALL-OUTER
;MESH:Twisted_Vase_Basic.stl
G1 F1653 X7.917 Y19.878 Z12.85 E1035.10618
G1 X6.445 Y21.812 Z12.868 E1036.13773
G1 X-13.257 Y16.747 Z13.016 E1044.77164
G1 X-15.715 Y16.498 Z13.034 E1045.82022
G1 X-18.34 Y7.151 Z13.104 E1049.94078
G1 X-19.181 Y5.565 Z13.117 E1050.7027
G1 X-21.987 Y-4.693 Z13.194 E1055.21639
G1 X-22.179 Y-5.394 Z13.2 E1055.52488
G1 X-7.791 Y-19.806 Z13.347 E1064.16814
G1 X-6.404 Y-21.954 Z13.366 E1065.25335
G1 X13.257 Y-16.601 Z13.514 E1073.90171
G1 X15.856 Y-16.534 Z13.533 E1075.00516
G1 X18.316 Y-7.137 Z13.603 E1079.12787
G1 X19.208 Y-5.572 Z13.616 E1079.89241
G1 X21.861 Y4.766 Z13.694 E1084.42229
G1 X22.281 Y5.499 Z13.7 E1084.78084
;TIME_ELAPSED:112.699696
;LAYER:13
;note -- min layer time used
;TYPE:WALL-OUTER
;MESH:Twisted_Vase_Basic.stl
G1 F1654.4 X6.599 Y21.571 Z13.863 E1094.31136
G1 X6.004 Y21.992 Z13.868 E1094.62071
G1 X-15.383 Y16.451 Z14.028 E1103.99758
G1 X-16.09 Y16.207 Z14.034 E1104.31501
G1 X-18.933 Y6.011 Z14.111 E1108.80752
G1 X-19.337 Y5.183 Z14.117 E1109.19854
G1 X-22.122 Y-5.859 Z14.2 E1114.0318
G1 X-6.472 Y-21.498 Z14.36 E1123.42205
G1 X-5.963 Y-22.133 Z14.366 E1123.76746
G1 X15.383 Y-16.305 Z14.527 E1133.15882
G1 X16.232 Y-16.243 Z14.533 E1133.52012
G1 X18.909 Y-5.997 Z14.61 E1138.01475
G1 X19.364 Y-5.19 Z14.616 E1138.40794
G1 X22.223 Y5.963 Z14.7 E1143.2946
;TIME_ELAPSED:117.709380
;LAYER:14
;note -- min layer time used
;TYPE:WALL-OUTER
;MESH:Twisted_Vase_Basic.stl
G1 F1664.4 X5.82 Y22.243 Z14.867 E1153.10327
G1 X-16.4 Y16.172 Z15.033 E1162.87965
G1 X-19.477 Y4.836 Z15.117 E1167.86501
G1 X-19.496 Y4.788 Z15.118 E1167.88692
G1 X-22.251 Y-6.14 Z15.199 E1172.67015
G1 X-5.779 Y-22.384 Z15.366 E1182.4889
G1 X16.542 Y-16.208 Z15.533 E1192.31842
G1 X19.498 Y-4.841 Z15.617 E1197.30331
G1 X19.524 Y-4.795 Z15.618 E1197.32574
G1 X22.353 Y6.244 Z15.7 E1202.16236
;TIME_ELAPSED:122.719048
;LAYER:15
;note -- min layer time used
;TYPE:WALL-OUTER
;MESH:Twisted_Vase_Basic.stl
G1 F1662.8 X21.685 Y6.895 Z15.707 E1202.55825
G1 X5.511 Y22.396 Z15.868 E1212.06648
G1 X4.882 Y22.187 Z15.873 E1212.34779
G1 X-16.645 Y15.95 Z16.035 E1221.86012
G1 X-19.495 Y4.817 Z16.118 E1226.73761
G1 X-19.607 Y4.018 Z16.124 E1227.08004
G1 X-22.133 Y-6.408 Z16.201 E1231.63311
G1 X-21.595 Y-6.803 Z16.206 E1231.91638
G1 X-5.521 Y-22.363 Z16.367 E1241.41142
G1 X-4.917 Y-22.063 Z16.372 E1241.69765
G1 X16.628 Y-15.945 Z16.534 E1251.2034
G1 X19.478 Y-4.806 Z16.617 E1256.08335
G1 X19.475 Y-3.984 Z16.623 E1256.43223
G1 X22.108 Y6.383 Z16.7 E1260.97193
;TIME_ELAPSED:127.729531
;LAYER:16
;note -- min layer time used
;TYPE:WALL-OUTER
;MESH:Twisted_Vase_Basic.stl
G1 F1654.4 X19.982 Y8.195 Z16.72 E1262.15753
G1 X5.18 Y22.185 Z16.868 E1270.80182
G1 X2.907 Y21.356 Z16.886 E1271.8287
G1 X-16.773 Y15.549 Z17.034 E1280.5374
G1 X-16.884 Y14.842 Z17.04 E1280.84115
G1 X-19.489 Y4.394 Z17.118 E1285.41129
G1 X-19.644 Y2.736 Z17.13 E1286.11805
