;FLAVOR:Marlin
;TIME:547
;Filament used: 10.4506m
;Layer height: 1
;MINX:-45.103
;MINY:-45.148
;MINZ:0.7
;MAXX:45.061
;MAXY:45.115
;MAXZ:70.7
;TARGET_MACHINE.NAME:Unknown
;Generated with Cura_SteamEngine 5.11.0
M140 S60
M105
M190 S60
M104 S200
M105
M109 S200
G28 ;Home
M302 S0 ;Set cold extrusion
M92 E400 ;E Steps at 400 steps/mm M92 E-400 reverse
G1 Z15.0 F6000 ;Move the platform down 15mm
;Prime the extruder
G92 E0
G1 F200 E3
G92 E0
M82 ;absolute extrusion mode
G92 E0
G92 E0
G1 F1500 E-6.5
;LAYER_COUNT:70
;LAYER:0
M107
G1 F600 Z1.7
;MESH:vase_geo_slim.stl
G0 F960 X0.00 Y0.000 Z1.7
G0 X3.72 Y25.739
;TYPE:WALL-INNER
G1 F600 Z0.7
G1 F1500 E0
G1 F1200 X4.377 Y25.475 E0.23308
G1 X5.383 Y25.178 E0.57837
G1 X5.927 Y25.067 E0.76114
G1 X6.873 Y24.955 E1.07472
G1 X8.294 Y24.961 E1.5425
G1 X9.086 Y24.343 E1.87319
G1 X9.811 Y23.871 E2.15797
G1 X10.424 Y23.557 E2.38469
G1 X11.685 Y23.04 E2.83333
G1 X12.563 Y22.812 E3.13194
G1 X13.294 Y22.695 E3.37564
G1 X14.031 Y21.822 E3.75173
G1 X14.482 Y21.381 E3.95937
G1 X15.22 Y20.763 E4.27624
G1 X16.374 Y20.026 E4.72698
G1 X16.886 Y19.768 E4.91571
G1 X17.723 Y19.439 E5.21176
G1 X18.243 Y18.456 E5.57784
G1 X18.701 Y17.78 E5.84663
G1 X19.279 Y17.069 E6.14826
G1 X19.917 Y16.422 E6.44738
G1 X20.562 Y15.879 E6.72492
G1 X21.381 Y15.323 E7.05078
G1 X21.617 Y14.432 E7.3542
G1 X22.246 Y12.983 E7.87419
G1 X22.58 Y12.388 E8.09881
G1 X23.262 Y11.459 E8.47818
G1 X24.098 Y10.547 E8.88544
G1 X24.157 Y9.566 E9.20896
G1 X24.322 Y8.562 E9.54389
G1 X24.755 Y7.216 E10.00934
G1 X25.151 Y6.308 E10.33542
G1 X25.764 Y5.3 E10.72378
G1 X25.583 Y3.819 E11.21493
G1 X25.598 Y2.881 E11.52375
G1 X25.775 Y1.592 E11.95205
G1 X25.991 Y0.674 E12.26249
G1 X26.302 Y-.166 E12.55735
G1 X25.889 Y-1.325 E12.96238
G1 X25.659 Y-2.427 E13.33295
G1 X25.527 Y-3.783 E13.78144
G1 X25.581 Y-4.867 E14.13872
G1 X25.694 Y-5.637 E14.3949
G1 X25.154 Y-6.499 E14.72974
G1 X24.709 Y-7.393 E15.05848
G1 X24.425 Y-8.149 E15.32432
G1 X24.193 Y-8.984 E15.6096
G1 X24.083 Y-9.627 E15.82434
G1 X23.965 Y-10.85 E16.22881
G1 X23.138 Y-11.73 E16.62633
G1 X22.402 Y-12.725 E17.03374
G1 X21.841 Y-13.719 E17.40947
G1 X21.567 Y-14.388 E17.64745
G1 X21.165 Y-15.604 E18.06904
G1 X20.324 Y-16.17 E18.40275
G1 X19.756 Y-16.634 E18.64418
G1 X18.799 Y-17.605 E19.09297
G1 X18.187 Y-18.415 E19.42716
G1 X17.675 Y-19.245 E19.74819
G1 X17.472 Y-19.66 E19.90027
G1 X16.884 Y-19.881 E20.10705
G1 X15.978 Y-20.309 E20.43689
G1 X15.118 Y-20.852 E20.7717
G1 X14.202 Y-21.581 E21.15707
G1 X13.65 Y-22.1 E21.40648
G1 X13.006 Y-22.862 E21.73491
G1 X11.985 Y-23.031 E22.07558
G1 X10.558 Y-23.493 E22.56933
G1 X9.444 Y-24.011 E22.97375
G1 X8.36 Y-24.755 E23.40655
G1 X7.961 Y-25.068 E23.57348
G1 X6.715 Y-25.048 E23.9837
G1 X5.393 Y-25.182 E24.42111
G1 X4.454 Y-25.399 E24.73836
G1 X3.84 Y-25.612 E24.9523
G1 X2.557 Y-26.176 E25.41365
G1 X1.058 Y-25.835 E25.9197
G1 X0.087 Y-25.752 E26.24051
G1 X-1.207 Y-25.806 E26.66684
G1 X-1.972 Y-25.906 E26.92081
G1 X-2.917 Y-26.142 E27.24145
G1 X-3.477 Y-25.851 E27.44919
G1 X-4.126 Y-25.586 E27.67996
G1 X-5.376 Y-25.168 E28.11383
G1 X-6.459 Y-24.994 E28.47491
G1 X-7.132 Y-24.938 E28.69722
G1 X-8.291 Y-24.966 E29.07886
G1 X-9.512 Y-24.051 E29.58113
G1 X-10.342 Y-23.583 E29.89479
G1 X-11.803 Y-23.014 E30.41092
G1 X-12.794 Y-22.767 E30.74712
G1 X-13.298 Y-22.694 E30.91476
G1 X-14.213 Y-21.635 E31.37547
G1 X-15.15 Y-20.829 E31.78233
G1 X-16.096 Y-20.201 E32.15611
G1 X-16.943 Y-19.745 E32.47277
G1 X-17.755 Y-19.425 E32.76007
G1 X-18.376 Y-18.246 E33.19873
G1 X-18.933 Y-17.475 E33.51183
G1 X-19.888 Y-16.464 E33.96964
G1 X-20.341 Y-16.053 E34.17099
G1 X-21.376 Y-15.327 E34.58716
G1 X-21.671 Y-14.296 E34.94017
G1 X-21.86 Y-13.795 E35.11643
G1 X-22.256 Y-12.953 E35.42273
G1 X-22.618 Y-12.331 E35.65964
G1 X-23.309 Y-11.375 E36.04794
G1 X-24.097 Y-10.542 E36.4254
G1 X-24.129 Y-9.867 E36.64785
G1 X-24.295 Y-8.727 E37.02708
G1 X-24.457 Y-8.094 E37.24217
G1 X-24.903 Y-6.854 E37.67596
G1 X-25.324 Y-5.987 E37.99323
G1 X-25.764 Y-5.3 E38.26178
G1 X-25.633 Y-4.449 E38.54522
G1 X-25.583 Y-3.799 E38.75982
G1 X-25.601 Y-2.77 E39.09861
G1 X-25.689 Y-1.999 E39.35406
G1 X-25.897 Y-1 E39.68996
G1 X-26.302 Y0.164 E40.09567
G1 X-25.845 Y1.484 E40.55549
G1 X-25.67 Y2.347 E40.84536
G1 X-25.553 Y3.53 E41.23669
G1 X-25.543 Y4.377 E41.51553
G1 X-25.695 Y5.636 E41.93298
G1 X-24.949 Y6.874 E42.40878
G1 X-24.688 Y7.443 E42.61485
G1 X-24.389 Y8.258 E42.90062
G1 X-24.121 Y9.364 E43.27524
G1 X-23.992 Y10.467 E43.6408
G1 X-23.965 Y10.847 E43.76621
G1 X-23.044 Y11.801 E44.20272
G1 X-22.357 Y12.78 E44.59642
G1 X-21.949 Y13.501 E44.86913
G1 X-21.573 Y14.33 E45.16878
G1 X-21.179 Y15.598 E45.60587
G1 X-20.244 Y16.236 E45.97849
G1 X-19.342 Y17.03 E46.37406
G1 X-18.812 Y17.586 E46.62692
G1 X-18.355 Y18.172 E46.87155
G1 X-17.679 Y19.26 E47.29321
G1 X-17.472 Y19.656 E47.4403
G1 X-16.167 Y20.209 E47.90686
G1 X-15.664 Y20.495 E48.09734
G1 X-14.48 Y21.342 E48.57655
G1 X-13.98 Y21.77 E48.79321
G1 X-13.445 Y22.324 E49.04674
G1 X-13.013 Y22.863 E49.27412
G1 X-12.543 Y22.926 E49.43022
G1 X-11.691 Y23.126 E49.71831
G1 X-10.941 Y23.359 E49.97684
G1 X-10.153 Y23.662 E50.25475
G1 X-9.209 Y24.172 E50.60795
G1 X-8.359 Y24.755 E50.94725
G1 X-7.96 Y25.068 E51.11419
G1 X-7.017 Y25.02 E51.42501
G1 X-5.596 Y25.152 E51.8948
G1 X-4.935 Y25.272 E52.11595
G1 X-3.962 Y25.55 E52.44906
G1 X-2.58 Y26.181 E52.94917
G1 X-1.594 Y25.932 E53.28393
G1 X-.871 Y25.811 E53.52525
G1 X0.109 Y25.76 E53.84828
G1 X1.389 Y25.823 E54.27015
G1 X1.935 Y25.9 E54.45166
G1 X2.915 Y26.141 E54.78388
G1 X3.72 Y25.739 E55.08007
G0 F960 X2.836 Y27.571
G0 X2.379 Y29.115
G1 F1200 X3.292 Y29.526 E55.40967
G1 X4.288 Y28.81 E55.81346
G1 X5.362 Y28.309 E56.20358
G1 X6.074 Y28.097 E56.44813
G1 X7.057 Y27.95 E56.77532
G1 X7.485 Y27.932 E56.91633
G1 X8.498 Y27.999 E57.25053
G1 X9.377 Y28.199 E57.54727
G1 X9.761 Y27.717 E57.75014
G1 X10.227 Y27.255 E57.96615
G1 X11.22 Y26.522 E58.37244
G1 X11.69 Y26.277 E58.54692
G1 X12.541 Y25.933 E58.84908
G1 X13.072 Y25.772 E59.03173
G1 X14.298 Y25.613 E59.43869
G1 X15.021 Y25.634 E59.67679
G1 X15.502 Y24.766 E60.00346
G1 X16.152 Y23.948 E60.3474
G1 X16.991 Y23.185 E60.72071
G1 X17.726 Y22.708 E61.00915
G1 X18.247 Y22.446 E61.20112
G1 X19.069 Y22.147 E61.48905
G1 X20.018 Y21.96 E61.80746
G1 X20.397 Y20.797 E62.21012
G1 X20.762 Y20.092 E62.47145
G1 X21.089 Y19.596 E62.66702
G1 X21.826 Y18.742 E63.03835
G1 X22.636 Y18.077 E63.38334
G1 X23.374 Y17.635 E63.66652
G1 X24.149 Y17.306 E63.94367
G1 X24.277 Y16.131 E64.33275
G1 X24.418 Y15.562 E64.52572
G1 X24.865 Y14.459 E64.9175
G1 X25.326 Y13.68 E65.21547
G1 X26.187 Y12.699 E65.64514
G1 X26.541 Y12.38 E65.802
G1 X27.233 Y11.897 E66.0798
G1 X27.11 Y11.05 E66.36154
G1 X27.14 Y9.882 E66.74616
G1 X27.251 Y9.258 E66.95479
G1 X27.597 Y8.18 E67.32749
G1 X27.981 Y7.391 E67.61634
G1 X28.525 Y6.607 E67.93047
G1 X29.102 Y5.981 E68.21072
G1 X28.738 Y4.859 E68.59901
G1 X28.659 Y4.462 E68.73226
G1 X28.576 Y3.559 E69.03077
G1 X28.589 Y3.116 E69.17666
G1 X28.816 Y1.708 E69.64614
G1 X28.979 Y1.21 E69.81863
G1 X29.338 Y0.409 E70.10758
G1 X29.71 Y-.195 E70.34109
G1 X29.11 Y-1.226 E70.73377
G1 X28.821 Y-1.996 E71.00451
G1 X28.662 Y-2.632 E71.22031
G1 X28.549 Y-3.683 E71.56828
G1 X28.552 Y-4.423 E71.81188
G1 X28.735 Y-5.52 E72.17798
G1 X29.018 Y-6.367 E72.47195
G1 X28.569 Y-6.828 E72.68379
G1 X28.188 Y-7.303 E72.88424
G1 X27.525 Y-8.439 E73.31722
G1 X27.253 Y-9.151 E73.56812
G1 X27.089 Y-9.803 E73.78944
G1 X26.955 Y-10.967 E74.17514
G1 X26.974 Y-11.615 E74.38854
G1 X27.063 Y-12.265 E74.60451
G1 X26.535 Y-12.611 E74.81231
G1 X25.788 Y-13.256 E75.1372
G1 X25.444 Y-13.651 E75.30962
G1 X24.76 Y-14.608 E75.69684
G1 X24.467 Y-15.199 E75.91399
G1 X24.088 Y-16.333 E76.30758
G1 X23.948 Y-17.153 E76.58142
G1 X23.92 Y-17.635 E76.74035
G1 X22.844 Y-18.096 E77.1257
G1 X21.836 Y-18.799 E77.53024
G1 X21.221 Y-19.391 E77.81124
G1 X20.543 Y-20.283 E78.18007
G1 X20.273 Y-20.753 E78.3585
G1 X19.879 Y-21.685 E78.69159
G1 X19.735 Y-22.214 E78.87206
G1 X19.205 Y-22.295 E79.04856
G1 X18.263 Y-22.56 E79.37069
G1 X17.528 Y-22.884 E79.6351
G1 X16.907 Y-23.26 E79.87408
G1 X15.814 Y-24.178 E80.34394
G1 X15.187 Y-24.951 E80.67159
G1 X14.682 Y-25.831 E81.00558
G1 X14.28 Y-25.801 E81.13828
G1 X13.492 Y-25.828 E81.39783
G1 X12.943 Y-25.903 E81.58023
G1 X11.804 Y-26.233 E81.97059
G1 X10.982 Y-26.604 E82.26746
G1 X10.129 Y-27.178 E82.60591
G1 X9.727 Y-27.509 E82.77733
G1 X8.991 Y-28.318 E83.13736
G1 X8.423 Y-28.166 E83.33092
G1 X7.674 Y-28.054 E83.58022
G1 X7.007 Y-28.037 E83.79986
G1 X5.712 Y-28.174 E84.22853
G1 X5.137 Y-28.33 E84.42465
G1 X3.991 Y-28.829 E84.83611
G1 X3.592 Y-29.057 E84.98739
G1 X2.911 Y-29.57 E85.26805
G1 X2.133 Y-29.196 E85.55221
G1 X1.699 Y-29.048 E85.70316
G1 X0.519 Y-28.79 E86.10077
G1 X-0.098 Y-28.76 E86.30412
G1 X-.972 Y-28.797 E86.59208
G1 X-1.524 Y-28.875 E86.7756
G1 X-2.552 Y-29.177 E87.1283
G1 X-3.299 Y-29.529 E87.40013
G1 X-4.183 Y-28.88 E87.76114
G1 X-4.739 Y-28.573 E87.97021
G1 X-5.914 Y-28.149 E88.38141
G1 X-6.407 Y-28.029 E88.54844
G1 X-7.436 Y-27.928 E88.8888
G1 X-8.528 Y-28.006 E89.24919
G1 X-9.376 Y-28.199 E89.53547
G1 X-9.928 Y-27.536 E89.81946
G1 X-10.286 Y-27.206 E89.97974
G1 X-11.029 Y-26.643 E90.28661
G1 X-11.579 Y-26.329 E90.49509
G1 X-12.742 Y-25.848 E90.90938
G1 X-13.427 Y-25.703 E91.13987
G1 X-14.199 Y-25.617 E91.39558
G1 X-15.025 Y-25.634 E91.66754
G1 X-15.555 Y-24.701 E92.02076
G1 X-15.901 Y-24.233 E92.21235
G1 X-16.679 Y-23.439 E92.57829
G1 X-17.685 Y-22.746 E92.98041
G1 X-18.193 Y-22.472 E93.17041
G1 X-19.024 Y-22.159 E93.46273
G1 X-20.028 Y-21.947 E93.80052
G1 X-20.267 Y-21.143 E94.07663
G1 X-20.78 Y-20.072 E94.46754
G1 X-20.983 Y-19.739 E94.59592
G1 X-21.389 Y-19.221 E94.81258
G1 X-22.071 Y-18.527 E95.13288
G1 X-22.671 Y-18.053 E95.38459
G1 X-23.358 Y-17.646 E95.64744
G1 X-24.15 Y-17.311 E95.93052
G1 X-24.3 Y-15.997 E96.36588
G1 X-24.626 Y-14.957 E96.72466
G1 X-24.952 Y-14.272 E96.97438
G1 X-25.53 Y-13.401 E97.31849
G1 X-25.913 Y-12.965 E97.50953
G1 X-26.533 Y-12.389 E97.78811
G1 X-27.221 Y-11.902 E98.06558
G1 X-27.097 Y-10.728 E98.45419
G1 X-27.116 Y-10.153 E98.64358
G1 X-27.192 Y-9.554 E98.84234
G1 X-27.359 Y-8.866 E99.0754
G1 X-27.755 Y-7.815 E99.44511
G1 X-28.125 Y-7.159 E99.69304
G1 X-28.532 Y-6.599 E99.92093
G1 X-29.115 Y-5.974 E100.20228
G1 X-28.815 Y-5.166 E100.486
G1 X-28.702 Y-4.695 E100.64545
G1 X-28.58 Y-3.646 E100.99309
G1 X-28.626 Y-2.638 E101.32526
G1 X-28.882 Y-1.486 E101.71373
G1 X-29.246 Y-.592 E102.03148
G1 X-29.709 Y0.194 E102.33177
G1 X-29.098 Y1.253 E102.73424
G1 X-28.818 Y2.006 E102.9987
G1 X-28.65 Y2.703 E103.23471
G1 X-28.549 Y3.682 E103.55869
G1 X-28.54 Y4.241 E103.74273
G1 X-28.733 Y5.509 E104.16494
G1 X-29.018 Y6.366 E104.46225
G1 X-28.286 Y7.168 E104.81968
G1 X-27.745 Y8.011 E105.14942
G1 X-27.478 Y8.547 E105.34654
G1 X-27.25 Y9.16 E105.56183
G1 X-27.113 Y9.677 E105.7379
G1 X-26.966 Y10.902 E106.14404
G1 X-26.967 Y11.53 E106.35077
G1 X-27.063 Y12.26 E106.59314
G1 X-26.227 Y12.85 E106.92997
G1 X-25.439 Y13.633 E107.29566
G1 X-24.816 Y14.506 E107.64871
G1 X-24.267 Y15.694 E108.07952
G1 X-23.993 Y16.801 E108.45492
G1 X-23.919 Y17.625 E108.72726
G1 X-23.376 Y17.833 E108.91867
G1 X-22.629 Y18.225 E109.19638
G1 X-22.057 Y18.636 E109.42824
G1 X-21.403 Y19.21 E109.71468
G1 X-20.777 Y19.944 E110.03225
G1 X-20.136 Y21.033 E110.44822
G1 X-19.946 Y21.506 E110.61602
G1 X-19.736 Y22.208 E110.85722
G1 X-18.73 Y22.404 E111.19461
G1 X-17.692 Y22.801 E111.56044
G1 X-17.246 Y23.044 E111.72763
G1 X-16.307 Y23.721 E112.1087
G1 X-15.894 Y24.093 E112.29167
G1 X-15.238 Y24.89 E112.63147
G1 X-14.949 Y25.328 E112.80421
G1 X-14.687 Y25.832 E112.9912
G1 X-14.133 Y25.8 E113.17387
G1 X-13.444 Y25.832 E113.40093
G1 X-12.606 Y25.984 E113.68129
G1 X-11.577 Y26.316 E114.03721
G1 X-10.982 Y26.604 E114.25481
G1 X-10.015 Y27.263 E114.64003
G1 X-9.488 Y27.746 E114.87535
G1 X-8.991 Y28.318 E115.12479
G1 X-8.423 Y28.166 E115.31834
G1 X-7.673 Y28.054 E115.56797
G1 X-7.007 Y28.037 E115.78728
G1 X-6.099 Y28.112 E116.0872
G1 X-5.619 Y28.193 E116.24744
G1 X-4.946 Y28.401 E116.47932
G1 X-3.811 Y28.924 E116.8907
G1 X-2.91 Y29.57 E117.25565
G1 X-1.892 Y29.108 E117.62366
G1 X-.954 Y28.863 E117.94279
G1 X-.52 Y28.79 E118.08767
G1 X0.098 Y28.76 E118.29134
G1 X1.082 Y28.807 E118.61563
G1 X1.767 Y28.932 E118.84484
G1 X2.379 Y29.115 E119.05512
G0 F960 X2.837 Y27.571
G0 X-.121 Y29.467
G0 X-3.086 Y31.429
G0 X-2.188 Y32.738
;TYPE:WALL-OUTER
G1 F1200 X-1.541 Y32.238 E119.32429
G1 X-1.02 Y31.982 E119.51538
G1 X-.101 Y31.763 E119.82637
G1 X0.774 Y31.791 E120.11456
G1 X1.415 Y31.955 E120.33236
G1 X1.981 Y32.224 E120.53865
G1 X2.362 Y32.486 E120.69086
G1 X2.824 Y32.927 E120.90111
G1 X3.244 Y33.529 E121.14274
G1 X4.244 Y33.42 E121.47388
G1 X4.375 Y33.02 E121.61243
G1 X4.652 Y32.497 E121.80725
G1 X5.223 Y31.823 E122.09804
G1 X5.74 Y31.437 E122.31043
G1 X6.216 Y31.195 E122.48621
G1 X6.808 Y31.006 E122.69078
G1 X7.415 Y30.932 E122.89207
G1 X8.028 Y30.962 E123.0941
G1 X8.58 Y31.087 E123.28041
G1 X9.068 Y31.285 E123.45378
G1 X9.689 Y31.679 E123.69587
G1 X10.145 Y32.121 E123.90492
G1 X11.091 Y31.81 E124.23273
G1 X11.146 Y31.373 E124.37772
G1 X11.341 Y30.746 E124.59387
G1 X11.638 Y30.179 E124.80457
G1 X12.132 Y29.575 E125.06143
G1 X12.719 Y29.122 E125.30551
G1 X13.625 Y28.731 E125.63034
G1 X14.384 Y28.612 E125.88325
G1 X14.915 Y28.632 E126.05817
G1 X15.484 Y28.747 E126.24926
G1 X16.193 Y29.047 E126.50269
G1 X16.584 Y29.319 E126.65948
G1 X17.47 Y28.803 E126.99699
G1 X17.428 Y28.383 E127.13594
G1 X17.487 Y27.704 E127.3603
G1 X17.719 Y26.947 E127.62093
G1 X18.096 Y26.29 E127.87028
G1 X18.481 Y25.854 E128.06175
G1 X18.899 Y25.506 E128.2408
G1 X19.421 Y25.207 E128.43883
G1 X20.127 Y24.97 E128.68397
G1 X21.117 Y24.897 E129.01075
G1 X21.61 Y24.967 E129.17467
G1 X22.341 Y25.223 E129.42963
G1 X23.075 Y24.541 E129.75945
G1 X22.948 Y24.144 E129.89667
G1 X22.868 Y23.487 E130.11454
G1 X22.947 Y22.602 E130.40702
G1 X23.118 Y22.067 E130.59191
G1 X23.368 Y21.577 E130.773
G1 X23.851 Y20.958 E131.03145
G1 X24.326 Y20.556 E131.2363
G1 X24.884 Y20.238 E131.44772
G1 X25.312 Y20.075 E131.59848
G1 X26.04 Y19.941 E131.84215
G1 X27.09 Y20.018 E132.18872
G1 X27.671 Y19.212 E132.5158
G1 X27.459 Y18.823 E132.66163
G1 X27.221 Y18.094 E132.91407
G1 X27.148 Y17.469 E133.12121
G1 X27.267 Y16.504 E133.44128
G1 X27.564 Y15.771 E133.70163
G1 X27.81 Y15.373 E133.85565
G1 X28.428 Y14.713 E134.15329
G1 X28.86 Y14.416 E134.32586
G1 X29.889 Y14.022 E134.68857
G1 X30.66 Y13.953 E134.94339
G1 X31.065 Y13.033 E135.27429
G1 X30.784 Y12.719 E135.413
G1 X30.502 Y12.281 E135.58448
G1 X30.231 Y11.615 E135.82117
G1 X30.1 Y10.804 E136.0916
G1 X30.131 Y10.138 E136.31107
G1 X30.431 Y9.171 E136.64436
G1 X30.781 Y8.591 E136.86736
G1 X31.196 Y8.127 E137.07228
G1 X31.677 Y7.755 E137.27245
G1 X32.242 Y7.462 E137.48196
G1 X32.888 Y7.275 E137.70334
G1 X33.093 Y6.293 E138.03357
G1 X32.74 Y6.028 E138.17887
G1 X32.171 Y5.38 E138.46275
G1 X31.834 Y4.736 E138.70201
G1 X31.651 Y4.143 E138.9063
G1 X31.578 Y3.562 E139.09906
G1 X31.702 Y2.534 E139.43992
G1 X31.936 Y1.917 E139.65714
G1 X32.338 Y1.288 E139.90288
G1 X32.722 Y0.887 E140.08564
G1 X33.326 Y0.455 E140.33009
G1 X33.682 Y0.28 E140.46067
G1 X33.679 Y-.727 E140.79217
G1 X33.295 Y-.899 E140.93067
G1 X32.767 Y-1.265 E141.14216
G1 X32.125 Y-1.971 E141.45628
G1 X31.804 Y-2.558 E141.67652
G1 X31.634 Y-3.065 E141.85255
G1 X31.541 Y-4.165 E142.21594
G1 X31.634 Y-4.747 E142.40996
G1 X31.809 Y-5.271 E142.59182
G1 X32.093 Y-5.799 E142.78918
G1 X32.471 Y-6.276 E142.98952
G1 X33.013 Y-6.736 E143.22354
G1 X32.788 Y-7.715 E143.55421
G1 X32.113 Y-7.9 E143.7846
G1 X31.577 Y-8.165 E143.98143
G1 X31.102 Y-8.522 E144.17704
G1 X30.685 Y-8.97 E144.37851
G1 X30.336 Y-9.523 E144.59377
G1 X30.074 Y-10.184 E144.82783
G1 X29.957 Y-11.283 E145.19165
G1 X30.051 Y-11.915 E145.40198
G1 X30.231 Y-12.458 E145.59029
G1 X30.505 Y-12.967 E145.78058
G1 X30.896 Y-13.429 E145.97982
G1 X30.472 Y-14.356 E146.31538
G1 X30.032 Y-14.367 E146.46027
G1 X29.446 Y-14.477 E146.65654
G1 X28.89 Y-14.679 E146.85127
G1 X28.303 Y-15.037 E147.0776
G1 X27.934 Y-15.352 E147.23731
G1 X27.362 Y-16.102 E147.54781
G1 X27.212 Y-16.421 E147.66385
