;FLAVOR:Marlin
;TIME:565
;Filament used: 10.2561m
;Layer height: 1
;MINX:-41.443
;MINY:-41.603
;MINZ:0.7
;MAXX:41.445
;MAXY:41.706
;MAXZ:72.7
;TARGET_MACHINE.NAME:Unknown
;Generated with Cura_SteamEngine 5.11.0
M140 S60
M105
M190 S60
M104 S200
M105
M109 S200
G28 ;Home
M302 S0 ;Set cold extrusion
M92 E400 ;E Steps at 400 steps/mm M92 E-400 reverse
G1 Z15.0 F6000 ;Move the platform down 15mm
;Prime the extruder
G92 E0
G1 F200 E3
G92 E0
M82 ;absolute extrusion mode
G92 E0
G92 E0
G1 F1500 E-6.5
;LAYER_COUNT:72
;LAYER:0
M107
G1 F600 Z1.7
;MESH:Geometric Origami Pot.stl
G0 F960 X0.00 Y0.000 Z1.7
G0 X6.603 Y32.053
;TYPE:WALL-INNER
G1 F600 Z0.7
G1 F1500 E0
G1 F1200 X7.479 Y31.74 E0.30622
G1 X8.524 Y31.512 E0.65831
G1 X9.105 Y31.448 E0.85072
G1 X16.367 Y31.182 E3.24287
G1 X20.752 Y25.297 E5.65877
G1 X21.131 Y24.869 E5.84696
G1 X21.763 Y24.273 E6.13292
G1 X22.677 Y23.615 E6.50365
G1 X28.984 Y20.004 E8.89602
G1 X30.133 Y12.761 E11.31012
G1 X30.308 Y12.078 E11.54222
G1 X30.571 Y11.337 E11.80105
G1 X30.778 Y10.883 E11.96531
G1 X31.172 Y10.186 E12.22887
G1 X34.959 Y4.245 E14.54809
G1 X32.639 Y-2.634 E16.93787
G1 X32.413 Y-3.596 E17.26316
G1 X32.333 Y-4.255 E17.48169
G1 X32.329 Y-5.346 E17.84083
G1 X32.928 Y-12.487 E20.19979
G1 X27.672 Y-17.504 E22.59168
G1 X27.026 Y-18.249 E22.91628
G1 X26.475 Y-19.087 E23.24642
G1 X26.093 Y-19.864 E23.53144
G1 X23.353 Y-26.36 E25.85226
G1 X16.466 Y-28.327 E28.21001
G1 X15.589 Y-28.652 E28.51789
G1 X14.51 Y-29.241 E28.92256
G1 X14.037 Y-29.575 E29.11317
G1 X8.427 Y-34.192 E31.50489
G1 X1.243 Y-32.697 E33.92042
G1 X0.116 Y-32.6 E34.29278
G1 X-.668 Y-32.629 E34.55104
G1 X-1.215 Y-32.699 E34.73257
G1 X-8.425 Y-34.193 E37.15641
G1 X-13.867 Y-29.715 E39.47635
G1 X-14.452 Y-29.28 E39.71633
G1 X-15.446 Y-28.717 E40.09238
G1 X-16.366 Y-28.358 E40.41747
G1 X-23.353 Y-26.36 E42.80968
G1 X-26.137 Y-19.762 E45.16707
G1 X-26.674 Y-18.756 E45.54246
G1 X-27.279 Y-17.933 E45.8787
G1 X-27.747 Y-17.429 E46.10511
G1 X-32.93 Y-12.486 E48.46278
G1 X-32.325 Y-5.354 E50.81896
G1 X-32.322 Y-4.363 E51.14519
G1 X-32.427 Y-3.497 E51.43235
G1 X-32.59 Y-2.765 E51.67921
G1 X-34.958 Y4.244 E54.11459
G1 X-31.111 Y10.284 E56.47191
G1 X-30.627 Y11.206 E56.81469
G1 X-30.356 Y11.921 E57.0664
G1 X-30.125 Y12.83 E57.37514
G1 X-28.984 Y20.005 E59.76672
G1 X-22.592 Y23.672 E62.19253
G1 X-21.796 Y24.249 E62.51616
G1 X-21.219 Y24.782 E62.77474
G1 X-20.75 Y25.301 E63.00501
G1 X-16.364 Y31.181 E65.41979
G1 X-9.209 Y31.445 E67.77671
G1 X-8.174 Y31.571 E68.11993
G1 X-7.569 Y31.714 E68.32457
G1 X-6.555 Y32.076 E68.679
G1 X0.00 Y35.218 E71.07188
G1 X6.603 Y32.053 E73.48229
G0 F960 X8.5 Y32.867
G0 X8.561 Y34.556
G1 F1200 X9.301 Y34.445 E73.72861
G1 X17.914 Y34.128 E76.5658
G1 X23.02 Y27.273 E79.37956
G1 X23.604 Y26.646 E79.66162
G1 X24.241 Y26.175 E79.9224
G1 X31.722 Y21.894 E82.75974
G1 X33.085 Y13.3 E85.62412
G1 X33.341 Y12.49 E85.90376
G1 X33.57 Y12.006 E86.08002
G1 X38.261 Y4.646 E88.95308
G1 X35.508 Y-3.511 E91.78705
G1 X35.356 Y-4.195 E92.01771
G1 X35.312 Y-5.034 E92.29427
G1 X36.038 Y-13.667 E95.14615
G1 X29.849 Y-19.57 E97.96158
G1 X29.496 Y-19.96 E98.13474
G1 X29.141 Y-20.47 E98.3393
G1 X28.925 Y-20.87 E98.48894
G1 X25.559 Y-28.85 E101.33996
G1 X17.332 Y-31.199 E104.15639
G1 X16.54 Y-31.522 E104.43795
G1 X15.965 Y-31.882 E104.66127
G1 X9.223 Y-37.422 E107.5338
G1 X0.794 Y-35.669 E110.36787
G1 X0.333 Y-35.611 E110.52082
G1 X-.227 Y-35.605 E110.70517
G1 X-.728 Y-35.659 E110.87105
G1 X-9.222 Y-37.422 E113.72674
G1 X-15.825 Y-31.99 E116.54134
G1 X-16.255 Y-31.686 E116.71469
G1 X-16.72 Y-31.433 E116.88895
G1 X-17.173 Y-31.244 E117.05053
G1 X-25.559 Y-28.85 E119.92136
G1 X-28.934 Y-20.858 E122.77717
G1 X-29.325 Y-20.187 E123.03282
G1 X-29.85 Y-19.569 E123.29975
G1 X-36.041 Y-13.665 E126.11588
G1 X-35.298 Y-4.907 E129.00924
G1 X-35.352 Y-4.198 E129.24331
G1 X-35.523 Y-3.455 E129.49428
G1 X-38.26 Y4.644 E132.30848
G1 X-33.577 Y11.996 E135.17791
G1 X-33.312 Y12.561 E135.38334
G1 X-33.062 Y13.447 E135.68639
G1 X-31.722 Y21.895 E138.5021
G1 X-24.24 Y26.18 E141.34039
G1 X-23.62 Y26.636 E141.59374
G1 X-23.096 Y27.18 E141.84238
G1 X-17.91 Y34.127 E144.69615
G1 X-9.181 Y34.448 E147.57155
G1 X-8.608 Y34.545 E147.76286
G1 X-7.823 Y34.799 E148.03446
G1 X0.00 Y38.544 E150.88954
G1 X7.823 Y34.799 E153.74463
G1 X8.561 Y34.556 E154.00039
G0 F960 X8.501 Y32.867
G0 X9.442 Y37.443
;TYPE:WALL-OUTER
G1 F1200 X19.083 Y37.086 E157.17624
G1 X19.367 Y36.895 E157.2889
G1 X19.685 Y36.771 E157.40126
G1 X25.435 Y29.055 E160.56896
G1 X25.805 Y28.735 E160.72999
G1 X34.129 Y23.973 E163.88683
G1 X34.293 Y23.668 E164.00082
G1 X34.519 Y23.407 E164.11447
G1 X36.025 Y13.922 E167.2759
G1 X36.18 Y13.498 E167.42451
G1 X41.359 Y5.368 E170.59767
G1 X41.362 Y5.023 E170.71124
G1 X41.441 Y4.688 E170.82454
G1 X38.366 Y-4.425 E173.99058
G1 X38.312 Y-4.873 E174.13912
G1 X39.116 Y-14.472 E177.31003
G1 X38.961 Y-14.776 E177.42236
G1 X38.876 Y-15.106 E177.53454
G1 X31.877 Y-21.788 E180.7199
G1 X31.667 Y-22.088 E180.84045
G1 X27.912 Y-30.99 E184.02089
G1 X27.629 Y-31.188 E184.13458
G1 X27.398 Y-31.444 E184.24809
G1 X18.198 Y-34.071 E187.39764
G1 X17.812 Y-34.239 E187.53621
G1 X10.308 Y-40.414 E190.73525
G1 X9.97 Y-40.459 E190.8475
G1 X9.649 Y-40.575 E190.95985
G1 X0.23 Y-38.616 E194.12679
G1 X-.24 Y-38.619 E194.28151
G1 X-9.649 Y-40.575 E197.44503
G1 X-9.969 Y-40.459 E197.55708
G1 X-10.308 Y-40.414 E197.66965
G1 X-17.771 Y-34.274 E200.85095
G1 X-18.126 Y-34.095 E200.98182
G1 X-27.398 Y-31.445 E204.15624
G1 X-27.629 Y-31.188 E204.26999
G1 X-27.912 Y-30.989 E204.38387
G1 X-31.655 Y-22.122 E207.55216
G1 X-31.882 Y-21.776 E207.68838
G1 X-38.876 Y-15.106 E210.86983
G1 X-38.962 Y-14.774 E210.98272
G1 X-39.119 Y-14.467 E211.09623
G1 X-38.308 Y-4.878 E214.26406
G1 X-38.386 Y-4.351 E214.43943
G1 X-41.443 Y4.692 E217.58174
G1 X-41.366 Y5.02 E217.69264
G1 X-41.362 Y5.358 E217.80392
G1 X-36.198 Y13.467 E220.96859
G1 X-36.021 Y13.942 E221.13546
G1 X-34.52 Y23.403 E224.28883
G1 X-34.289 Y23.667 E224.4043
G1 X-34.124 Y23.976 E224.51961
G1 X-25.788 Y28.75 E227.68184
G1 X-25.469 Y29.01 E227.81731
G1 X-19.682 Y36.771 E231.00416
G1 X-19.362 Y36.895 E231.11714
G1 X-19.079 Y37.086 E231.22953
G1 X-9.518 Y37.437 E234.37898
G1 X-9.111 Y37.504 E234.51476
G1 X-.344 Y41.706 E237.7151
G1 X0.00 Y41.668 E237.82902
G1 X0.344 Y41.706 E237.94295
G1 X9.005 Y37.557 E241.10428
G1 X9.442 Y37.443 E241.25294
G0 F960 X10.94 Y37.388
G0 X10.771 Y32.783
G0 X5.514 Y29.413
;TYPE:SKIN
G1 F1200 X0.001 Y32.052 E243.26495
G1 X-5.503 Y29.417 E245.27371
G1 X-6.475 Y29.064 E245.61412
G1 X-7.67 Y28.766 E246.01955
G1 X-9.02 Y28.601 E246.46725
G1 X-14.89 Y28.383 E248.4009
G1 X-18.514 Y23.529 E250.39497
G1 X-19.312 Y22.654 E250.78481
G1 X-20.199 Y21.872 E251.17407
G1 X-21.061 Y21.257 E251.52264
G1 X-26.383 Y18.207 E253.54187
G1 X-27.347 Y12.148 E255.56148
G1 X-27.569 Y11.279 E255.85673
G1 X-27.82 Y10.541 E256.11334
G1 X-28.219 Y9.622 E256.44314
G1 X-28.68 Y8.793 E256.75539
G1 X-31.82 Y3.863 E258.67949
G1 X-29.942 Y-1.692 E260.60978
G1 X-29.746 Y-2.39 E260.84844
G1 X-29.533 Y-3.566 E261.24186
G1 X-29.456 Y-4.701 E261.61634
G1 X-29.478 Y-5.558 E261.89855
G1 X-29.972 Y-11.366 E263.81736
G1 X-25.467 Y-15.67 E265.86835
G1 X-24.683 Y-16.618 E266.27331
G1 X-24.24 Y-17.268 E266.53225
G1 X-23.669 Y-18.281 E266.91504
G1 X-21.257 Y-23.994 E268.95641
G1 X-15.249 Y-25.71 E271.01324
G1 X-13.84 Y-26.329 E271.51985
G1 X-12.857 Y-26.916 E271.89674
G1 X-12.27 Y-27.332 E272.13358
G1 X-7.665 Y-31.124 E274.09728
G1 X-1.63 Y-29.866 E276.12661
G1 X-.506 Y-29.76 E276.49825
G1 X0.611 Y-29.766 E276.86596
G1 X1.8 Y-29.904 E277.25999
G1 X7.666 Y-31.121 E279.2321
G1 X12.317 Y-27.301 E281.21335
G1 X13.047 Y-26.787 E281.50725
G1 X13.812 Y-26.344 E281.79825
G1 X14.644 Y-25.955 E282.10059
G1 X15.458 Y-25.647 E282.38709
G1 X21.257 Y-23.994 E284.37207
G1 X23.591 Y-18.462 E286.34857
G1 X23.87 Y-17.904 E286.55393
G1 X24.454 Y-16.937 E286.9258
G1 X25.025 Y-16.183 E287.23715
G1 X25.718 Y-15.424 E287.57548
G1 X29.969 Y-11.366 E289.51007
G1 X29.495 Y-5.708 E291.37912
G1 X29.461 Y-4.642 E291.73021
G1 X29.544 Y-3.501 E292.10681
G1 X29.697 Y-2.611 E292.40408
G1 X29.955 Y-1.666 E292.72654
G1 X31.821 Y3.863 E294.64747
G1 X28.724 Y8.723 E296.54452
G1 X28.23 Y9.604 E296.87702
G1 X27.835 Y10.493 E297.19725
G1 X27.568 Y11.274 E297.46895
G1 X27.32 Y12.311 E297.81994
G1 X26.383 Y18.207 E299.78517
G1 X21.158 Y21.203 E301.76785
G1 X20.078 Y21.965 E302.20296
G1 X19.047 Y22.92 E302.66557
G1 X18.474 Y23.584 E302.95429
G1 X14.895 Y28.383 E304.92499
G1 X9.204 Y28.59 E306.79962
G1 X8.147 Y28.687 E307.14903
G1 X6.652 Y29.013 E307.65273
G1 X5.514 Y29.413 E308.04981
G0 F960 X-25.787 Y12.397
G1 F1200 X-11.163 Y27.021 E314.85783
G0 F960 X-6.406 Y27.535
G1 F1200 X-29.979 Y3.962 E325.83194
G0 F960 X-29.126 Y0.573
G1 F1200 X0.467 Y30.165 E339.60836
G0 F960 X3.335 Y28.791
G1 F1200 X-28.168 Y-2.712 E354.27419
G0 F960 X-28.085 Y-6.872
G1 F1200 X6.332 Y27.545 E370.2966
G0 F960 X10.086 Y27.057
G1 F1200 X-28.074 Y-11.103 E388.06151
G0 F960 X-25.903 Y-13.175
G1 F1200 X14.148 Y26.876 E406.70675
G0 F960 X15.961 Y24.446
G1 F1200 X-23.81 Y-15.324 E425.22141
G0 F960 X-22.186 Y-17.944
G1 F1200 X17.817 Y22.06 E443.84454
G0 F960 X20.107 Y20.107
G1 F1200 X-20.926 Y-20.926 E462.94694
G0 F960 X-18.872 Y-23.115
G1 F1200 X22.783 Y18.54 E482.33891
G0 F960 X25.115 Y16.63
G1 F1200 X-15.572 Y-24.057 E501.28023
G0 F960 X-12.596 Y-25.324
G1 F1200 X25.696 Y12.968 E519.1066
G0 F960 X26.586 Y9.615
G1 F1200 X-10.159 Y-27.13 E536.21277
G0 F960 X-7.831 Y-29.044
G1 F1200 X28.111 Y6.898 E552.94512
G0 F960 X29.761 Y4.306
G1 F1200 X-3.207 Y-28.663 E568.2932
G0 F960 X1.356 Y-28.342
G1 F1200 X28.549 Y-1.149 E580.95256
G0 F960 X28.008 Y-5.933
G1 F1200 X4.922 Y-29.019 E591.69996
G1 X4.392 Y-29.549
G0 F960 X13.214 Y-24.969
G1 F1200 X28.337 Y-9.847 E598.74005
G1 X28.867 Y-9.317
G0 F960 X20.503 Y-21.924
G1 F1200 X19.487 Y-22.939 E599.2128
;MESH:NONMESH
G0 F600 X19.487 Y-22.939 Z1.7
G0 F960 X1.789 Y18.309
;TIME_ELAPSED:107.632524
;LAYER:1
M106 S255
;TYPE:WALL-INNER
;MESH:Geometric Origami Pot.stl
G1 F1500 X3 Y17.893 E599.81495
G1 X4.683 Y17.421 E600.63695
G1 X6.48 Y17.095 E601.4958
G1 X7.802 Y16.952 E602.12112
G1 X8.864 Y16.883 E602.62159
G1 X9.336 Y16.278 E602.98244
G1 X10.031 Y15.452 E603.49009
G1 X10.99 Y14.433 E604.14813
G1 X11.972 Y13.508 E604.78254
G1 X12.789 Y12.819 E605.28513
G1 X13.877 Y11.997 E605.92639
G1 X14.847 Y11.346 E606.47575
G1 X15.693 Y10.833 E606.94102
G1 X15.821 Y10.127 E607.27844
G1 X16.034 Y9.138 E607.7542
G1 X16.385 Y7.845 E608.38426
G1 X16.878 Y6.399 E609.10269
G1 X17.426 Y5.051 E609.78699
G1 X18.069 Y3.778 E610.45767
G1 X18.931 Y2.298 E611.2631
G1 X18.643 Y1.37 E611.72004
G1 X18.345 Y0.232 E612.27325
G1 X18.03 Y-1.381 E613.04611
G1 X17.841 Y-2.805 E613.72164
G1 X17.76 Y-4.412 E614.47831
G1 X17.764 Y-5.527 E615.00266
G1 X17.83 Y-6.761 E615.58379
G1 X16.794 Y-7.823 E616.28149
G1 X15.767 Y-9.023 E617.02426
G1 X14.854 Y-10.253 E617.74462
G1 X14.111 Y-11.404 E618.38887
G1 X13.405 Y-12.638 E619.05744
G1 X12.643 Y-14.275 E619.90658
G1 X11.002 Y-14.818 E620.71943
G1 X9.494 Y-15.424 E621.48371
G1 X8.006 Y-16.189 E622.27052
G1 X7.054 Y-16.743 E622.7885
G1 X5.733 Y-17.622 E623.53467
G1 X4.564 Y-18.516 E624.22675
G1 X3.113 Y-18.268 E624.91899
G1 X1.535 Y-18.104 E625.66507
G1 X0.00 Y-18.049 E626.38738
G1 X-1.075 Y-18.077 E626.89309
G1 X-2.871 Y-18.218 E627.74028
G1 X-4.562 Y-18.515 E628.54767
G1 X-5.116 Y-18.08 E628.87891
G1 X-5.935 Y-17.479 E629.35663
G1 X-7.194 Y-16.658 E630.06346
G1 X-8.7 Y-15.803 E630.87785
G1 X-10.415 Y-15.045 E631.75962
G1 X-11.222 Y-14.738 E632.16565
G1 X-12.644 Y-14.275 E632.86892
G1 X-13.32 Y-12.799 E633.63237
G1 X-14.189 Y-11.275 E634.45737
G1 X-15.173 Y-9.803 E635.29002
G1 X-15.765 Y-9.025 E635.74976
G1 X-16.632 Y-8.001 E636.38074
G1 X-17.326 Y-7.262 E636.85748
G1 X-17.83 Y-6.761 E637.19167
G1 X-17.74 Y-5.085 E637.98097
G1 X-17.796 Y-3.538 E638.70895
G1 X-17.895 Y-2.382 E639.25456
G1 X-18.08 Y-1.015 E639.90327
G1 X-18.471 Y0.787 E640.77041
G1 X-18.93 Y2.295 E641.51169
G1 X-18.43 Y3.125 E641.96736
G1 X-17.693 Y4.51 E642.70515
G1 X-17.228 Y5.527 E643.23103
G1 X-16.594 Y7.144 E644.0478
G1 X-16.095 Y8.847 E644.88233
G1 X-15.817 Y10.145 E645.50658
G1 X-15.693 Y10.832 E645.83487
G1 X-15.094 Y11.193 E646.16376
G1 X-14.239 Y11.745 E646.64235
G1 X-13.024 Y12.633 E647.35006
G1 X-11.771 Y13.667 E648.11403
G1 X-10.237 Y15.201 E649.13422
G1 X-9.298 Y16.325 E649.82297
G1 X-8.863 Y16.884 E650.15607
G1 X-7.882 Y16.945 E650.61829
G1 X-6.35 Y17.109 E651.34285
G1 X-4.401 Y17.492 E652.27692
G1 X-2.674 Y17.986 E653.12164
G1 X-1.365 Y18.473 E653.77844
G1 X0.00 Y19.068 E654.47868
G1 X1.789 Y18.309 E655.39257
G0 F1680 X2.103 Y21.408
G1 F1500 X3.763 Y20.798 E656.22424
G1 X5.04 Y20.436 E656.84843
G1 X6.478 Y20.14 E657.53885
G1 X8.309 Y19.922 E658.40599
G1 X10.397 Y19.8 E659.38957
G1 X11.906 Y17.855 E660.54723
G1 X12.784 Y16.889 E661.16111
G1 X13.961 Y15.754 E661.93004
G1 X15.212 Y14.736 E662.68851
G1 X16.453 Y13.88 E663.39747
G1 X18.405 Y12.708 E664.46818
G1 X18.839 Y10.292 E665.62252
G1 X19.173 Y8.997 E666.25144
G1 X19.484 Y8.012 E666.73719
G1 X20.034 Y6.6 E667.4498
G1 X20.625 Y5.362 E668.09492
G1 X21.028 Y4.63 E668.48788
G1 X22.204 Y2.696 E669.55231
G1 X21.593 Y0.765 E670.50476
G1 X21.309 Y-.273 E671.01084
G1 X21.102 Y-1.226 E671.46945
G1 X20.866 Y-2.81 E672.22257
G1 X20.782 Y-3.857 E672.71652
G1 X20.753 Y-5.5 E673.48928
G1 X20.913 Y-7.931 E674.63497
G1 X19.284 Y-9.545 E675.71336
G1 X18.204 Y-10.78 E676.48489
G1 X17.323 Y-11.957 E677.17627
G1 X16.813 Y-12.736 E677.61413
G1 X16.22 Y-13.758 E678.16978
G1 X15.761 Y-14.661 E678.64614
G1 X14.828 Y-16.742 E679.71862
G1 X12.65 Y-17.417 E680.79091
G1 X11.699 Y-17.763 E681.26681
G1 X10.3 Y-18.378 E681.98548
G1 X8.966 Y-19.094 E682.69746
G1 X7.381 Y-20.113 E683.58358
G1 X5.354 Y-21.718 E684.79944
G1 X3.371 Y-21.345 E685.74833
G1 X2.122 Y-21.167 E686.34162
G1 X0.813 Y-21.068 E686.95895
G1 X-.811 Y-21.068 E687.72266
G1 X-1.776 Y-21.132 E688.17746
G1 X-3.357 Y-21.342 E688.92748
G1 X-5.351 Y-21.718 E689.88171
G1 X-7.364 Y-20.127 E691.08833
G1 X-8.747 Y-19.224 E691.86506
G1 X-10.478 Y-18.276 E692.79317
G1 X-11.869 Y-17.697 E693.50171
G1 X-12.878 Y-17.342 E694.00472
G1 X-14.831 Y-16.741 E694.96565
G1 X-15.66 Y-14.877 E695.925
G1 X-16.302 Y-13.607 E696.59421
G1 X-16.747 Y-12.843 E697.01
G1 X-17.482 Y-11.731 E697.63684
G1 X-18.294 Y-10.653 E698.27151
G1 X-19.258 Y-9.571 E698.95299
G1 X-20.912 Y-7.932 E700.04801
G1 X-20.763 Y-5.62 E701.13751
G1 X-20.757 Y-4.644 E701.5965
G1 X-20.846 Y-2.821 E702.45481
G1 X-21.102 Y-1.226 E703.21448
G1 X-21.468 Y0.377 E703.98771
G1 X-22.204 Y2.694 E705.13097
G1 X-21.149 Y4.418 E706.08146
G1 X-20.625 Y5.358 E706.58755
G1 X-20.034 Y6.596 E707.23267
G1 X-19.482 Y8.014 E707.94825
G1 X-19.253 Y8.72 E708.29729
G1 X-18.829 Y10.318 E709.07477
G1 X-18.409 Y12.703 E710.21361
G1 X-16.667 Y13.747 E711.16866
G1 X-15.618 Y14.44 E711.7599
G1 X-14.167 Y15.575 E712.62621
G1 X-12.936 Y16.704 E713.4117
G1 X-11.644 Y18.195 E714.33949
G1 X-10.393 Y19.805 E715.29831
G1 X-8.096 Y19.933 E716.38018
G1 X-6.476 Y20.14 E717.1482
G1 X-5.403 Y20.351 E717.66246
G1 X-3.763 Y20.798 E718.46182
G1 X-2.102 Y21.409 E719.2941
G1 X-0.001 Y22.365 E720.3796
G1 X2.103 Y21.408 E721.46658
G0 F1680 X0.975 Y25.217
G1 F1500 X3.605 Y24.017 E722.82603
G1 X4.996 Y23.557 E723.51501
G1 X6.721 Y23.143 E724.34925
G1 X8.524 Y22.914 E725.20395
G1 X10.672 Y22.79 E726.21576
G1 X11.937 Y22.743 E726.81105
G1 X12.678 Y21.754 E727.39221
G1 X14.018 Y20.031 E728.41867
G1 X14.641 Y19.298 E728.87105
G1 X15.551 Y18.366 E729.48361
G1 X16.811 Y17.288 E730.26341
G1 X18.059 Y16.414 E730.97991
G1 X20.198 Y15.132 E732.15264
G1 X21.137 Y14.593 E732.66179
G1 X21.307 Y13.525 E733.17036
G1 X21.754 Y11.035 E734.36003
G1 X22.226 Y9.27 E735.21921
G1 X22.572 Y8.31 E735.69909
G1 X23.214 Y6.887 E736.43323
G1 X23.728 Y5.955 E736.93375
G1 X24.913 Y4.015 E738.0028
G1 X25.499 Y3.096 E738.51535
G1 X25.15 Y2.062 E739.02856
G1 X24.396 Y-.319 E740.20306
G1 X24.049 Y-1.789 E740.91334
G1 X23.858 Y-3.05 E741.51311
G1 X23.778 Y-4.016 E741.96894
G1 X23.763 Y-5.516 E742.67437
G1 X24 Y-9.126 E744.37568
G1 X23.361 Y-9.728 E744.78853
