;FLAVOR:Marlin
;TIME:699
;Filament used: 6.63456m
;Layer height: 1
;MINX:-33.748
;MINY:-33.82
;MINZ:0.7
;MAXX:33.746
;MAXY:33.787
;MAXZ:71.7
;TARGET_MACHINE.NAME:Unknown
;Generated with Cura_SteamEngine 5.11.0
M140 S60
M105
M190 S60
M104 S200
M105
M109 S200
G28 ;Home
M302 S0 ;Set cold extrusion
M92 E400 ;E Steps at 400 steps/mm M92 E-400 reverse
G1 Z15.0 F6000 ;Move the platform down 15mm
;Prime the extruder
G92 E0
G1 F200 E3
G92 E0
M82 ;absolute extrusion mode
G92 E0
G92 E0
G1 F1500 E-6.5
;LAYER_COUNT:71
;LAYER:0
;note -- min layer time used
M106 S255
G1 F600 Z1.7
;MESH:voronoi_ball_100.stl
G0 F960 X0.00 Y0.000 Z1.7
G0 X4.649 Y3.086
;TYPE:WALL-OUTER
G1 F600 Z0.7
G1 F1500 E0
G1 F645.6 X4.759 Y2.738 E0.11165
G1 F667.7 X4.883 Y1.989 E0.33624
G1 F695.5 X5.028 Y0.145 E0.86151
G1 F681.8 X4.849 Y-.859 E1.15694
G1 F637.2 X4.742 Y-1.154 E1.25421
G1 F594.5 X4.691 Y-1.39 E1.33444
G1 F588 X4.563 Y-1.501 E1.39134
G1 F621.5 X3.816 Y-2.183 E1.71277
G1 F675.2 X3.07 Y-2.865 E2.00846
G1 F705.9 X2.548 Y-3.225 E2.18588
;MESH:NONMESH
G0 F600 X2.548 Y-3.225 Z1.7
G0 F960 X-1.807 Y0.374
;TIME_ELAPSED:4.105283
;LAYER:1
;note -- min layer time used
;TYPE:WALL-INNER
;MESH:voronoi_ball_100.stl
G1 F1083 X-1.989 Y0.059 E2.35206
G1 X-2.353 Y0.059 E2.51833
G1 X-2.535 Y0.374 E2.6845
G1 X-2.353 Y0.689 E2.85068
G1 X-1.989 Y0.689 E3.01695
G1 X-1.807 Y0.374 E3.18313
G0 F1680 X-1.281 Y1.462
G0 X-.779 Y2.997
G1 F1052 X1.558 Y2.223 E4.34084
G1 X2.092 Y1.995 E4.61389
G1 X2.809 Y1.795 E4.96394
G1 X2.825 Y1.378 E5.16019
G1 X2.762 Y0.629 E5.51366
G1 X2.798 Y-.318 E5.95932
G1 X1.273 Y-1.091 E6.76334
G1 X0.464 Y-1.424 E7.17475
G1 X-.318 Y-1.929 E7.61252
G1 X-1.598 Y-3.074 E8.42014
G1 X-2.14 Y-3.516 E8.74903
G1 X-4.43 Y-2.31 E9.96615
G1 X-5.084 Y-.47 E10.88447
G1 X-5.207 Y1.653 E11.88451
G1 X-5.252 Y1.991 E12.04486
G1 X-3.645 Y3.044 E12.94836
G1 X-2.159 Y3.842 E13.74157
G1 X-1.852 Y3.588 E13.92894
G1 X-1.127 Y3.148 E14.32776
G1 X-.779 Y2.997 E14.50615
G0 F1680 X-1.281 Y1.462
G0 X-3.581 Y1.183
G0 X-8.311 Y1.96
;TYPE:WALL-OUTER
G1 F1052 X-8.491 Y2.282 E14.67963
G1 X-8.876 Y2.72 E14.95387
G1 X-8.448 Y3.287 E15.28795
G1 X-7.811 Y3.902 E15.70433
G1 X-5.18 Y5.625 E17.1833
G1 X-3.804 Y6.365 E17.91803
G1 X-2.279 Y7.71 E18.87425
G1 X-2.037 Y7.589 E19.00149
G1 X-.887 Y6.747 E19.67175
G1 X-0.058 Y5.993 E20.19874
G1 X0.226 Y5.82 E20.35512
G1 X2.636 Y5.026 E21.54838
G1 X3.328 Y4.749 E21.8989
G1 X3.709 Y4.691 E22.08014
G1 X4.741 Y4.726 E22.56573
G1 X5.998 Y4.654 E23.15782
G1 X6.58 Y4.683 E23.43185
G1 X6.298 Y3.941 E23.80514
G1 X6.2 Y3.441 E24.04475
G1 X6.208 Y3.286 E24.11773
G1 X5.856 Y2.235 E24.63897
G1 X5.808 Y1.83 E24.83076
G1 X5.832 Y1.308 E25.07649
G1 X5.76 Y0.516 E25.45048
G1 X5.785 Y-0.046 E25.71503
G1 X5.883 Y-.464 E25.91693
G1 X6.097 Y-.869 E26.13234
G1 X6.186 Y-1.336 E26.3559
G1 X6.309 Y-1.709 E26.5406
G1 X6.862 Y-2.525 E27.00416
G1 X7.096 Y-2.991 E27.24938
G1 X6.933 Y-3.002 E27.3262
G1 X5.682 Y-2.84 E27.91942
G1 X4.551 Y-2.86 E28.45137
G1 X4.248 Y-2.95 E28.60001
G1 X2.48 Y-3.843 E29.53147
G1 X1.824 Y-4.098 E29.86245
G1 X1.563 Y-4.267 E30.00868
G1 X0.378 Y-5.333 E30.75824
G1 X-1.39 Y-6.778 E31.83203
G1 X-1.61 Y-7.001 E31.97935
G1 X-1.758 Y-7.086 E32.05961
G1 X-3.516 Y-6.182 E32.98923
G1 X-5.938 Y-4.907 E34.27639
G1 X-6.858 Y-4.438 E34.76201
G1 X-8.054 Y-1.071 E36.44231
G1 X-8.211 Y1.626 E37.71276
G1 X-8.311 Y1.96 E37.87672
G0 F1680 X-8.491 Y2.282
G0 X-8.876 Y2.72
G0 X-8.546 Y3.157
;MESH:NONMESH
G0 F600 X-8.546 Y3.157 Z2.7
G0 F1680 X-6.753 Y2.718
G0 X4.19 Y-.31
G0 X6.22 Y-.201
;TIME_ELAPSED:9.649829
;LAYER:2
;note -- min layer time used
;TYPE:WALL-OUTER
;MESH:voronoi_ball_100.stl
G1 F1748.1 X6.333 Y2.063 E38.94272
G1 X6.917 Y2.958 E39.44528
G1 X7.305 Y3.756 E39.86256
G1 X7.632 Y4.653 E40.31154
G1 X8.413 Y5.836 E40.97816
G1 X8.888 Y6.99 E41.56502
G1 X6.648 Y5.804 E42.75695
G1 X5.249 Y5.515 E43.42874
G1 X4.696 Y5.327 E43.70342
G1 X2.698 Y5.55 E44.64884
G1 X2.118 Y5.702 E44.9308
G1 X1.338 Y6.193 E45.36423
G1 X0.386 Y6.64 E45.85882
G1 X-1.39 Y8.485 E47.06312
G1 X-1.835 Y9.471 E47.57183
G1 X-1.998 Y10.18 E47.91395
G1 X-2.168 Y10.594 E48.12441
G1 X-2.599 Y9.879 E48.51701
G1 X-2.861 Y9.166 E48.87423
G1 X-3.437 Y8.392 E49.32795
G1 X-4.302 Y7.731 E49.8399
G1 X-5.071 Y6.887 E50.37684
G1 X-6.447 Y6.015 E51.14292
G1 X-8.916 Y4.804 E52.43614
G1 X-10.295 Y4.061 E53.17278
G1 X-11.393 Y3.79 E53.70462
G1 X-11.939 Y3.823 E53.96185
G1 X-11.061 Y2.693 E54.6348
G1 X-9.971 Y0.26 E55.88853
G1 X-9.457 Y-.937 E56.50114
G1 X-9.231 Y-1.733 E56.89027
G1 X-8.854 Y-3.687 E57.82611
G1 X-8.504 Y-4.655 E58.31017
G1 X-8.221 Y-6.26 E59.07658
G1 X-8.13 Y-6.311 E59.12564
G1 X-7.949 Y-6.289 E59.21138
G1 X-5.983 Y-6.375 E60.13681
G1 X-5.341 Y-6.509 E60.44522
G1 X-3.583 Y-7.302 E61.35216
G1 X-2.839 Y-7.947 E61.81521
G1 X-1.76 Y-9.226 E62.60213
G1 X-1.533 Y-9.588 E62.80306
G1 X-1.195 Y-9.828 E62.99801
G1 X-.976 Y-9.094 E63.35822
G1 X-.86 Y-8.958 E63.44228
G1 X-.29 Y-7.129 E64.34319
G1 X0.841 Y-5.771 E65.17429
G1 X2.294 Y-4.635 E66.04163
G1 X2.555 Y-4.408 E66.20429
G1 X4.61 Y-3.569 E67.24812
G1 X7.014 Y-3.85 E68.38634
G1 X7.784 Y-4.297 E68.80503
G1 X9.015 Y-4.817 E69.43346
G1 X9.511 Y-4.988 E69.68018
G1 X9.095 Y-4.261 E70.07408
G1 X6.22 Y-.201 E72.41357
G0 F2400 X5.758 Y0.506
G1 F1748.1 X5.861 Y2.222 Z2.728 E73.22211
G1 X6.209 Y3.197 Z2.745 E73.70901
G1 X6.412 Y4.098 Z2.761 E74.1434
G1 X6.649 Y4.682 Z2.771 E74.43983
G1 X6.733 Y4.779 Z2.773 E74.50018
G1 X6.812 Y4.913 Z2.776 E74.57334
G1 X6.592 Y4.834 Z2.78 E74.68329
G1 X5.211 Y4.825 Z2.802 E75.33282
G1 X4.716 Y4.825 Z2.811 E75.56563
G1 X2.569 Y5.154 Z2.846 E76.58721
G1 X1.999 Y5.338 Z2.856 E76.86892
G1 X1.166 Y5.667 Z2.871 E77.29015
G1 X-0.027 Y6.195 Z2.893 E77.90376
G1 X-1.862 Y7.821 Z2.933 E79.05688
G1 X-2.175 Y8.203 Z2.941 E79.28916
G1 X-2.217 Y8.423 Z2.945 E79.3945
G1 X-2.264 Y8.558 Z2.947 E79.46173
G1 X-2.393 Y8.375 Z2.951 E79.56704
G1 X-2.478 Y8.174 Z2.955 E79.66968
G1 X-2.868 Y7.744 Z2.964 E79.94271
G1 X-3.714 Y7.061 Z2.982 E80.45409
G1 X-4.749 Y6.288 Z3.003 E81.06166
G1 X-6.101 Y5.488 Z3.029 E81.80053
G1 X-8.343 Y4.212 Z3.072 E83.01383
G1 X-9.426 Y3.406 Z3.094 E83.64877
G1 X-10.019 Y3.207 Z3.105 E83.94297
G1 X-10.29 Y3.23 Z3.109 E84.07088
G1 X-9.928 Y2.708 Z3.12 E84.36965
G1 X-9.087 Y0.311 Z3.162 E85.56441
G1 X-8.812 Y-.899 Z3.182 E86.14801
G1 X-8.664 Y-1.531 Z3.193 E86.4533
G1 X-8.202 Y-3.455 Z3.225 E87.38393
G1 X-7.875 Y-4.431 Z3.242 E87.86805
G1 X-7.691 Y-5.552 Z3.261 E88.40235
G1 X-7.637 Y-5.586 Z3.262 E88.43236
G1 X-7.529 Y-5.577 Z3.264 E88.48333
G1 X-5.764 Y-5.957 Z3.294 E89.33248
G1 X-5.157 Y-6.157 Z3.304 E89.63307
G1 X-3.432 Y-7.008 Z3.336 E90.53774
G1 X-2.661 Y-7.601 Z3.352 E90.99522
G1 X-1.76 Y-8.614 Z3.374 E91.63285
G1 X-1.596 Y-8.887 Z3.38 E91.78264
G1 X-1.35 Y-9.075 Z3.385 E91.92826
G1 X-1.183 Y-8.564 Z3.394 E92.1811
G1 X-1.095 Y-8.468 Z3.396 E92.24235
G1 X-.434 Y-6.953 Z3.423 E93.01977
G1 X0.751 Y-5.671 Z3.452 E93.84086
G1 X2.25 Y-4.518 Z3.483 E94.73031
G1 X2.52 Y-4.314 Z3.489 E94.88948
G1 X4.561 Y-3.473 Z3.525 E95.92771
G1 X7.011 Y-3.75 Z3.566 E97.08736
G1 X7.712 Y-4.16 Z3.579 E97.46931
G1 X8.848 Y-4.658 Z3.6 E98.05269
G1 X9.318 Y-4.829 Z3.608 E98.28792
G1 X8.959 Y-4.174 Z3.62 E98.63922
G1 X6.22 Y-.201 Z3.7 E100.90886
;TIME_ELAPSED:14.313514
;LAYER:3
;note -- min layer time used
;TYPE:WALL-OUTER
;MESH:voronoi_ball_100.stl
G1 F1078.8 X6.277 Y0.965 Z3.713 E101.45787
G1 X6.328 Y2.027 Z3.725 E101.9579
G1 X7.195 Y3.513 Z3.744 E102.76701
G1 X7.431 Y4.061 Z3.751 E103.04761
G1 X8.032 Y5.213 Z3.765 E103.65868
G1 X8.616 Y6.196 Z3.778 E104.19641
G1 X9.039 Y7.074 Z3.789 E104.65475
G1 X9.128 Y7.232 Z3.791 E104.74004
G1 X9.134 Y7.252 E104.74986
G1 X9.106 Y7.306 Z3.792 E104.77847
G1 X9.05 Y7.375 Z3.793 E104.82026
G1 X9.053 Y7.354 E104.83024
G1 X8.951 Y7.263 Z3.794 E104.89452
G1 X8.918 Y7.181 Z3.795 E104.93609
G1 X7.234 Y6.218 Z3.817 E105.84841
G1 X6.733 Y5.923 Z3.823 E106.12184
G1 X5.897 Y5.714 Z3.833 E106.52711
G1 X4.066 Y5.395 Z3.854 E107.40119
G1 X2.525 Y5.636 Z3.871 E108.13472
G1 X1.649 Y5.982 Z3.881 E108.57766
G1 X1.039 Y6.37 Z3.889 E108.91766
G1 X-.112 Y7.221 Z3.905 E109.59085
G1 X-.559 Y7.709 Z3.913 E109.90208
G1 X-1.011 Y8.244 Z3.92 E110.23146
G1 X-1.585 Y9.266 Z3.934 E110.78273
G1 X-1.834 Y10.282 Z3.945 E111.27468
G1 X-1.952 Y10.797 Z3.951 E111.52316
G1 X-2.029 Y11.254 Z3.956 E111.74111
G1 X-2.108 Y11.47 Z3.959 E111.84928
G1 X-2.143 Y11.418 E111.87875
G1 X-2.317 Y10.982 Z3.965 E112.09953
G1 X-2.396 Y10.801 Z3.967 E112.19241
G1 X-2.839 Y9.778 Z3.979 E112.71669
G1 X-3.318 Y8.875 Z3.991 E113.19742
G1 X-4.755 Y7.411 Z4.013 E114.16217
G1 X-5.152 Y7.049 Z4.019 E114.41485
G1 X-6.132 Y6.362 Z4.033 E114.9777
G1 X-10.96 Y4.068 Z4.092 E117.49155
G1 X-12.179 Y4.561 Z4.107 E118.10995
G1 X-12.094 Y4.936 Z4.111 E118.29078
G1 X-12.133 Y5.189 Z4.114 E118.41117
G1 X-12.897 Y4.183 Z4.128 E119.00526
G1 X-13.006 Y3.97 Z4.131 E119.11778
G1 X-12.963 Y3.844 Z4.132 E119.18039
G1 X-12.849 Y3.827 Z4.133 E119.2346
G1 X-12.553 Y3.702 Z4.137 E119.38571
G1 X-11.612 Y2.804 Z4.151 E119.99743
G1 X-10.909 Y1.632 Z4.167 E120.64017
G1 X-10.354 Y0.387 Z4.182 E121.28123
G1 X-9.619 Y-1.485 Z4.204 E122.22704
G1 X-9.499 Y-2.165 Z4.212 E122.55179
G1 X-9.155 Y-3.778 Z4.23 E123.32743
G1 X-9.156 Y-4.104 Z4.234 E123.48074
G1 X-8.929 Y-5.369 Z4.248 E124.08517
G1 X-9.076 Y-6.296 Z4.259 E124.52658
G1 X-9.128 Y-6.826 Z4.265 E124.77703
G1 X-9.11 Y-7.222 Z4.269 E124.96346
G1 X-8.829 Y-7.22 Z4.272 E125.09561
G1 X-8.714 Y-7.164 Z4.273 E125.15577
G1 X-7.638 Y-6.904 Z4.286 E125.67637
G1 X-7.336 Y-6.888 Z4.289 E125.81859
G1 X-5.688 Y-6.655 Z4.308 E126.60135
G1 X-4.922 Y-6.978 Z4.317 E126.99231
G1 X-3.762 Y-7.355 Z4.33 E127.56593
G1 X-2.373 Y-9.325 Z4.357 E128.69955
G1 X-1.717 Y-10.306 Z4.37 E129.25455
G1 X-1.505 Y-10.803 Z4.376 E129.50866
G1 X-.97 Y-11.703 Z4.388 E130.00107
G1 X-.964 Y-11.828 Z4.389 E130.05992
G1 X-.896 Y-11.914 Z4.391 E130.11148
G1 X-.761 Y-11.951 Z4.392 E130.17731
G1 X-.557 Y-11.3 Z4.4 E130.49816
G1 X-.579 Y-9.655 Z4.418 E131.27186
G1 X-.285 Y-8.831 Z4.428 E131.68331
G1 X-.13 Y-7.542 Z4.442 E132.29388
G1 X0.937 Y-5.789 Z4.465 E133.25901
G1 X2.661 Y-4.291 Z4.491 E134.33312
G1 X4.882 Y-3.677 Z4.516 E135.41681
G1 X6.479 Y-3.994 Z4.534 E136.18252
G1 X7.596 Y-4.646 Z4.549 E136.79079
G1 X7.776 Y-4.723 Z4.551 E136.88286
G1 X10.36 Y-6.386 Z4.585 E138.32801
G1 X10.785 Y-6.543 Z4.59 E138.54109
G1 X11.607 Y-6.998 Z4.601 E138.98295
G1 X11.136 Y-5.87 Z4.614 E139.55782
G1 X9.853 Y-4.225 Z4.637 E140.53893
G1 X8.417 Y-2.666 Z4.661 E141.53575
G1 X7.357 Y-1.686 Z4.677 E142.21467
G1 X6.688 Y-.759 Z4.69 E142.75231
G1 X6.086 Y-0.052 Z4.7 E143.18901
;TIME_ELAPSED:19.321603
;LAYER:4
;note -- min layer time used
;TYPE:WALL-OUTER
;MESH:voronoi_ball_100.stl
G1 F1583.2 X6.142 Y0.515 Z4.704 E143.45695
G1 X6.179 Y2.039 Z4.716 E144.17387
G1 X6.681 Y2.632 Z4.722 E144.53925
G1 X7.28 Y3.337 Z4.729 E144.97431
G1 X7.974 Y4.37 Z4.738 E145.55956
G1 X9.054 Y5.689 Z4.751 E146.36126
G1 X9.501 Y6.256 Z4.757 E146.70081
G1 X10.131 Y7.192 Z4.765 E147.23141
G1 X11.105 Y8.922 Z4.78 E148.16507
G1 X11.425 Y9.484 Z4.785 E148.46921
G1 X11.412 Y9.51 E148.48288
G1 X11.324 Y9.559 Z4.786 E148.53024
G1 X11.084 Y9.788 Z4.789 E148.68625
G1 X10.333 Y10.403 Z4.796 E149.14274
G1 X9.977 Y10.744 Z4.8 E149.37457
G1 X9.917 Y10.786 E149.40901
G1 X10.004 Y10.663 Z4.801 E149.47986
G1 X10.07 Y10.425 Z4.803 E149.59601
G1 X9.495 Y9.413 Z4.812 E150.14339
G1 X9.272 Y9.134 Z4.815 E150.31136
G1 X8.897 Y8.28 Z4.822 E150.74999
G1 X7.413 Y6.978 Z4.837 E151.67841
G1 X7.291 Y6.853 Z4.838 E151.76055
G1 X6.589 Y6.152 Z4.846 E152.2271
G1 X5.24 Y5.686 Z4.856 E152.89829
G1 X4.874 Y5.554 Z4.859 E153.08126
G1 X4.074 Y5.234 Z4.866 E153.48647
G1 X2.83 Y5.562 Z4.876 E154.09149
G1 X1.595 Y5.775 Z4.885 E154.68086
G1 X0.73 Y6.598 Z4.894 E155.24235
G1 X0.268 Y6.958 Z4.899 E155.51779
G1 X-.259 Y7.46 Z4.904 E155.86007
G1 X-1.019 Y8.924 Z4.917 E156.6358
G1 X-1.221 Y9.852 Z4.924 E157.08244
G1 X-1.311 Y10.502 Z4.929 E157.39104
G1 X-1.389 Y12.007 Z4.94 E158.09975
G1 X-1.614 Y13.286 Z4.95 E158.71047
G1 X-1.775 Y13.945 Z4.955 E159.0295
G1 X-1.765 Y14.107 Z4.957 E159.10583
G1 X-1.826 Y14.284 Z4.958 E159.19388
G1 X-1.821 Y14.404 Z4.959 E159.25036
G1 X-1.884 Y14.428 E159.28206
G1 X-1.953 Y14.431 Z4.96 E159.31455
G1 X-1.969 Y14.417 E159.32454
G1 X-2.16 Y14 Z4.964 E159.54024
G1 X-2.178 Y13.86 Z4.965 E159.60662
G1 X-2.168 Y13.666 Z4.966 E159.69798
G1 X-2.966 Y11.354 Z4.985 E160.8482
G1 X-3.075 Y10.722 Z4.989 E161.1498
G1 X-3.493 Y9.333 Z5 E161.83196
G1 X-4.805 Y7.58 Z5.017 E162.86168
G1 X-5.392 Y7.186 Z5.022 E163.19415
G1 X-6.613 Y6.29 Z5.034 E163.90638
G1 X-9.25 Y5.058 Z5.056 E165.27517
G1 X-10.518 Y4.429 Z5.067 E165.94082
G1 X-12.13 Y5.386 Z5.081 E166.82243
G1 X-11.922 Y7.344 Z5.096 E167.74842
G1 X-11.974 Y8.395 Z5.104 E168.24328
G1 X-12.164 Y8.094 Z5.106 E168.41068
G1 X-12.541 Y7.239 Z5.114 E168.85012
G1 X-13.344 Y5.979 Z5.125 E169.55277
G1 X-13.598 Y5.644 Z5.128 E169.75048
G1 X-14.353 Y4.583 Z5.138 E170.36288
G1 X-14.933 Y4.009 Z5.144 E170.74663
G1 X-15.087 Y3.979 Z5.145 E170.82041
G1 X-15.216 Y3.731 Z5.147 E170.95188
G1 X-14.598 Y3.48 Z5.153 E171.26557
G1 X-12.554 Y3.087 Z5.168 E172.24442
G1 X-11.892 Y2.45 Z5.175 E172.67646
G1 X-11.613 Y2.205 Z5.178 E172.85108
G1 X-9.914 Y-1.369 Z5.208 E174.7121
G1 X-9.772 Y-2.187 Z5.214 E175.10254
G1 X-9.538 Y-4.256 Z5.23 E176.08175
G1 X-9.879 Y-6.254 Z5.245 E177.03495
G1 X-10.269 Y-7.551 Z5.256 E177.67188
G1 X-10.284 Y-7.883 Z5.258 E177.82817
G1 X-10.563 Y-8.436 Z5.263 E178.11945
G1 X-10.553 Y-8.768 Z5.265 E178.27566
G1 X-10.613 Y-8.908 Z5.267 E178.34729
G1 X-10.452 Y-8.85 Z5.268 E178.42777
G1 X-10.331 Y-8.848 Z5.269 E178.48468
G1 X-9.637 Y-8.512 Z5.275 E178.84729
G1 X-8.273 Y-7.824 Z5.286 E179.56573
G1 X-8.119 Y-7.707 Z5.288 E179.65668
G1 X-5.483 Y-6.348 Z5.31 E181.05138
G1 X-4.756 Y-6.994 Z5.318 E181.50875
G1 X-3.795 Y-7.255 Z5.325 E181.97706
G1 X-2.818 Y-8.953 Z5.34 E182.89834
G1 X-2.684 Y-9.461 Z5.344 E183.14541
G1 X-2.105 Y-10.668 Z5.354 E183.77497
G1 X-1.827 Y-12.02 Z5.365 E184.42408
G1 X-1.616 Y-12.501 Z5.369 E184.6711
G1 X-1.611 Y-12.734 Z5.37 E184.78069
G1 X-1.558 Y-12.823 Z5.371 E184.82941
G1 X-1.506 Y-13.664 Z5.377 E185.22567
G1 X-1.269 Y-13.965 Z5.38 E185.40583
G1 X-1.23 Y-14.182 Z5.382 E185.50952
G1 X-.614 Y-14.356 Z5.387 E185.81055
G1 X-.374 Y-14.351 Z5.389 E185.92344
G1 X0.482 Y-14.43 Z5.395 E186.3277
G1 X1.013 Y-14.463 Z5.399 E186.5779
G1 X0.893 Y-14.298 Z5.401 E186.67385
G1 X0.223 Y-12.112 Z5.418 E187.74908
G1 X0.227 Y-11.994 Z5.419 E187.8046
G1 X-.229 Y-9.835 Z5.436 E188.84233
G1 X-.115 Y-8.966 Z5.442 E189.2545
G1 X-.176 Y-7.529 Z5.453 E189.9309
G1 X0.616 Y-5.558 Z5.469 E190.92985
G1 X1.002 Y-5.172 Z5.474 E191.18657
G1 X1.83 Y-4.228 Z5.483 E191.77709
G1 X3.314 Y-3.465 Z5.496 E192.56182
G1 X5.027 Y-3.242 Z5.509 E193.3742
G1 X6.48 Y-3.698 Z5.52 E194.09037
G1 X6.924 Y-4.112 Z5.525 E194.37587
G1 X7.855 Y-4.779 Z5.534 E194.91446
G1 X8.97 Y-5.725 Z5.545 E195.60212
G1 X9.883 Y-6.63 Z5.554 E196.20668
G1 X10.377 Y-6.955 Z5.559 E196.48476
G1 X11.646 Y-8.466 Z5.574 E197.41271
G1 X11.645 Y-10.188 Z5.587 E198.22253
G1 X11.588 Y-10.375 Z5.588 E198.31446
G1 X13.651 Y-8.769 Z5.608 E199.54397
G1 X12.855 Y-7.42 Z5.62 E200.28058
G1 X11.842 Y-5.855 Z5.634 E201.15729
G1 X10.032 Y-4.125 Z5.653 E202.33477
G1 X8.863 Y-3.226 Z5.664 E203.02829
G1 X8.117 Y-2.757 Z5.671 E203.44269
G1 X6.993 Y-1.971 Z5.681 E204.0877
G1 X6.713 Y-1.627 Z5.685 E204.2963
G1 X6.228 Y-1.307 Z5.689 E204.56955
G1 X5.295 Y-.24 Z5.7 E205.23612
;TIME_ELAPSED:24.345589
;LAYER:5
;TYPE:WALL-OUTER
;MESH:voronoi_ball_100.stl
G1 F3000 X-.97 Y7.607 Z5.971 E209.95985
G1 X-1.314 Y8.636 Z6.001 E210.47027
G1 X-1.277 Y9.708 Z6.03 E210.97488
G1 X-1.285 Y10.412 Z6.049 E211.30608
G1 X-1.291 Y10.577 Z6.053 E211.38375
G1 X-1.054 Y12.459 Z6.104 E212.2761
G1 X-1.041 Y14.041 Z6.147 E213.02036
G1 X-1.024 Y14.627 Z6.163 E213.29615
G1 X-1.001 Y15.557 Z6.188 E213.73379
G1 X-.964 Y16.481 Z6.213 E214.16882
G1 X-.551 Y16.911 Z6.229 E214.4493
G1 X0.166 Y17.379 Z6.252 E214.85209
G1 X-0.062 Y17.394 Z6.258 E214.95958
G1 X-.659 Y17.365 Z6.275 E215.24077
G1 X-1.369 Y17.26 Z6.294 E215.57841
G1 X-3.348 Y17.107 Z6.348 E216.51219
G1 X-3.728 Y16.954 Z6.359 E216.7049
